(Left Baffle Screws)
(Machine)
(  model: Shapeoko 3)
(  description: Shapeoko 3)
(T1  D=3.175 CR=0 - ZMIN=-12.7 - flat end mill)
G90 G94
G17
G21
G28 G91 Z0
G90

(Alignment)
T1
S19700 M3
G54
G0 X76.2 Y88.9
Z16
Z6
Z5
G1 Z-12.7 F762
G0 Z6
X95.25 Y184.15
Z5
G1 Z-12.7 F762
G0 Z6
Z16

(Screw Holes)
X114.333 Y50.701
Z16
Z6
Z0.237
G1 Z-12.7 F762
G0 Z6
X38.001 Y50.767
Z0.237
G1 Z-12.7 F762
G0 Z6
X38.067 Y127.099
Z0.237
G1 Z-12.7 F762
G0 Z6
X114.399 Y127.033
Z0.237
G1 Z-12.7 F762
G0 Z6
X110.965 Y168.435
Z1.031
G1 Z-12.7 F762
G0 Z6
X79.535
Z1.031
G1 Z-12.7 F762
G0 Z6
Y199.865
Z1.031
G1 Z-12.7 F762
G0 Z6
X110.965
Z1.031
G1 Z-12.7 F762
G0 Z6
Z16
G28 G91 Z0
G90
G28 G91 X0 Y0
G90
M5
M30
