(Left Baffle Cutout)
(Machine)
(  model: Shapeoko 3)
(  description: Shapeoko 3)
(T1  D=6.35 CR=0 - ZMIN=-12.7 - flat end mill)
G90 G94
G17
G21
(When using Fusion 360 for Personal Use, the feedrate of)
(rapid moves is reduced to match the feedrate of cutting)
(moves, which can increase machining time. Unrestricted rapid)
(moves are available with a Fusion 360 Subscription.)
G28 G91 Z0
G90

(2D Baffle Cutout)
T1
(Whiteside Spiral Up Cut)
S17000 M3
G54
G0 X157.48 Y226.181
Z16
G1 Z6 F2032
Z-2.365 F762
G18 G3 X156.845 Z-3 I-0.635 K0 F1524
G1 X156.21
G17 G3 X155.575 Y225.546 I0 J-0.635
G1 Y0 F2032
G2 X152.4 Y-3.175 I-3.175 J0
G1 X0
G2 X-3.175 Y0 I0 J3.175
G1 Y228.6
G2 X0 Y231.775 I3.175 J0
G1 X152.4
G2 X155.575 Y228.6 I0 J-3.175
G1 Y225.546
G3 X156.21 Y224.911 I0.635 J0 F1524
G1 X156.845
G18 G2 X157.48 Z-2.365 I0 K0.635
G1 Z6 F2032
Y226.181
Z2 F762
Z-6.365
G3 X156.845 Z-7 I-0.635 K0 F1524
G1 X156.21
G17 G3 X155.575 Y225.546 I0 J-0.635
G1 Y0 F2032
G2 X152.4 Y-3.175 I-3.175 J0
G1 X0
G2 X-3.175 Y0 I0 J3.175
G1 Y228.6
G2 X0 Y231.775 I3.175 J0
G1 X152.4
G2 X155.575 Y228.6 I0 J-3.175
G1 Y225.546
G3 X156.21 Y224.911 I0.635 J0 F1524
G1 X156.845
G18 G2 X157.48 Z-6.365 I0 K0.635
G1 Z6 F2032
Y226.181
Z-2 F762
Z-10.365
G3 X156.845 Z-11 I-0.635 K0 F1524
G1 X156.21
G17 G3 X155.575 Y225.546 I0 J-0.635
G1 Y0 F2032
G2 X152.4 Y-3.175 I-3.175 J0
G1 X0
G2 X-3.175 Y0 I0 J3.175
G1 Y228.6
G2 X0 Y231.775 I3.175 J0
G1 X152.4
G2 X155.575 Y228.6 I0 J-3.175
G1 Y225.546
G3 X156.21 Y224.911 I0.635 J0 F1524
G1 X156.845
G18 G2 X157.48 Z-10.365 I0 K0.635
G1 Z6 F2032
Y226.181
Z-6 F762
Z-12.065
G3 X156.845 Z-12.7 I-0.635 K0 F1524
G1 X156.21
G17 G3 X155.575 Y225.546 I0 J-0.635
G1 Y0 F2032
G2 X152.4 Y-3.175 I-3.175 J0
G1 X0
G2 X-3.175 Y0 I0 J3.175
G1 Y228.6
G2 X0 Y231.775 I3.175 J0
G1 X152.4
G2 X155.575 Y228.6 I0 J-3.175
G1 Y225.546
G3 X156.21 Y224.911 I0.635 J0 F1524
G1 X156.845
G18 G2 X157.48 Z-12.065 I0 K0.635
G1 Z16 F2032
G17
G28 G91 Z0
G90
G28 G91 X0 Y0
G90
M5
M30
