(Left Baffle Drivers)
(Machine)
(  model: Shapeoko 3)
(  description: Shapeoko 3)
(T1  D=6.35 CR=0 - ZMIN=-12.7 - flat end mill)
G90 G94
G17
G21
(When using Fusion 360 for Personal Use, the feedrate of)
(rapid moves is reduced to match the feedrate of cutting)
(moves, which can increase machining time. Unrestricted rapid)
(moves are available with a Fusion 360 Subscription.)
G28 G91 Z0
G90

(2D Tweeter Cutout)
T1
(Whiteside Spiral Up Cut)
S17000 M3
G54
G0 X95.951 Y197.323
Z16
G1 Z6 F2032
Z-2.365 F762
Y197.33 Z-2.464 F1524
Y197.354 Z-2.561
Y197.392 Z-2.653
Y197.444 Z-2.738
X95.952 Y197.509 Z-2.814
Y197.584 Z-2.879
X95.953 Y197.669 Z-2.931
Y197.761 Z-2.969
Y197.858 Z-2.992
X95.954 Y197.958 Z-3
X95.957 Y198.593
G3 X95.325 Y199.231 I-0.635 J0.003
X80.169 Y184.15 I-0.075 J-15.081 F2032
X110.331 Y184.15 I15.081 J0
X95.325 Y199.231 I-15.081 J0
X94.687 Y198.599 I-0.003 J-0.635 F1524
G1 X94.684 Y197.964
X94.683 Y197.865 Z-2.992
Y197.768 Z-2.969
Y197.676 Z-2.931
X94.682 Y197.591 Z-2.879
Y197.515 Z-2.814
X94.681 Y197.45 Z-2.738
Y197.398 Z-2.653
Y197.36 Z-2.561
Y197.337 Z-2.464
Y197.329 Z-2.365
Z6 F2032
X95.951 Y197.323
Z2 F762
Z-6.365
Y197.33 Z-6.464 F1524
Y197.354 Z-6.561
Y197.392 Z-6.653
Y197.444 Z-6.738
X95.952 Y197.509 Z-6.814
Y197.584 Z-6.879
X95.953 Y197.669 Z-6.931
Y197.761 Z-6.969
Y197.858 Z-6.992
X95.954 Y197.958 Z-7
X95.957 Y198.593
G3 X95.325 Y199.231 I-0.635 J0.003
X80.169 Y184.15 I-0.075 J-15.081 F2032
X110.331 Y184.15 I15.081 J0
X95.325 Y199.231 I-15.081 J0
X94.687 Y198.599 I-0.003 J-0.635 F1524
G1 X94.684 Y197.964
X94.683 Y197.865 Z-6.992
Y197.768 Z-6.969
Y197.676 Z-6.931
X94.682 Y197.591 Z-6.879
Y197.515 Z-6.814
X94.681 Y197.45 Z-6.738
Y197.398 Z-6.653
Y197.36 Z-6.561
Y197.337 Z-6.464
Y197.329 Z-6.365
Z6 F2032
X95.951 Y197.323
Z-2 F762
Z-10.365
Y197.33 Z-10.464 F1524
Y197.354 Z-10.561
Y197.392 Z-10.653
Y197.444 Z-10.738
X95.952 Y197.509 Z-10.814
Y197.584 Z-10.879
X95.953 Y197.669 Z-10.931
Y197.761 Z-10.969
Y197.858 Z-10.992
X95.954 Y197.958 Z-11
X95.957 Y198.593
G3 X95.325 Y199.231 I-0.635 J0.003
X80.169 Y184.15 I-0.075 J-15.081 F2032
X110.331 Y184.15 I15.081 J0
X95.325 Y199.231 I-15.081 J0
X94.687 Y198.599 I-0.003 J-0.635 F1524
G1 X94.684 Y197.964
X94.683 Y197.865 Z-10.992
Y197.768 Z-10.969
Y197.676 Z-10.931
X94.682 Y197.591 Z-10.879
Y197.515 Z-10.814
X94.681 Y197.45 Z-10.738
Y197.398 Z-10.653
Y197.36 Z-10.561
Y197.337 Z-10.464
Y197.329 Z-10.365
Z6 F2032
X95.951 Y197.323
Z-6 F762
Z-12.065
Y197.33 Z-12.164 F1524
Y197.354 Z-12.261
Y197.392 Z-12.353
Y197.444 Z-12.438
X95.952 Y197.509 Z-12.514
Y197.584 Z-12.579
X95.953 Y197.669 Z-12.631
Y197.761 Z-12.669
Y197.858 Z-12.692
X95.954 Y197.958 Z-12.7
X95.957 Y198.593
G3 X95.325 Y199.231 I-0.635 J0.003
X80.169 Y184.15 I-0.075 J-15.081 F2032
X110.331 Y184.15 I15.081 J0
X95.325 Y199.231 I-15.081 J0
X94.687 Y198.599 I-0.003 J-0.635 F1524
G1 X94.684 Y197.964
X94.683 Y197.865 Z-12.692
Y197.768 Z-12.669
Y197.676 Z-12.631
X94.682 Y197.591 Z-12.579
Y197.515 Z-12.514
X94.681 Y197.45 Z-12.438
Y197.398 Z-12.353
Y197.36 Z-12.261
Y197.337 Z-12.164
Y197.329 Z-12.065
Z16 F2032
(When using Fusion 360 for Personal Use, the feedrate of)
(rapid moves is reduced to match the feedrate of cutting)
(moves, which can increase machining time. Unrestricted rapid)
(moves are available with a Fusion 360 Subscription.)

(2D Tweeter Recess)
G0 X89.034 Y175.154
G1 Z16 F2032
Z-1.73
Z-2.365 F1524
X89.027 Y175.15 Z-2.464
X89.009 Y175.135 Z-2.561
X88.979 Y175.112 Z-2.653
X88.938 Y175.08 Z-2.738
X88.886 Y175.041 Z-2.814
X88.826 Y174.995 Z-2.879
X88.759 Y174.943 Z-2.931
X88.686 Y174.887 Z-2.969
X88.609 Y174.828 Z-2.992
X88.53 Y174.767 Z-3
G3 X86.007 Y172.353 I9.881 J-12.852
G1 X85.914 Y172.235 F1828.8
G3 X86.015 Y171.253 I1.605 J-0.332 F2032
X87.278 Y169.456 I4.17 J1.591
G1 X87.777 Y169.029
X88.269 Y168.675
G3 X91.375 Y167.301 I5.974 J9.309
X97.703 Y166.935 I4.046 J15.062
X109.7 Y174.46 I-2.39 J17.137
X108.921 Y194.914 I-14.435 J9.692
X79.275 Y177.253 I-13.672 J-10.763
X81.608 Y173.351 I15.666 J6.723
G1 X82.146 Y172.615
X82.627 Y171.84
X83.095 Y171.058
G3 X85.308 Y168.171 I12.155 J7.027
X88.27 Y166.066 I8.426 J8.717
X93.493 Y164.539 I6.782 J13.503
X104.108 Y166.483 I2.032 J18.849
X114.916 Y182.121 I-8.83 J17.657
X83.655 Y200.162 I-19.665 J2.03
X81.393 Y198.25 I14.347 J-19.262
G1 X80.757 Y197.597
X80.152 Y196.914
G3 X78.815 Y173.156 I15.103 J-12.767
X81.321 Y169.212 I75.218 J45.024
X83.702 Y166.456 I15.647 J11.114
X90.863 Y162.629 I10.949 J11.876
X99.007 Y162.34 I4.765 J19.37
X117.329 Y185.954 I-3.695 J21.782
X109.651 Y200.992 I-22.05 J-1.779
X81.83 Y201.779 I-14.397 J-16.838
X76.361 Y195.727 I13.017 J-17.259
X73.095 Y184.479 I18.797 J-11.558
X76.015 Y173.134 I22.278 J-0.314
X79.385 Y167.719 I41.909 J22.324
X83.173 Y163.793 I16.792 J12.413
G1 X83.844 Y163.296
X83.909 Y163.251
X83.976 Y163.209
X84.045 Y163.17
X84.495 Y162.939
X84.685 Y162.846
X86.563 Y162.001
X86.77 Y161.912
G3 X89.664 Y161.011 I29.667 J90.23
G1 X91.734 Y160.636
X92.354 Y160.525
X92.561 Y160.506
X95.043 Y160.355
X95.25 Y160.344
X95.598 Y160.364
X97.939 Y160.506
X98.145 Y160.525
X98.766 Y160.635
X100.834 Y161.015
G3 X103.939 Y161.994 I-13.653 J48.704
G1 X105.815 Y162.846
X106.005 Y162.939
X106.419 Y163.151
X106.627 Y163.26
X108.694 Y164.509
G3 X111.18 Y166.465 I-31.443 J42.522
G1 X112.929 Y168.224
X113.037 Y168.341
G3 X114.89 Y170.706 I-46.151 J38.069
G1 X116.141 Y172.774
X116.248 Y172.981
X116.461 Y173.394
X116.553 Y173.583
X117.399 Y175.463
X117.488 Y175.669
G3 X118.389 Y178.564 I-90.079 J29.623
G1 X118.764 Y180.633
X118.875 Y181.254
X118.894 Y181.461
X119.044 Y183.943
X119.055 Y184.15
X119.035 Y184.499
X118.894 Y186.838
X118.875 Y187.045
X118.765 Y187.666
X118.386 Y189.734
G3 X117.406 Y192.839 I-48.717 J-13.657
G1 X116.553 Y194.717
X116.461 Y194.905
X116.249 Y195.318
X116.14 Y195.528
X114.891 Y197.594
G3 X112.935 Y200.079 I-42.461 J-31.396
G1 X111.176 Y201.83
X111.059 Y201.937
G3 X108.693 Y203.79 I-37.863 J-45.89
G1 X106.625 Y205.041
X106.419 Y205.149
X106.005 Y205.361
X105.817 Y205.453
X103.937 Y206.3
X103.73 Y206.388
G3 X100.835 Y207.289 I-29.647 J-90.176
G1 X98.766 Y207.665
X98.145 Y207.775
X97.939 Y207.794
X95.457 Y207.944
X95.25 Y207.955
X94.899 Y207.935
X92.561 Y207.794
X92.354 Y207.775
X91.734 Y207.664
X89.665 Y207.285
G3 X86.561 Y206.306 I13.667 J-48.742
G1 X84.683 Y205.453
X84.495 Y205.361
X84.081 Y205.148
X83.872 Y205.039
X81.806 Y203.79
G3 X79.32 Y201.834 I31.443 J-42.522
G1 X77.569 Y200.076
X77.462 Y199.959
G3 X75.609 Y197.593 I45.853 J-37.831
G1 X74.358 Y195.525
X74.251 Y195.318
X74.039 Y194.905
X73.946 Y194.716
X73.1 Y192.836
X73.012 Y192.63
G3 X72.111 Y189.735 I90.241 J-29.679
G1 X71.736 Y187.666
X71.625 Y187.045
X71.606 Y186.838
X71.456 Y184.356
X71.444 Y184.15
X71.464 Y183.803
X71.606 Y181.461
X71.625 Y181.254
X71.736 Y180.633
X72.114 Y178.565
G3 X73.094 Y175.46 I48.688 J13.658
G1 X73.946 Y173.584
X74.039 Y173.394
X74.251 Y172.981
X74.36 Y172.772
X75.609 Y170.705
G3 X77.565 Y168.219 I42.9 J31.743
G1 X79.324 Y166.47
X79.442 Y166.362
G3 X81.806 Y164.51 I38.308 J46.468
G1 X83.874 Y163.259
X84.045 Y163.17
X84.115 Y163.142 F1524
X84.187 Y163.122
X84.253 Y163.115 Z-2.996
X84.319 Y163.108 Z-2.986
X84.396 Y163.122 Z-2.964
X84.469 Y163.135 Z-2.932
X84.538 Y163.148 Z-2.89
X84.598 Y163.183 Z-2.835
X84.651 Y163.214 Z-2.771
X84.696 Y163.24 Z-2.699
X84.731 Y163.261 Z-2.621
X84.753 Y163.281 Z-2.538
X84.766 Y163.293 Z-2.452
X84.77 Y163.297 Z-2.365
Z6 F2032
X89.034 Y175.154
Z-2.699
Z-3.334 F1524
X89.028 Y175.149 Z-3.433
X89.009 Y175.135 Z-3.53
X88.979 Y175.112 Z-3.622
X88.938 Y175.08 Z-3.707
X88.886 Y175.041 Z-3.783
X88.826 Y174.995 Z-3.847
X88.759 Y174.943 Z-3.9
X88.686 Y174.887 Z-3.938
X88.609 Y174.828 Z-3.961
X88.53 Y174.767 Z-3.969
G3 X86.007 Y172.353 I9.881 J-12.852
G1 X85.914 Y172.235 F1828.8
G3 X86.015 Y171.253 I1.605 J-0.332 F2032
X87.278 Y169.456 I4.17 J1.591
G1 X87.777 Y169.029
X88.269 Y168.675
G3 X91.375 Y167.301 I5.974 J9.308
X97.703 Y166.935 I4.046 J15.062
X109.7 Y174.46 I-2.39 J17.137
X108.921 Y194.914 I-14.435 J9.692
X79.275 Y177.253 I-13.672 J-10.763
X81.608 Y173.351 I15.666 J6.723
G1 X82.146 Y172.615
X82.627 Y171.84
X83.095 Y171.058
G3 X85.308 Y168.171 I12.156 J7.028
X88.27 Y166.066 I8.427 J8.718
X93.493 Y164.539 I6.782 J13.503
X104.108 Y166.483 I2.032 J18.849
X114.916 Y182.121 I-8.83 J17.657
X83.655 Y200.162 I-19.665 J2.03
X81.393 Y198.25 I14.345 J-19.259
G1 X80.757 Y197.596
X80.152 Y196.914
G3 X78.815 Y173.156 I15.103 J-12.767
X81.321 Y169.212 I75.214 J45.023
X83.702 Y166.456 I15.647 J11.114
X90.863 Y162.629 I10.949 J11.876
X99.007 Y162.34 I4.765 J19.37
X117.329 Y185.954 I-3.695 J21.782
X109.651 Y200.992 I-22.05 J-1.779
X81.83 Y201.779 I-14.397 J-16.838
X76.361 Y195.726 I13.017 J-17.259
X73.095 Y184.479 I18.797 J-11.558
X76.015 Y173.134 I22.278 J-0.314
X79.385 Y167.719 I41.909 J22.324
X83.173 Y163.793 I16.792 J12.413
G1 X83.844 Y163.296
X83.909 Y163.251
X83.976 Y163.209
X84.045 Y163.17
X84.495 Y162.939
X84.685 Y162.846
X86.563 Y162.001
X86.77 Y161.912
G3 X89.664 Y161.011 I29.667 J90.23
G1 X91.734 Y160.636
X92.354 Y160.525
X92.561 Y160.506
X95.043 Y160.355
X95.25 Y160.344
X95.598 Y160.364
X97.939 Y160.506
X98.145 Y160.525
X98.766 Y160.635
X100.834 Y161.015
G3 X103.939 Y161.994 I-13.653 J48.704
G1 X105.815 Y162.846
X106.005 Y162.939
X106.419 Y163.151
X106.627 Y163.26
X108.694 Y164.509
G3 X111.18 Y166.465 I-31.443 J42.522
G1 X112.929 Y168.224
X113.037 Y168.341
G3 X114.89 Y170.706 I-46.151 J38.069
G1 X116.141 Y172.774
X116.248 Y172.981
X116.461 Y173.394
X116.553 Y173.583
X117.399 Y175.463
X117.488 Y175.669
G3 X118.389 Y178.564 I-90.079 J29.623
G1 X118.764 Y180.633
X118.875 Y181.254
X118.894 Y181.461
X119.044 Y183.943
X119.055 Y184.15
X119.035 Y184.499
X118.894 Y186.838
X118.875 Y187.045
X118.765 Y187.666
X118.386 Y189.734
G3 X117.406 Y192.839 I-48.717 J-13.657
G1 X116.553 Y194.717
X116.461 Y194.905
X116.249 Y195.318
X116.14 Y195.528
X114.891 Y197.594
G3 X112.935 Y200.079 I-42.461 J-31.396
G1 X111.176 Y201.83
X111.059 Y201.937
G3 X108.693 Y203.79 I-37.863 J-45.89
G1 X106.625 Y205.041
X106.419 Y205.149
X106.005 Y205.361
X105.817 Y205.453
X103.937 Y206.3
X103.73 Y206.388
G3 X100.835 Y207.289 I-29.647 J-90.176
G1 X98.766 Y207.665
X98.145 Y207.775
X97.939 Y207.794
X95.457 Y207.944
X95.25 Y207.955
X94.899 Y207.935
X92.561 Y207.794
X92.354 Y207.775
X91.734 Y207.664
X89.665 Y207.285
G3 X86.561 Y206.306 I13.667 J-48.742
G1 X84.683 Y205.453
X84.495 Y205.361
X84.081 Y205.148
X83.872 Y205.039
X81.806 Y203.79
G3 X79.32 Y201.834 I31.443 J-42.522
G1 X77.569 Y200.076
X77.462 Y199.959
G3 X75.609 Y197.593 I45.853 J-37.831
G1 X74.358 Y195.525
X74.251 Y195.318
X74.039 Y194.905
X73.946 Y194.716
X73.1 Y192.836
X73.012 Y192.63
G3 X72.111 Y189.735 I90.241 J-29.679
G1 X71.736 Y187.666
X71.625 Y187.045
X71.606 Y186.838
X71.456 Y184.356
X71.444 Y184.15
X71.464 Y183.803
X71.606 Y181.461
X71.625 Y181.254
X71.736 Y180.633
X72.114 Y178.565
G3 X73.094 Y175.46 I48.688 J13.658
G1 X73.946 Y173.584
X74.039 Y173.394
X74.251 Y172.981
X74.36 Y172.772
X75.609 Y170.705
G3 X77.565 Y168.219 I42.9 J31.743
G1 X79.324 Y166.47
X79.442 Y166.362
G3 X81.806 Y164.51 I38.308 J46.468
G1 X83.874 Y163.259
X84.045 Y163.17
G3 X84.77 Y163.297 I0.273 J0.573 F1524
G1 X84.84 Y163.368 Z-3.961
X84.908 Y163.437 Z-3.938
X84.973 Y163.502 Z-3.9
X85.033 Y163.563 Z-3.847
X85.086 Y163.617 Z-3.783
X85.131 Y163.663 Z-3.707
X85.168 Y163.7 Z-3.622
X85.195 Y163.727 Z-3.53
X85.211 Y163.743 Z-3.433
X85.217 Y163.749 Z-3.334
Z16 F2032
(When using Fusion 360 for Personal Use, the feedrate of)
(rapid moves is reduced to match the feedrate of cutting)
(moves, which can increase machining time. Unrestricted rapid)
(moves are available with a Fusion 360 Subscription.)

(Midrange Cutout)
G0 X75.565 Y47.943
G1 Z16 F2032
Z6
Z-2.365 F762
G19 G2 Y47.308 Z-3 J-0.635 K0 F1524
G1 Y46.673
G17 G3 X76.2 Y46.038 I0.635 J0
X119.062 Y88.9 I0 J42.862 F2032
X33.338 Y88.9 I-42.862 J0
X76.2 Y46.038 I42.862 J0
X76.835 Y46.673 I0 J0.635 F1524
G1 Y47.308
G19 G3 Y47.943 Z-2.365 J0 K0.635
G1 Z6 F2032
X75.565
Z2 F762
Z-6.365
G2 Y47.308 Z-7 J-0.635 K0 F1524
G1 Y46.673
G17 G3 X76.2 Y46.038 I0.635 J0
X119.062 Y88.9 I0 J42.862 F2032
X33.338 Y88.9 I-42.862 J0
X76.2 Y46.038 I42.862 J0
X76.835 Y46.673 I0 J0.635 F1524
G1 Y47.308
G19 G3 Y47.943 Z-6.365 J0 K0.635
G1 Z6 F2032
X75.565
Z-2 F762
Z-10.365
G2 Y47.308 Z-11 J-0.635 K0 F1524
G1 Y46.673
G17 G3 X76.2 Y46.038 I0.635 J0
X119.062 Y88.9 I0 J42.862 F2032
X33.338 Y88.9 I-42.862 J0
X76.2 Y46.038 I42.862 J0
X76.835 Y46.673 I0 J0.635 F1524
G1 Y47.308
G19 G3 Y47.943 Z-10.365 J0 K0.635
G1 Z6 F2032
X75.565
Z-6 F762
Z-12.065
G2 Y47.308 Z-12.7 J-0.635 K0 F1524
G1 Y46.673
G17 G3 X76.2 Y46.038 I0.635 J0
X119.062 Y88.9 I0 J42.862 F2032
X33.338 Y88.9 I-42.862 J0
X76.2 Y46.038 I42.862 J0
X76.835 Y46.673 I0 J0.635 F1524
G1 Y47.308
G19 G3 Y47.943 Z-12.065 J0 K0.635
G1 Z16 F2032
G17
(When using Fusion 360 for Personal Use, the feedrate of)
(rapid moves is reduced to match the feedrate of cutting)
(moves, which can increase machining time. Unrestricted rapid)
(moves are available with a Fusion 360 Subscription.)

(2D Midrange Recess)
G0 X114.659 Y84.892
G1 Z16 F2032
Z6
Z-1.73
Z-2.365 F1524
X114.666 Y84.889 Z-2.464
X114.688 Y84.881 Z-2.561
X114.724 Y84.867 Z-2.653
X114.772 Y84.848 Z-2.738
X114.832 Y84.824 Z-2.814
X114.903 Y84.797 Z-2.879
X114.982 Y84.766 Z-2.931
X115.068 Y84.733 Z-2.969
X115.158 Y84.697 Z-2.992
X115.251 Y84.661 Z-3
G3 X118.623 Y83.751 I5.885 J15.105
G1 X118.772 Y83.733 F2032
X118.916 Y83.772
X119.053 Y83.834
X119.182 Y83.91
X119.313 Y84.006
X119.462 Y84.135
X119.63 Y84.305
X119.816 Y84.526
X120.019 Y84.812
X120.238 Y85.181
X120.475 Y85.662
X120.714 Y86.265
X120.908 Y86.901
X121.1 Y87.777
X121.224 Y88.681
X121.297 Y89.589
X121.336 Y90.5
X121.337 Y91.412
X121.3 Y92.323
X121.237 Y93.233
X121.155 Y94.141
X121.06 Y95.048
X120.932 Y95.951
X120.78 Y96.85
X120.611 Y97.746
X120.43 Y98.639
X120.232 Y99.529
X120.006 Y100.413
X119.761 Y101.291
X119.503 Y102.166
X119.236 Y103.037
X118.943 Y103.901
X118.628 Y104.757
X118.296 Y105.606
X117.954 Y106.451
X117.6 Y107.291
X117.219 Y108.12
X116.818 Y108.939
X116.405 Y109.752
X115.983 Y110.56
X115.541 Y111.358
X115.077 Y112.142
X114.598 Y112.918
X114.107 Y113.687
X113.61 Y114.451
X113.086 Y115.197
X112.544 Y115.931
X111.99 Y116.655
X111.428 Y117.373
X110.851 Y118.079
X110.254 Y118.768
X109.642 Y119.444
X109.02 Y120.111
X108.391 Y120.771
X107.743 Y121.412
X107.079 Y122.037
X106.403 Y122.649
X105.72 Y123.253
X105.027 Y123.846
X104.316 Y124.416
X103.592 Y124.97
X102.859 Y125.513
X102.121 Y126.048
X101.369 Y126.564
X100.603 Y127.059
X99.828 Y127.539
X99.046 Y128.008
X98.259 Y128.469
X97.457 Y128.902
X96.645 Y129.317
X95.826 Y129.718
X95.002 Y130.109
X94.171 Y130.483
X93.329 Y130.833
X92.479 Y131.164
X91.625 Y131.484
X90.768 Y131.794
X89.901 Y132.078
X89.028 Y132.34
X88.15 Y132.586
X87.269 Y132.821
X86.384 Y133.041
X85.493 Y133.234
X84.598 Y133.407
X83.7 Y133.566
X82.8 Y133.715
X81.897 Y133.84
X80.991 Y133.94
X80.083 Y134.024
X79.174 Y134.095
X78.264 Y134.155
X77.353 Y134.185
X76.441 Y134.193
X75.529 Y134.186
X74.617 Y134.169
X73.706 Y134.131
X72.797 Y134.067
X71.889 Y133.985
X70.982 Y133.89
X70.076 Y133.786
X69.174 Y133.652
X68.276 Y133.496
X67.38 Y133.324
X66.487 Y133.141
X65.597 Y132.942
X64.714 Y132.716
X63.835 Y132.471
X62.961 Y132.213
X62.089 Y131.945
X61.226 Y131.653
X60.37 Y131.338
X59.52 Y131.007
X58.675 Y130.665
X57.834 Y130.312
X57.006 Y129.931
X56.187 Y129.531
X55.374 Y129.118
X54.565 Y128.696
X53.767 Y128.255
X52.982 Y127.792
X52.206 Y127.313
X51.437 Y126.823
X50.673 Y126.325
X49.926 Y125.802
X49.192 Y125.261
X48.468 Y124.708
X47.75 Y124.145
X47.043 Y123.57
X46.354 Y122.973
X45.677 Y122.361
X45.01 Y121.74
X44.349 Y121.111
X43.707 Y120.464
X43.083 Y119.8
X42.47 Y119.124
X41.866 Y118.441
X41.272 Y117.749
X40.701 Y117.038
X40.147 Y116.314
X39.603 Y115.582
X39.068 Y114.844
X38.552 Y114.093
X38.056 Y113.327
X37.576 Y112.552
X37.106 Y111.77
X36.645 Y110.984
X36.21 Y110.182
X35.796 Y109.37
X35.394 Y108.552
X35.003 Y107.728
X34.628 Y106.897
X34.278 Y106.055
X33.946 Y105.206
X33.626 Y104.352
X33.315 Y103.495
X33.031 Y102.628
X32.768 Y101.755
X32.522 Y100.877
X32.287 Y99.996
X32.065 Y99.112
X31.872 Y98.221
X31.699 Y97.326
X31.539 Y96.428
X31.39 Y95.528
X31.264 Y94.625
X31.163 Y93.719
X31.079 Y92.811
X31.007 Y91.902
X30.946 Y90.992
X30.916 Y90.081
X30.907 Y89.169
X30.914 Y88.257
X30.931 Y87.346
X30.967 Y86.435
X31.03 Y85.525
X31.112 Y84.617
X31.207 Y83.71
X31.311 Y82.804
X31.444 Y81.902
X31.6 Y81.004
X31.771 Y80.108
X31.953 Y79.215
X32.151 Y78.325
X32.376 Y77.441
X32.621 Y76.563
X32.879 Y75.688
X33.147 Y74.816
X33.438 Y73.952
X33.752 Y73.096
X34.083 Y72.247
X34.424 Y71.401
X34.777 Y70.56
X35.157 Y69.732
X35.556 Y68.912
X35.969 Y68.099
X36.391 Y67.29
X36.831 Y66.492
X37.294 Y65.706
X37.772 Y64.93
X38.262 Y64.161
X38.759 Y63.397
X39.281 Y62.649
X39.822 Y61.915
X40.375 Y61.19
X40.937 Y60.472
X41.512 Y59.764
X42.109 Y59.075
X42.72 Y58.398
X43.341 Y57.731
X43.969 Y57.07
X44.616 Y56.427
X45.28 Y55.802
X45.955 Y55.189
X46.638 Y54.585
X47.329 Y53.99
X48.04 Y53.419
X48.763 Y52.864
X49.495 Y52.32
X50.233 Y51.785
X50.984 Y51.267
X51.749 Y50.771
X52.524 Y50.291
X53.305 Y49.821
X54.091 Y49.359
X54.893 Y48.924
X55.704 Y48.508
X56.523 Y48.107
X57.346 Y47.715
X58.177 Y47.339
X59.019 Y46.989
X59.868 Y46.656
X60.722 Y46.336
X61.579 Y46.025
X62.445 Y45.739
X63.318 Y45.476
X64.196 Y45.23
X65.076 Y44.994
X65.961 Y44.771
X66.852 Y44.577
X67.747 Y44.404
X68.644 Y44.244
X69.544 Y44.094
X70.447 Y43.967
X71.353 Y43.865
X72.261 Y43.781
X73.17 Y43.71
X74.079 Y43.647
X74.991 Y43.616
X75.903 Y43.607
X76.814 Y43.613
X77.726 Y43.63
X78.637 Y43.665
X79.547 Y43.728
X80.455 Y43.809
X81.362 Y43.904
X82.268 Y44.008
X83.17 Y44.14
X84.069 Y44.295
X84.964 Y44.466
X85.858 Y44.648
X86.748 Y44.844
X87.632 Y45.069
X88.51 Y45.313
X89.385 Y45.571
X90.257 Y45.838
X91.121 Y46.128
X91.977 Y46.442
X92.827 Y46.772
X93.673 Y47.114
X94.514 Y47.465
X95.343 Y47.844
X96.163 Y48.243
X96.976 Y48.656
X97.785 Y49.077
X98.584 Y49.516
X99.37 Y49.979
X100.146 Y50.457
X100.915 Y50.947
X101.68 Y51.444
X102.428 Y51.965
X103.162 Y52.505
X103.887 Y53.058
X104.606 Y53.62
X105.314 Y54.194
X106.004 Y54.79
X106.681 Y55.401
X107.349 Y56.022
X108.01 Y56.65
X108.653 Y57.296
X109.279 Y57.959
X109.892 Y58.634
X110.496 Y59.317
X111.092 Y60.007
X111.664 Y60.717
X112.22 Y61.44
X112.763 Y62.172
X113.299 Y62.91
X113.817 Y63.66
X114.314 Y64.425
X114.795 Y65.2
X115.265 Y65.981
X115.727 Y66.767
X116.163 Y67.568
X116.579 Y68.379
X116.981 Y69.198
X117.373 Y70.021
X117.75 Y70.851
X118.101 Y71.693
X118.434 Y72.541
X118.754 Y73.395
X119.066 Y74.252
X119.352 Y75.118
X119.616 Y75.991
X119.863 Y76.868
X120.099 Y77.749
X120.323 Y78.633
X120.517 Y79.524
X120.799 Y80.391
X121.162 Y81.228
X121.555 Y82.05
X121.947 Y82.873
X122.316 Y83.707
X122.649 Y84.556
X122.939 Y85.421
X123.179 Y86.3
X123.37 Y87.192
X123.517 Y88.092
X123.624 Y88.997
X123.692 Y89.906
X123.724 Y90.818
X123.725 Y91.73
X123.699 Y92.641
X123.649 Y93.551
X123.574 Y94.46
X123.474 Y95.366
X123.353 Y96.27
X123.213 Y97.171
X123.056 Y98.069
X122.877 Y98.964
X122.679 Y99.854
X122.463 Y100.739
X122.232 Y101.622
X121.984 Y102.499
X121.716 Y103.371
X121.431 Y104.237
X121.13 Y105.097
X120.814 Y105.953
X120.482 Y106.802
X120.132 Y107.644
X119.765 Y108.478
X119.383 Y109.306
X118.986 Y110.127
X118.574 Y110.941
X118.145 Y111.745
X117.7 Y112.541
X117.242 Y113.329
X116.77 Y114.11
X116.283 Y114.88
X115.779 Y115.64
X115.26 Y116.39
X114.728 Y117.131
X114.183 Y117.862
X113.623 Y118.581
X113.049 Y119.289
X112.461 Y119.986
X111.861 Y120.673
X111.249 Y121.349
X110.623 Y122.012
X109.984 Y122.662
X109.332 Y123.3
X108.67 Y123.927
X107.997 Y124.542
X107.311 Y125.142
X106.612 Y125.729
X105.903 Y126.302
X105.185 Y126.863
X104.456 Y127.411
X103.715 Y127.943
X102.964 Y128.46
X102.204 Y128.963
X101.435 Y129.454
X100.657 Y129.929
X99.869 Y130.388
X99.072 Y130.831
X98.267 Y131.259
X97.455 Y131.674
X96.635 Y132.072
X95.807 Y132.453
X94.971 Y132.818
X94.129 Y133.169
X93.282 Y133.505
X92.427 Y133.823
X91.566 Y134.124
X90.7 Y134.408
X89.829 Y134.677
X88.953 Y134.931
X88.072 Y135.166
X87.186 Y135.383
X86.297 Y135.583
X85.404 Y135.769
X84.508 Y135.937
X83.608 Y136.086
X82.706 Y136.218
X81.802 Y136.332
X80.895 Y136.432
X79.987 Y136.514
X79.077 Y136.577
X78.167 Y136.622
X77.255 Y136.65
X76.344 Y136.663
X75.432 Y136.658
X74.52 Y136.634
X73.609 Y136.592
X72.7 Y136.533
X71.791 Y136.46
X70.883 Y136.369
X69.978 Y136.258
X69.076 Y136.129
X68.175 Y135.985
X67.278 Y135.824
X66.384 Y135.646
X65.493 Y135.448
X64.607 Y135.234
X63.725 Y135.005
X62.847 Y134.759
X61.974 Y134.496
X61.106 Y134.215
X60.244 Y133.917
X59.388 Y133.605
X58.537 Y133.278
X57.693 Y132.933
X56.856 Y132.57
X56.026 Y132.192
X55.203 Y131.8
X54.387 Y131.393
X53.58 Y130.969
X52.782 Y130.528
X51.992 Y130.073
X51.209 Y129.605
X50.436 Y129.122
X49.673 Y128.622
X48.921 Y128.107
X48.178 Y127.578
X47.444 Y127.037
X46.721 Y126.482
X46.009 Y125.911
X45.309 Y125.327
X44.62 Y124.731
X43.94 Y124.123
X43.273 Y123.501
X42.619 Y122.865
X41.978 Y122.217
X41.348 Y121.558
X40.729 Y120.888
X40.124 Y120.206
X39.534 Y119.511
X38.958 Y118.805
X38.393 Y118.089
X37.842 Y117.362
X37.306 Y116.625
X36.785 Y115.877
X36.278 Y115.119
X35.784 Y114.352
X35.304 Y113.577
X34.84 Y112.792
X34.393 Y111.997
X33.96 Y111.195
X33.542 Y110.384
X33.138 Y109.567
X32.752 Y108.741
X32.383 Y107.907
X32.028 Y107.067
X31.688 Y106.221
X31.364 Y105.369
X31.058 Y104.51
X30.77 Y103.645
X30.497 Y102.775
X30.239 Y101.9
X29.998 Y101.021
X29.777 Y100.136
X29.572 Y99.248
X29.383 Y98.356
X29.21 Y97.46
X29.055 Y96.562
X28.918 Y95.66
X28.799 Y94.756
X28.695 Y93.851
X28.608 Y92.943
X28.539 Y92.034
X28.489 Y91.123
X28.456 Y90.212
X28.439 Y89.3
X28.438 Y88.389
X28.456 Y87.477
X28.494 Y86.566
X28.548 Y85.656
X28.617 Y84.747
X28.704 Y83.839
X28.81 Y82.933
X28.934 Y82.03
X29.074 Y81.129
X29.23 Y80.231
X29.403 Y79.335
X29.595 Y78.444
X29.805 Y77.557
X30.03 Y76.673
X30.271 Y75.794
X30.528 Y74.919
X30.804 Y74.05
X31.097 Y73.186
X31.405 Y72.328
X31.727 Y71.475
X32.067 Y70.629
X32.425 Y69.79
X32.799 Y68.959
X33.187 Y68.134
X33.59 Y67.316
X34.01 Y66.506
X34.447 Y65.706
X34.898 Y64.914
X35.363 Y64.129
X35.842 Y63.353
X36.337 Y62.588
X36.847 Y61.832
X37.372 Y61.086
X37.91 Y60.35
X38.461 Y59.623
X39.027 Y58.908
X39.607 Y58.205
X40.2 Y57.513
X40.804 Y56.83
X41.422 Y56.159
X42.053 Y55.501
X42.698 Y54.857
X43.355 Y54.224
X44.021 Y53.602
X44.701 Y52.993
X45.392 Y52.399
X46.096 Y51.819
X46.809 Y51.251
X47.533 Y50.696
X48.267 Y50.156
X49.012 Y49.631
X49.768 Y49.12
X50.531 Y48.622
X51.304 Y48.138
X52.086 Y47.669
X52.878 Y47.217
X53.679 Y46.781
X54.487 Y46.358
X55.302 Y45.949
X56.125 Y45.558
X56.957 Y45.184
X57.795 Y44.826
X58.64 Y44.481
X59.49 Y44.153
X60.348 Y43.843
X61.211 Y43.55
X62.08 Y43.273
X62.953 Y43.011
X63.831 Y42.765
X64.714 Y42.538
X65.602 Y42.329
X66.493 Y42.135
X67.387 Y41.957
X68.285 Y41.797
X69.186 Y41.655
X70.089 Y41.531
X70.994 Y41.423
X71.901 Y41.329
X72.81 Y41.255
X73.72 Y41.199
X74.631 Y41.162
X75.543 Y41.141
X76.455 Y41.136
X77.366 Y41.149
X78.278 Y41.182
X79.188 Y41.232
X80.097 Y41.297
X81.006 Y41.378
X81.912 Y41.479
X82.816 Y41.598
X83.718 Y41.734
X84.617 Y41.885
X85.513 Y42.053
X86.405 Y42.239
X87.294 Y42.444
X88.179 Y42.665
X89.06 Y42.901
X89.936 Y43.153
X90.806 Y43.424
X91.671 Y43.712
X92.531 Y44.016
X93.386 Y44.334
X94.233 Y44.67
X95.074 Y45.023
X95.908 Y45.392
X96.734 Y45.777
X97.554 Y46.176
X98.366 Y46.591
X99.169 Y47.023
X99.964 Y47.47
X100.751 Y47.931
X101.529 Y48.405
X102.298 Y48.896
X103.056 Y49.402
X103.805 Y49.923
X104.544 Y50.457
X105.274 Y51.003
X105.992 Y51.565
X106.699 Y52.141
X107.394 Y52.731
X108.079 Y53.332
X108.753 Y53.946
X109.414 Y54.575
X110.062 Y55.216
X110.699 Y55.869
X111.324 Y56.533
X111.936 Y57.209
X112.534 Y57.897
X113.118 Y58.597
X113.69 Y59.308
X114.249 Y60.028
X114.794 Y60.759
X115.323 Y61.501
X115.838 Y62.254
X116.339 Y63.015
X116.828 Y63.785
X117.302 Y64.564
X117.758 Y65.354
X118.199 Y66.152
X118.625 Y66.958
X119.038 Y67.771
X119.433 Y68.593
X119.812 Y69.422
X120.174 Y70.259
X120.523 Y71.102
X120.855 Y71.95
X121.171 Y72.806
X121.469 Y73.668
X121.75 Y74.535
X122.017 Y75.407
X122.267 Y76.284
X122.514 Y77.162
X122.79 Y78.03
X123.101 Y78.888
X123.435 Y79.736
X123.78 Y80.58
X124.123 Y81.425
X124.453 Y82.275
X124.764 Y83.132
X125.049 Y83.998
X125.302 Y84.874
X125.523 Y85.759
X125.71 Y86.651
X125.862 Y87.55
X125.979 Y88.455
X126.064 Y89.363
X126.118 Y90.273
X126.143 Y91.184
X126.142 Y92.096
X126.115 Y93.007
X126.063 Y93.918
X125.989 Y94.827
X125.893 Y95.733
X125.777 Y96.638
X125.641 Y97.539
X125.486 Y98.438
X125.313 Y99.333
X125.121 Y100.225
X124.913 Y101.112
X124.687 Y101.996
X124.444 Y102.874
X124.184 Y103.748
X123.907 Y104.617
X123.615 Y105.481
X123.308 Y106.339
X122.984 Y107.192
X122.644 Y108.038
X122.289 Y108.878
X121.919 Y109.711
X121.534 Y110.538
X121.134 Y111.357
X120.719 Y112.169
X120.289 Y112.973
X119.846 Y113.77
X119.388 Y114.558
X118.916 Y115.338
X118.429 Y116.109
X117.928 Y116.871
X117.414 Y117.625
X116.886 Y118.368
X116.345 Y119.101
X115.789 Y119.825
X115.221 Y120.538
X114.64 Y121.241
X114.047 Y121.933
X113.441 Y122.614
X112.822 Y123.284
X112.586 Y123.531
X111.952 Y124.186
X111.306 Y124.83
X110.648 Y125.462
X109.979 Y126.081
X109.298 Y126.688
X108.607 Y127.282
X107.905 Y127.865
X107.193 Y128.434
X106.471 Y128.99
X105.738 Y129.533
X104.995 Y130.062
X104.244 Y130.578
X103.483 Y131.081
X102.713 Y131.569
X101.934 Y132.043
X101.147 Y132.503
X100.351 Y132.949
X99.548 Y133.38
X98.737 Y133.797
X97.918 Y134.198
X97.092 Y134.584
X96.26 Y134.956
X95.42 Y135.313
X94.575 Y135.654
X93.723 Y135.979
X92.866 Y136.289
X92.003 Y136.584
X91.135 Y136.863
X90.262 Y137.127
X89.384 Y137.374
X88.502 Y137.605
X87.616 Y137.82
X86.726 Y138.02
X85.833 Y138.203
X84.936 Y138.369
X84.037 Y138.519
X83.135 Y138.653
X82.231 Y138.772
X81.325 Y138.873
X80.417 Y138.958
X79.508 Y139.026
X78.598 Y139.078
X77.686 Y139.113
X76.775 Y139.132
X75.863 Y139.134
X74.951 Y139.119
X74.04 Y139.088
X73.129 Y139.041
X72.22 Y138.977
X71.312 Y138.897
X70.405 Y138.799
X69.5 Y138.686
X68.598 Y138.556
X67.698 Y138.41
X66.8 Y138.248
X65.906 Y138.069
X65.016 Y137.874
X64.129 Y137.663
X63.245 Y137.436
X62.367 Y137.193
X61.492 Y136.934
X60.623 Y136.659
X59.759 Y136.368
X58.9 Y136.062
X58.047 Y135.74
X57.2 Y135.403
X56.359 Y135.05
X55.524 Y134.682
X54.697 Y134.3
X53.876 Y133.902
X53.063 Y133.489
X52.258 Y133.062
X51.46 Y132.62
X50.67 Y132.164
X49.889 Y131.694
X49.117 Y131.209
X48.354 Y130.711
X47.599 Y130.198
X46.854 Y129.673
X46.119 Y129.134
X45.394 Y128.581
X44.679 Y128.015
X43.974 Y127.436
X43.28 Y126.845
X42.597 Y126.241
X41.925 Y125.625
X41.594 Y125.311
X40.858 Y124.596
X40.215 Y123.95
X39.584 Y123.291
X38.966 Y122.621
X38.36 Y121.94
X37.766 Y121.248
X37.185 Y120.546
X36.617 Y119.833
X36.062 Y119.109
X35.521 Y118.375
X34.993 Y117.632
X34.478 Y116.879
X33.977 Y116.117
X33.49 Y115.346
X33.017 Y114.567
X32.559 Y113.778
X32.115 Y112.982
X31.685 Y112.178
X31.27 Y111.366
X30.87 Y110.547
X30.484 Y109.72
X30.113 Y108.887
X29.758 Y108.048
X29.417 Y107.202
X29.093 Y106.35
X28.784 Y105.492
X28.49 Y104.629
X28.212 Y103.761
X27.95 Y102.887
X27.705 Y102.009
X27.475 Y101.126
X27.262 Y100.24
X27.064 Y99.35
X26.883 Y98.456
X26.718 Y97.559
X26.57 Y96.66
X26.437 Y95.758
X26.32 Y94.853
X26.22 Y93.947
X26.137 Y93.039
X26.07 Y92.13
X26.02 Y91.219
X25.985 Y90.308
X25.967 Y89.396
Y88.485
X25.982 Y87.573
X26.014 Y86.662
X26.062 Y85.751
X26.128 Y84.842
X26.21 Y83.934
X26.309 Y83.027
X26.424 Y82.123
X26.555 Y81.22
X26.703 Y80.321
X26.868 Y79.424
X27.048 Y78.53
X27.245 Y77.64
X27.457 Y76.753
X27.686 Y75.87
X27.93 Y74.992
X28.191 Y74.118
X28.467 Y73.249
X28.758 Y72.385
X29.065 Y71.526
X29.388 Y70.674
X29.726 Y69.827
X30.08 Y68.986
X30.448 Y68.152
X30.832 Y67.325
X31.232 Y66.506
X31.646 Y65.693
X32.075 Y64.889
X32.518 Y64.092
X32.975 Y63.303
X33.447 Y62.523
X33.934 Y61.752
X34.434 Y60.989
X34.947 Y60.236
X35.474 Y59.491
X36.015 Y58.757
X36.569 Y58.033
X37.136 Y57.319
X37.715 Y56.615
X38.307 Y55.921
X38.911 Y55.238
X39.528 Y54.567
X39.765 Y54.32
X40.478 Y53.583
X41.125 Y52.94
X41.783 Y52.309
X42.453 Y51.69
X43.134 Y51.084
X43.825 Y50.49
X44.528 Y49.909
X45.241 Y49.34
X45.964 Y48.785
X46.697 Y48.243
X47.44 Y47.714
X48.192 Y47.198
X48.953 Y46.696
X49.723 Y46.208
X50.503 Y45.735
X51.29 Y45.276
X52.086 Y44.831
X52.89 Y44.4
X53.701 Y43.984
X54.521 Y43.584
X55.347 Y43.198
X56.18 Y42.827
X57.019 Y42.471
X57.865 Y42.131
X58.717 Y41.806
X59.575 Y41.497
X60.438 Y41.203
X61.306 Y40.924
X62.179 Y40.662
X63.057 Y40.415
X63.939 Y40.185
X64.826 Y39.97
X65.715 Y39.771
X66.609 Y39.589
X67.506 Y39.423
X68.405 Y39.274
X69.307 Y39.141
X70.211 Y39.023
X71.118 Y38.922
X72.025 Y38.839
X72.935 Y38.771
X73.845 Y38.72
X74.756 Y38.686
X75.668 Y38.668
X76.58 Y38.667
X77.491 Y38.682
X78.403 Y38.714
X79.313 Y38.762
X80.223 Y38.827
X81.131 Y38.908
X82.038 Y39.006
X82.942 Y39.12
X83.845 Y39.25
X84.745 Y39.397
X85.642 Y39.56
X86.536 Y39.74
X87.426 Y39.936
X88.313 Y40.147
X89.196 Y40.375
X90.074 Y40.619
X90.948 Y40.879
X91.818 Y41.155
X92.682 Y41.446
X93.54 Y41.753
X94.393 Y42.075
X95.24 Y42.414
X96.08 Y42.767
X96.915 Y43.135
X97.742 Y43.519
X98.562 Y43.917
X99.375 Y44.331
X100.18 Y44.759
X100.977 Y45.201
X101.767 Y45.657
X102.547 Y46.128
X103.319 Y46.614
X104.082 Y47.113
X104.836 Y47.626
X105.58 Y48.152
X106.315 Y48.692
X107.04 Y49.246
X107.754 Y49.812
X108.459 Y50.392
X109.152 Y50.983
X109.835 Y51.588
X110.506 Y52.205
X110.754 Y52.441
X111.491 Y53.154
X112.135 Y53.8
X112.766 Y54.457
X113.386 Y55.127
X113.992 Y55.807
X114.587 Y56.499
X115.169 Y57.201
X115.738 Y57.913
X116.294 Y58.636
X116.836 Y59.369
X117.365 Y60.111
X117.882 Y60.863
X118.385 Y61.623
X118.873 Y62.393
X119.347 Y63.172
X119.807 Y63.959
X120.253 Y64.755
X120.685 Y65.558
X121.101 Y66.369
X121.502 Y67.188
X121.888 Y68.014
X122.259 Y68.847
X122.615 Y69.686
X122.956 Y70.532
X123.281 Y71.384
X123.591 Y72.242
X123.886 Y73.104
X124.167 Y73.972
X124.443 Y74.841
X124.726 Y75.708
X125.022 Y76.57
X125.333 Y77.427
X125.653 Y78.281
X125.976 Y79.134
X126.297 Y79.987
X126.61 Y80.843
X126.909 Y81.705
X127.191 Y82.572
X127.451 Y83.446
X127.687 Y84.327
X127.896 Y85.214
X128.078 Y86.108
X128.23 Y87.007
X128.354 Y87.91
X128.45 Y88.817
X128.519 Y89.726
X128.561 Y90.637
X128.578 Y91.549
X128.57 Y92.46
X128.54 Y93.372
X128.487 Y94.282
X128.413 Y95.191
X128.319 Y96.098
X128.205 Y97.002
X128.072 Y97.904
X127.921 Y98.804
X127.752 Y99.7
X127.566 Y100.592
X127.362 Y101.481
X127.142 Y102.366
X126.905 Y103.246
X126.652 Y104.122
X126.384 Y104.994
X126.099 Y105.86
X125.799 Y106.721
X125.484 Y107.577
X125.155 Y108.427
X124.81 Y109.271
X124.451 Y110.109
X124.077 Y110.941
X123.688 Y111.766
X123.286 Y112.584
X122.87 Y113.395
X122.439 Y114.199
X121.995 Y114.996
X121.538 Y115.784
X121.066 Y116.565
X120.581 Y117.337
X120.083 Y118.101
X119.572 Y118.856
X119.048 Y119.601
X118.51 Y120.338
X117.96 Y121.065
X117.397 Y121.782
X116.822 Y122.49
X116.234 Y123.187
X115.934 Y123.53
X115.509 Y124.337
X115.479 Y124.42
X115.452 Y124.492
X114.776 Y125.104
X114.106 Y125.723
X113.437 Y126.342
X112.765 Y126.958
X112.088 Y127.569
X111.405 Y128.173
X110.714 Y128.768
X110.015 Y129.354
X109.307 Y129.928
X108.591 Y130.492
X107.865 Y131.044
X107.13 Y131.584
X106.387 Y132.112
X105.634 Y132.627
X104.873 Y133.129
X104.104 Y133.619
X103.326 Y134.095
X102.54 Y134.557
X101.747 Y135.006
X100.946 Y135.441
X100.137 Y135.862
X99.321 Y136.269
X98.498 Y136.662
X97.668 Y137.04
X96.832 Y137.404
X95.99 Y137.753
X95.142 Y138.088
X94.288 Y138.408
X93.429 Y138.714
X92.565 Y139.004
X91.695 Y139.28
X90.822 Y139.54
X89.943 Y139.785
X89.061 Y140.016
X88.175 Y140.231
X87.285 Y140.43
X86.392 Y140.614
X85.496 Y140.783
X84.597 Y140.936
X83.696 Y141.074
X82.792 Y141.197
X81.887 Y141.303
X80.98 Y141.393
X80.071 Y141.468
X79.161 Y141.527
X78.25 Y141.57
X77.339 Y141.597
X76.427 Y141.609
X75.515 Y141.605
X74.604 Y141.585
X73.692 Y141.549
X72.782 Y141.498
X71.873 Y141.431
X70.965 Y141.348
X70.058 Y141.25
X69.153 Y141.136
X68.251 Y141.006
X67.351 Y140.861
X66.453 Y140.7
X65.559 Y140.524
X64.667 Y140.333
X63.779 Y140.126
X62.895 Y139.904
X62.015 Y139.666
X61.139 Y139.413
X60.267 Y139.144
X59.4 Y138.861
X58.539 Y138.563
X57.682 Y138.249
X56.832 Y137.922
X55.987 Y137.579
X55.148 Y137.222
X54.315 Y136.85
X53.489 Y136.465
X52.669 Y136.065
X51.857 Y135.651
X51.052 Y135.223
X50.254 Y134.781
X49.464 Y134.325
X48.682 Y133.856
X47.909 Y133.374
X47.143 Y132.878
X46.387 Y132.369
X45.639 Y131.847
X44.901 Y131.312
X44.172 Y130.764
X43.453 Y130.204
X42.743 Y129.631
X42.044 Y129.046
X41.355 Y128.448
X40.934 Y128.275
X40.704 Y128.193
X40.634 Y128.167
X40.02 Y127.493
X38.78 Y126.155
X38.162 Y125.484
X37.551 Y124.808
X36.946 Y124.126
X36.35 Y123.436
X35.764 Y122.737
X35.189 Y122.03
X34.625 Y121.313
X34.072 Y120.588
X33.532 Y119.854
X33.003 Y119.11
X32.488 Y118.358
X31.985 Y117.597
X31.496 Y116.828
X31.02 Y116.051
X30.557 Y115.265
X30.108 Y114.471
X29.673 Y113.67
X29.252 Y112.861
X28.845 Y112.045
X28.451 Y111.223
X28.072 Y110.394
X27.708 Y109.558
X27.357 Y108.716
X27.022 Y107.868
X26.701 Y107.015
X26.395 Y106.156
X26.104 Y105.292
X25.828 Y104.423
X25.567 Y103.549
X25.321 Y102.671
X25.09 Y101.789
X24.875 Y100.903
X24.675 Y100.013
X24.491 Y99.12
X24.322 Y98.224
X24.168 Y97.325
X24.03 Y96.424
X23.908 Y95.52
X23.802 Y94.615
X23.711 Y93.707
X23.636 Y92.799
X23.576 Y91.889
X23.532 Y90.978
X23.504 Y90.067
X23.492 Y89.155
X23.495 Y88.243
X23.514 Y87.332
X23.549 Y86.42
X23.599 Y85.51
X23.666 Y84.601
X23.748 Y83.693
X23.846 Y82.786
X23.96 Y81.881
X24.089 Y80.979
X24.234 Y80.079
X24.394 Y79.181
X24.57 Y78.286
X24.762 Y77.395
X24.968 Y76.507
X25.191 Y75.622
X25.428 Y74.742
X25.681 Y73.866
X25.949 Y72.994
X26.231 Y72.127
X26.529 Y71.265
X26.841 Y70.409
X27.168 Y69.558
X27.51 Y68.712
X27.866 Y67.873
X28.237 Y67.04
X28.622 Y66.214
X29.022 Y65.394
X29.436 Y64.582
X29.863 Y63.776
X30.305 Y62.978
X30.76 Y62.188
X31.229 Y61.406
X31.711 Y60.633
X32.207 Y59.867
X32.716 Y59.111
X33.238 Y58.363
X33.773 Y57.625
X34.32 Y56.895
X34.88 Y56.176
X35.452 Y55.466
X36.037 Y54.766
X36.633 Y54.077
X36.813 Y53.657
X36.912 Y53.387
X36.94 Y53.314
X37.615 Y52.702
X38.286 Y52.084
X38.955 Y51.465
X39.627 Y50.848
X40.304 Y50.237
X40.987 Y49.634
X41.678 Y49.039
X42.377 Y48.453
X43.085 Y47.878
X43.801 Y47.314
X44.527 Y46.762
X45.261 Y46.222
X46.005 Y45.694
X46.757 Y45.178
X47.518 Y44.676
X48.287 Y44.186
X49.065 Y43.71
X49.85 Y43.248
X50.644 Y42.799
X51.445 Y42.364
X52.254 Y41.943
X53.07 Y41.536
X53.893 Y41.143
X54.723 Y40.764
X55.559 Y40.4
X56.401 Y40.051
X57.249 Y39.716
X58.103 Y39.396
X58.962 Y39.09
X59.826 Y38.799
X60.695 Y38.524
X61.569 Y38.263
X62.447 Y38.017
X63.329 Y37.787
X64.215 Y37.571
X65.105 Y37.372
X65.998 Y37.187
X66.894 Y37.018
X67.793 Y36.865
X68.694 Y36.727
X69.597 Y36.605
X70.503 Y36.498
X71.41 Y36.408
X72.319 Y36.333
X73.229 Y36.274
X74.14 Y36.231
X75.051 Y36.203
X75.963 Y36.192
X76.875 Y36.196
X77.786 Y36.215
X78.697 Y36.251
X79.608 Y36.302
X80.517 Y36.369
X81.425 Y36.451
X82.332 Y36.549
X83.236 Y36.663
X84.139 Y36.792
X85.039 Y36.937
X85.937 Y37.097
X86.832 Y37.273
X87.723 Y37.465
X88.611 Y37.672
X89.495 Y37.894
X90.376 Y38.132
X91.252 Y38.385
X92.123 Y38.653
X92.99 Y38.936
X93.852 Y39.234
X94.708 Y39.547
X95.559 Y39.875
X96.404 Y40.217
X97.243 Y40.574
X98.076 Y40.945
X98.902 Y41.331
X99.722 Y41.731
X100.534 Y42.145
X101.339 Y42.572
X102.137 Y43.014
X102.927 Y43.469
X103.709 Y43.938
X104.483 Y44.42
X105.248 Y44.916
X106.005 Y45.425
X106.752 Y45.947
X107.491 Y46.482
X108.219 Y47.03
X108.939 Y47.59
X109.648 Y48.163
X110.348 Y48.748
X111.037 Y49.345
X111.458 Y49.519
X111.691 Y49.602
X111.762 Y49.63
X112.377 Y50.304
X113.616 Y51.641
X114.234 Y52.312
X114.845 Y52.988
X115.45 Y53.671
X116.045 Y54.361
X116.631 Y55.06
X117.207 Y55.767
X117.771 Y56.484
X118.323 Y57.209
X118.864 Y57.943
X119.393 Y58.686
X119.909 Y59.438
X120.411 Y60.199
X120.901 Y60.968
X121.378 Y61.745
X121.841 Y62.53
X122.291 Y63.324
X122.726 Y64.125
X123.148 Y64.933
X123.555 Y65.749
X123.948 Y66.572
X124.327 Y67.401
X124.691 Y68.237
X125.04 Y69.079
X125.376 Y69.927
X125.697 Y70.781
X126.005 Y71.639
X126.305 Y72.5
X126.602 Y73.362
X126.902 Y74.223
X127.207 Y75.082
X127.518 Y75.94
X128.145 Y77.652
X128.456 Y78.509
X128.761 Y79.369
X129.055 Y80.232
X129.336 Y81.099
X129.6 Y81.972
X129.846 Y82.85
X130.071 Y83.733
X130.274 Y84.622
X130.454 Y85.516
X130.608 Y86.415
X130.738 Y87.317
X130.842 Y88.223
X130.922 Y89.131
X130.978 Y90.042
X131.011 Y90.953
X131.021 Y91.865
X131.009 Y92.776
X130.976 Y93.687
X130.922 Y94.598
X130.849 Y95.507
X130.756 Y96.414
X130.644 Y97.319
X130.515 Y98.221
X130.368 Y99.121
X130.203 Y100.018
X130.022 Y100.911
X129.824 Y101.802
X129.61 Y102.688
X129.38 Y103.57
X129.134 Y104.448
X128.873 Y105.322
X128.597 Y106.191
X128.306 Y107.055
X128 Y107.914
X127.68 Y108.768
X127.345 Y109.616
X126.996 Y110.458
X126.634 Y111.295
X126.257 Y112.125
X125.867 Y112.95
X125.463 Y113.767
X125.046 Y114.578
X124.616 Y115.382
X124.172 Y116.178
X123.716 Y116.968
X123.246 Y117.749
X122.764 Y118.523
X122.268 Y119.289
X121.761 Y120.046
X121.24 Y120.794
X120.707 Y121.534
X120.161 Y122.265
X119.604 Y122.986
X119.072 Y123.727
X118.546 Y124.472
X117.974 Y125.182
X117.37 Y125.865
X116.747 Y126.53
X116.108 Y127.181
X115.459 Y127.821
X114.799 Y128.451
X114.131 Y129.071
X113.454 Y129.682
X112.768 Y130.283
X112.074 Y130.875
X111.372 Y131.456
X110.661 Y132.026
X109.941 Y132.586
X109.213 Y133.135
X108.476 Y133.673
X107.731 Y134.198
X106.978 Y134.712
X106.216 Y135.213
X105.447 Y135.703
X104.669 Y136.179
X103.884 Y136.643
X103.092 Y137.094
X102.292 Y137.532
X101.485 Y137.956
X100.671 Y138.367
X99.85 Y138.764
X99.023 Y139.148
X98.19 Y139.518
X97.35 Y139.874
X96.505 Y140.216
X95.654 Y140.544
X94.798 Y140.858
X93.937 Y141.158
X93.071 Y141.444
X92.201 Y141.715
X91.326 Y141.972
X90.447 Y142.215
X89.564 Y142.443
X88.678 Y142.657
X87.788 Y142.856
X86.895 Y143.04
X85.999 Y143.21
X85.101 Y143.365
X84.2 Y143.505
X83.296 Y143.63
X82.391 Y143.74
X81.484 Y143.835
X80.576 Y143.915
X79.667 Y143.979
X78.756 Y144.029
X77.845 Y144.063
X76.933 Y144.082
X76.022 Y144.087
X75.11 Y144.076
X74.198 Y144.05
X73.287 Y144.009
X72.377 Y143.953
X71.468 Y143.883
X70.56 Y143.797
X69.654 Y143.696
X68.75 Y143.581
X67.847 Y143.45
X66.947 Y143.305
X66.049 Y143.145
X65.155 Y142.971
X64.263 Y142.781
X63.374 Y142.577
X62.489 Y142.358
X61.608 Y142.124
X60.73 Y141.876
X59.857 Y141.613
X58.989 Y141.335
X58.125 Y141.044
X57.266 Y140.737
X56.412 Y140.417
X55.564 Y140.083
X54.721 Y139.735
X53.884 Y139.373
X53.053 Y138.997
X52.229 Y138.608
X51.411 Y138.205
X50.6 Y137.789
X49.795 Y137.359
X48.998 Y136.916
X48.208 Y136.461
X47.426 Y135.992
X46.652 Y135.511
X45.886 Y135.016
X45.128 Y134.509
X44.378 Y133.99
X43.637 Y133.458
X42.906 Y132.914
X42.183 Y132.358
X41.445 Y131.823
X40.7 Y131.297
X39.988 Y130.728
X39.302 Y130.127
X38.636 Y129.505
X37.983 Y128.868
X37.342 Y128.219
X36.711 Y127.561
X36.089 Y126.894
X35.477 Y126.218
X34.875 Y125.534
X34.282 Y124.841
X33.7 Y124.139
X33.128 Y123.429
X32.567 Y122.711
X32.017 Y121.983
X31.478 Y121.248
X30.951 Y120.503
X30.436 Y119.751
X29.934 Y118.99
X29.444 Y118.221
X28.966 Y117.444
X28.501 Y116.66
X28.049 Y115.868
X27.61 Y115.069
X27.185 Y114.262
X26.773 Y113.449
X26.374 Y112.629
X25.989 Y111.802
X25.618 Y110.97
X25.26 Y110.131
X24.916 Y109.286
X24.587 Y108.436
X24.271 Y107.581
X23.97 Y106.72
X23.682 Y105.855
X23.409 Y104.985
X23.151 Y104.11
X22.907 Y103.232
X22.677 Y102.349
X22.463 Y101.463
X22.262 Y100.574
X22.077 Y99.681
X21.906 Y98.785
X21.75 Y97.887
X21.608 Y96.986
X21.482 Y96.083
X21.371 Y95.178
X21.275 Y94.271
X21.194 Y93.363
X21.127 Y92.454
X21.076 Y91.543
X21.04 Y90.632
X21.019 Y89.721
X21.013 Y88.809
X21.022 Y87.897
X21.046 Y86.986
X21.086 Y86.075
X21.14 Y85.165
X21.209 Y84.255
X21.293 Y83.347
X21.393 Y82.441
X21.507 Y81.536
X21.636 Y80.634
X21.78 Y79.733
X21.939 Y78.836
X22.112 Y77.94
X22.301 Y77.048
X22.504 Y76.159
X22.721 Y75.274
X22.954 Y74.392
X23.201 Y73.515
X23.462 Y72.641
X23.738 Y71.772
X24.029 Y70.908
X24.333 Y70.048
X24.652 Y69.194
X24.984 Y68.345
X25.331 Y67.501
X25.691 Y66.664
X26.066 Y65.832
X26.454 Y65.007
X26.855 Y64.189
X27.27 Y63.377
X27.699 Y62.572
X28.14 Y61.774
X28.595 Y60.984
X29.062 Y60.201
X29.543 Y59.426
X30.036 Y58.659
X30.542 Y57.9
X31.06 Y57.15
X31.591 Y56.409
X32.134 Y55.676
X32.689 Y54.953
X33.229 Y54.218
X33.749 Y53.469
X34.313 Y52.753
X34.911 Y52.064
X35.531 Y51.396
X36.167 Y50.743
X36.815 Y50.101
X37.473 Y49.47
X38.14 Y48.848
X38.815 Y48.235
X39.499 Y47.632
X40.192 Y47.039
X40.892 Y46.456
X41.602 Y45.883
X42.32 Y45.321
X43.046 Y44.77
X43.781 Y44.23
X44.524 Y43.702
X45.276 Y43.186
X46.036 Y42.682
X46.804 Y42.19
X47.58 Y41.711
X48.363 Y41.245
X49.154 Y40.791
X49.953 Y40.352
X50.759 Y39.925
X51.572 Y39.512
X52.391 Y39.112
X53.217 Y38.726
X54.05 Y38.353
X54.888 Y37.995
X55.732 Y37.65
X56.582 Y37.319
X57.437 Y37.002
X58.297 Y36.699
X59.162 Y36.411
X60.031 Y36.136
X60.905 Y35.876
X61.783 Y35.63
X62.665 Y35.399
X63.551 Y35.183
X64.44 Y34.981
X65.332 Y34.793
X66.228 Y34.621
X67.126 Y34.463
X68.026 Y34.32
X68.929 Y34.193
X69.834 Y34.08
X70.741 Y33.983
X71.649 Y33.9
X72.558 Y33.833
X73.468 Y33.781
X74.379 Y33.743
X75.291 Y33.721
X76.203 Y33.714
X77.115 Y33.722
X78.026 Y33.744
X78.937 Y33.782
X79.847 Y33.835
X80.757 Y33.903
X81.665 Y33.985
X82.571 Y34.083
X83.476 Y34.195
X84.379 Y34.323
X85.28 Y34.465
X86.178 Y34.622
X87.073 Y34.794
X87.966 Y34.981
X88.855 Y35.182
X89.741 Y35.399
X90.623 Y35.63
X91.501 Y35.876
X92.375 Y36.136
X93.244 Y36.411
X94.109 Y36.7
X94.969 Y37.003
X95.824 Y37.321
X96.673 Y37.652
X97.517 Y37.998
X98.355 Y38.357
X99.187 Y38.73
X100.013 Y39.116
X100.832 Y39.516
X101.645 Y39.93
X102.451 Y40.357
X103.249 Y40.797
X104.04 Y41.25
X104.824 Y41.716
X105.6 Y42.195
X106.368 Y42.687
X107.127 Y43.191
X107.878 Y43.709
X108.62 Y44.238
X109.353 Y44.78
X110.078 Y45.334
X110.809 Y45.88
X111.557 Y46.4
X112.276 Y46.961
X112.966 Y47.557
X113.636 Y48.175
X114.292 Y48.809
X114.935 Y49.456
X115.568 Y50.112
X116.191 Y50.778
X116.805 Y51.452
X117.409 Y52.135
X118.003 Y52.826
X118.588 Y53.526
X119.162 Y54.234
X119.725 Y54.951
X120.278 Y55.677
X120.819 Y56.411
X121.348 Y57.153
X121.865 Y57.904
X122.371 Y58.663
X122.864 Y59.43
X123.344 Y60.205
X123.812 Y60.988
X124.266 Y61.778
X124.707 Y62.576
X125.135 Y63.381
X125.55 Y64.194
X125.951 Y65.013
X126.338 Y65.838
X126.712 Y66.67
X127.072 Y67.507
X127.418 Y68.351
X127.752 Y69.199
X128.076 Y70.052
X128.392 Y70.907
X128.705 Y71.763
X129.327 Y73.478
X129.951 Y75.191
X130.195 Y75.865
X130.218 Y75.933
X130.238 Y76.003
X130.254 Y76.073
X131.013 Y79.791
X131.044 Y79.998
X131.102 Y80.412
X131.129 Y80.619
X131.531 Y83.931
X131.552 Y84.138
X131.589 Y84.552
X131.605 Y84.759
X131.772 Y88.9
X131.605 Y93.04
X131.589 Y93.247
X131.552 Y93.661
X131.531 Y93.868
X131.129 Y97.181
X131.097 Y97.426
X131.044 Y97.802
X131.013 Y98.009
X130.168 Y102.149
X130.061 Y102.529
X129.932 Y102.977
X128.973 Y106.29
X128.903 Y106.497
X128.753 Y106.911
X128.678 Y107.118
X127.421 Y110.43
X127.368 Y110.566
X127.245 Y110.844
X127.151 Y111.051
X125.48 Y114.571
X125.377 Y114.778
X123.432 Y118.147
X123.341 Y118.297
X123.017 Y118.818
X122.951 Y118.918
X120.946 Y121.823
X120.739 Y122.113
X120.532 Y122.4
X120.502 Y122.438
X118.135 Y125.336
X117.782 Y125.75
X117.631 Y125.923
X115.014 Y128.648
X114.81 Y128.855
X114.603 Y129.063
X111.564 Y131.754
X111.417 Y131.879
X111.21 Y132.045
X111.052 Y132.168
X108.297 Y134.238
X107.895 Y134.531
X107.688 Y134.681
X107.481 Y134.817
X104.14 Y136.929
X103.959 Y137.038
X103.752 Y137.15
X100.622 Y138.793
X100.023 Y139.101
X99.816 Y139.196
X96.501 Y140.607
X95.874 Y140.863
X95.673 Y140.939
X92.358 Y142.045
X91.944 Y142.18
X91.737 Y142.246
X91.523 Y142.312
X87.324 Y143.347
X86.972 Y143.405
X83.036 Y144.045
X82.622 Y144.087
X82.415 Y144.107
X78.989 Y144.382
X78.479 Y144.415
X78.272 Y144.427
X74.128
X73.921 Y144.415
X73.411 Y144.382
X69.985 Y144.107
X69.778 Y144.087
X69.364 Y144.045
X65.221 Y143.372
X65.076 Y143.347
X60.87 Y142.31
X60.663 Y142.246
X60.225 Y142.105
X60.042 Y142.045
X56.727 Y140.939
X56.52 Y140.861
X55.899 Y140.607
X52.584 Y139.196
X52.377 Y139.101
X51.755 Y138.781
X48.622 Y137.136
X48.441 Y137.038
X48.234 Y136.913
X44.919 Y134.817
X44.712 Y134.681
X44.298 Y134.38
X44.091 Y134.229
X41.348 Y132.168
X41.19 Y132.045
X40.983 Y131.879
X40.836 Y131.754
X37.798 Y129.063
X37.59 Y128.855
X37.386 Y128.648
X34.769 Y125.923
X34.561 Y125.684
X34.265 Y125.336
X31.898 Y122.438
X31.868 Y122.401
X31.597 Y122.024
X31.45 Y121.817
X29.449 Y118.918
X29.383 Y118.818
X29.059 Y118.297
X28.968 Y118.147
X27.023 Y114.778
X26.92 Y114.571
X25.239 Y111.03
X25.156 Y110.844
X25.032 Y110.566
X24.979 Y110.43
X23.723 Y107.118
X23.572 Y106.704
X23.498 Y106.497
X23.427 Y106.29
X22.408 Y102.77
X22.29 Y102.356
X22.232 Y102.149
X21.387 Y98.009
X21.356 Y97.802
X21.298 Y97.388
X21.27 Y97.181
X20.868 Y93.868
X20.847 Y93.661
X20.811 Y93.247
X20.794 Y93.04
X20.628 Y88.9
X20.794 Y84.759
X20.811 Y84.552
X20.847 Y84.138
X20.868 Y83.931
X21.27 Y80.619
X21.303 Y80.372
X21.356 Y79.998
X21.387 Y79.791
X22.232 Y75.65
X22.339 Y75.271
X22.468 Y74.822
X23.427 Y71.51
X23.498 Y71.303
X23.647 Y70.889
X23.723 Y70.682
X24.979 Y67.369
X25.032 Y67.234
X25.156 Y66.955
X25.25 Y66.748
X26.92 Y63.229
X27.023 Y63.022
X28.968 Y59.653
X29.059 Y59.502
X29.383 Y58.982
X29.45 Y58.881
X31.454 Y55.977
X31.661 Y55.688
X31.868 Y55.4
X31.898 Y55.362
X34.265 Y52.464
X34.618 Y52.049
X34.769 Y51.877
X37.387 Y49.151
X37.591 Y48.944
X37.798 Y48.737
X40.836 Y46.046
X40.983 Y45.921
X41.19 Y45.755
X41.348 Y45.632
X44.103 Y43.561
X44.505 Y43.269
X44.712 Y43.119
X44.919 Y42.983
X48.261 Y40.87
X48.441 Y40.763
X48.648 Y40.65
X51.779 Y39.007
X52.377 Y38.7
X52.584 Y38.605
X55.899 Y37.192
X56.526 Y36.937
X56.727 Y36.861
X60.042 Y35.754
X60.456 Y35.62
X60.663 Y35.553
X60.877 Y35.488
X65.078 Y34.452
X65.428 Y34.395
X69.364 Y33.755
X69.778 Y33.713
X69.985 Y33.694
X73.413 Y33.417
X73.921 Y33.385
X74.128 Y33.373
X78.272
X78.479 Y33.385
X78.987 Y33.417
X82.415 Y33.694
X82.622 Y33.713
X83.036 Y33.755
X87.179 Y34.429
X87.322 Y34.452
X91.53 Y35.489
X91.737 Y35.553
X92.175 Y35.695
X92.358 Y35.754
X95.673 Y36.861
X95.88 Y36.939
X96.501 Y37.192
X99.816 Y38.605
X100.023 Y38.699
X100.645 Y39.019
X103.777 Y40.663
X103.959 Y40.763
X104.166 Y40.887
X107.481 Y42.983
X107.688 Y43.119
X108.102 Y43.419
X108.309 Y43.571
X111.051 Y45.632
X111.21 Y45.755
X111.417 Y45.921
X111.564 Y46.046
X114.602 Y48.737
X114.809 Y48.944
X115.014 Y49.151
X117.631 Y51.877
X117.839 Y52.116
X118.135 Y52.464
X120.501 Y55.362
X120.532 Y55.4
X120.802 Y55.776
X120.95 Y55.983
X122.95 Y58.881
X123.017 Y58.982
X123.341 Y59.502
X123.432 Y59.653
X125.377 Y63.022
X125.481 Y63.229
X127.161 Y66.77
X127.244 Y66.955
X127.368 Y67.234
X127.421 Y67.369
X128.678 Y70.682
X128.828 Y71.096
X128.903 Y71.303
X128.973 Y71.51
X129.992 Y75.029
X130.11 Y75.443
X130.168 Y75.65
X130.254 Y76.073
X130.262 Y76.148 F1524
X130.261 Y76.223
X130.243 Y76.297 Z-2.995
X130.225 Y76.369 Z-2.982
X130.207 Y76.44 Z-2.959
X130.161 Y76.507 Z-2.921
X130.119 Y76.569 Z-2.873
X130.081 Y76.624 Z-2.814
X130.029 Y76.663 Z-2.738
X129.988 Y76.694 Z-2.653
X129.957 Y76.717 Z-2.561
X129.939 Y76.731 Z-2.465
X129.933 Y76.736 Z-2.365
Z6 F2032
X114.659 Y84.892
Z-3.493
Z-4.128 F1524
X114.666 Y84.889 Z-4.227
X114.688 Y84.881 Z-4.324
X114.724 Y84.867 Z-4.416
X114.772 Y84.848 Z-4.501
X114.832 Y84.824 Z-4.577
X114.903 Y84.797 Z-4.641
X114.982 Y84.766 Z-4.693
X115.068 Y84.733 Z-4.731
X115.158 Y84.697 Z-4.755
X115.251 Y84.661 Z-4.762
G3 X118.623 Y83.751 I5.885 J15.105
G1 X118.772 Y83.733 F2032
X118.916 Y83.772
X119.053 Y83.834
X119.182 Y83.91
X119.313 Y84.006
X119.462 Y84.135
X119.63 Y84.305
X119.816 Y84.526
X120.019 Y84.812
X120.238 Y85.181
X120.475 Y85.662
X120.714 Y86.265
X120.908 Y86.901
X121.1 Y87.777
X121.224 Y88.681
X121.297 Y89.589
X121.336 Y90.5
X121.337 Y91.412
X121.3 Y92.323
X121.237 Y93.233
X121.155 Y94.141
X121.06 Y95.048
X120.932 Y95.951
X120.78 Y96.85
X120.611 Y97.746
X120.43 Y98.639
X120.232 Y99.529
X120.006 Y100.413
X119.761 Y101.291
X119.503 Y102.166
X119.236 Y103.037
X118.943 Y103.901
X118.628 Y104.757
X118.296 Y105.606
X117.954 Y106.451
X117.6 Y107.291
X117.219 Y108.12
X116.818 Y108.939
X116.405 Y109.752
X115.983 Y110.56
X115.541 Y111.358
X115.077 Y112.142
X114.598 Y112.918
X114.107 Y113.687
X113.61 Y114.451
X113.086 Y115.197
X112.544 Y115.931
X111.99 Y116.655
X111.428 Y117.373
X110.851 Y118.079
X110.254 Y118.768
X109.642 Y119.444
X109.02 Y120.111
X108.391 Y120.771
X107.743 Y121.412
X107.079 Y122.037
X106.403 Y122.649
X105.72 Y123.253
X105.027 Y123.846
X104.316 Y124.416
X103.592 Y124.97
X102.859 Y125.513
X102.121 Y126.048
X101.369 Y126.564
X100.603 Y127.059
X99.828 Y127.539
X99.046 Y128.008
X98.259 Y128.469
X97.457 Y128.902
X96.645 Y129.317
X95.826 Y129.718
X95.002 Y130.109
X94.171 Y130.483
X93.329 Y130.833
X92.479 Y131.164
X91.625 Y131.484
X90.768 Y131.794
X89.901 Y132.078
X89.028 Y132.34
X88.15 Y132.586
X87.269 Y132.821
X86.384 Y133.041
X85.493 Y133.234
X84.598 Y133.407
X83.7 Y133.566
X82.8 Y133.715
X81.897 Y133.84
X80.991 Y133.94
X80.083 Y134.024
X79.174 Y134.095
X78.264 Y134.155
X77.353 Y134.185
X76.441 Y134.193
X75.529 Y134.186
X74.617 Y134.169
X73.706 Y134.131
X72.797 Y134.067
X71.889 Y133.985
X70.982 Y133.89
X70.076 Y133.786
X69.174 Y133.652
X68.276 Y133.496
X67.38 Y133.324
X66.487 Y133.141
X65.597 Y132.942
X64.714 Y132.716
X63.835 Y132.471
X62.961 Y132.213
X62.089 Y131.945
X61.226 Y131.653
X60.37 Y131.338
X59.52 Y131.007
X58.675 Y130.665
X57.834 Y130.312
X57.006 Y129.931
X56.187 Y129.531
X55.374 Y129.118
X54.565 Y128.696
X53.767 Y128.255
X52.982 Y127.792
X52.206 Y127.313
X51.437 Y126.823
X50.673 Y126.325
X49.926 Y125.802
X49.192 Y125.261
X48.468 Y124.708
X47.75 Y124.145
X47.043 Y123.57
X46.354 Y122.973
X45.677 Y122.361
X45.01 Y121.74
X44.349 Y121.111
X43.707 Y120.464
X43.083 Y119.8
X42.47 Y119.124
X41.866 Y118.441
X41.272 Y117.749
X40.701 Y117.038
X40.147 Y116.314
X39.603 Y115.582
X39.068 Y114.844
X38.552 Y114.093
X38.056 Y113.327
X37.576 Y112.552
X37.106 Y111.77
X36.645 Y110.984
X36.21 Y110.182
X35.796 Y109.37
X35.394 Y108.552
X35.003 Y107.728
X34.628 Y106.897
X34.278 Y106.055
X33.946 Y105.206
X33.626 Y104.352
X33.315 Y103.495
X33.031 Y102.628
X32.768 Y101.755
X32.522 Y100.877
X32.287 Y99.996
X32.065 Y99.112
X31.872 Y98.221
X31.699 Y97.326
X31.539 Y96.428
X31.39 Y95.528
X31.264 Y94.625
X31.163 Y93.719
X31.079 Y92.811
X31.007 Y91.902
X30.946 Y90.992
X30.916 Y90.081
X30.907 Y89.169
X30.914 Y88.257
X30.931 Y87.346
X30.967 Y86.435
X31.03 Y85.525
X31.112 Y84.617
X31.207 Y83.71
X31.311 Y82.804
X31.444 Y81.902
X31.6 Y81.004
X31.771 Y80.108
X31.953 Y79.215
X32.151 Y78.325
X32.376 Y77.441
X32.621 Y76.563
X32.879 Y75.688
X33.147 Y74.816
X33.438 Y73.952
X33.752 Y73.096
X34.083 Y72.247
X34.424 Y71.401
X34.777 Y70.56
X35.157 Y69.732
X35.556 Y68.912
X35.969 Y68.099
X36.391 Y67.29
X36.831 Y66.492
X37.294 Y65.706
X37.772 Y64.93
X38.262 Y64.161
X38.759 Y63.397
X39.281 Y62.649
X39.822 Y61.915
X40.375 Y61.19
X40.937 Y60.472
X41.512 Y59.764
X42.109 Y59.075
X42.72 Y58.398
X43.341 Y57.731
X43.969 Y57.07
X44.616 Y56.427
X45.28 Y55.802
X45.955 Y55.189
X46.638 Y54.585
X47.329 Y53.99
X48.04 Y53.419
X48.763 Y52.864
X49.495 Y52.32
X50.233 Y51.785
X50.984 Y51.267
X51.749 Y50.771
X52.524 Y50.291
X53.305 Y49.821
X54.091 Y49.359
X54.893 Y48.924
X55.704 Y48.508
X56.523 Y48.107
X57.346 Y47.715
X58.177 Y47.339
X59.019 Y46.989
X59.868 Y46.656
X60.722 Y46.336
X61.579 Y46.025
X62.445 Y45.739
X63.318 Y45.476
X64.196 Y45.23
X65.076 Y44.994
X65.961 Y44.771
X66.852 Y44.577
X67.747 Y44.404
X68.644 Y44.244
X69.544 Y44.094
X70.447 Y43.967
X71.353 Y43.865
X72.261 Y43.781
X73.17 Y43.71
X74.079 Y43.647
X74.991 Y43.616
X75.903 Y43.607
X76.814 Y43.613
X77.726 Y43.63
X78.637 Y43.665
X79.547 Y43.728
X80.455 Y43.809
X81.362 Y43.904
X82.268 Y44.008
X83.17 Y44.14
X84.069 Y44.295
X84.964 Y44.466
X85.858 Y44.648
X86.748 Y44.844
X87.632 Y45.069
X88.51 Y45.313
X89.385 Y45.571
X90.257 Y45.838
X91.121 Y46.128
X91.977 Y46.442
X92.827 Y46.772
X93.673 Y47.114
X94.514 Y47.465
X95.343 Y47.844
X96.163 Y48.243
X96.976 Y48.656
X97.785 Y49.077
X98.584 Y49.516
X99.37 Y49.979
X100.146 Y50.457
X100.915 Y50.947
X101.68 Y51.444
X102.428 Y51.965
X103.162 Y52.505
X103.887 Y53.058
X104.606 Y53.62
X105.314 Y54.194
X106.004 Y54.79
X106.681 Y55.401
X107.349 Y56.022
X108.01 Y56.65
X108.653 Y57.296
X109.279 Y57.959
X109.892 Y58.634
X110.496 Y59.317
X111.092 Y60.007
X111.664 Y60.717
X112.22 Y61.44
X112.763 Y62.172
X113.299 Y62.91
X113.817 Y63.66
X114.314 Y64.425
X114.795 Y65.2
X115.265 Y65.981
X115.727 Y66.767
X116.163 Y67.568
X116.579 Y68.379
X116.981 Y69.198
X117.373 Y70.021
X117.75 Y70.851
X118.101 Y71.693
X118.434 Y72.541
X118.754 Y73.395
X119.066 Y74.252
X119.352 Y75.118
X119.616 Y75.991
X119.863 Y76.868
X120.099 Y77.749
X120.323 Y78.633
X120.517 Y79.524
X120.799 Y80.391
X121.162 Y81.228
X121.555 Y82.05
X121.947 Y82.873
X122.316 Y83.707
X122.649 Y84.556
X122.939 Y85.421
X123.179 Y86.3
X123.37 Y87.192
X123.517 Y88.092
X123.624 Y88.997
X123.692 Y89.906
X123.724 Y90.818
X123.725 Y91.73
X123.699 Y92.641
X123.649 Y93.551
X123.574 Y94.46
X123.474 Y95.366
X123.353 Y96.27
X123.213 Y97.171
X123.056 Y98.069
X122.877 Y98.964
X122.679 Y99.854
X122.463 Y100.739
X122.232 Y101.622
X121.984 Y102.499
X121.716 Y103.371
X121.431 Y104.237
X121.13 Y105.097
X120.814 Y105.953
X120.482 Y106.802
X120.132 Y107.644
X119.765 Y108.478
X119.383 Y109.306
X118.986 Y110.127
X118.574 Y110.941
X118.145 Y111.745
X117.7 Y112.541
X117.242 Y113.329
X116.77 Y114.11
X116.283 Y114.88
X115.779 Y115.64
X115.26 Y116.39
X114.728 Y117.131
X114.183 Y117.862
X113.623 Y118.581
X113.049 Y119.289
X112.461 Y119.986
X111.861 Y120.673
X111.249 Y121.349
X110.623 Y122.012
X109.984 Y122.662
X109.332 Y123.3
X108.67 Y123.927
X107.997 Y124.542
X107.311 Y125.142
X106.612 Y125.729
X105.903 Y126.302
X105.185 Y126.863
X104.456 Y127.411
X103.715 Y127.943
X102.964 Y128.46
X102.204 Y128.963
X101.435 Y129.454
X100.657 Y129.929
X99.869 Y130.388
X99.072 Y130.831
X98.267 Y131.259
X97.455 Y131.674
X96.635 Y132.072
X95.807 Y132.453
X94.971 Y132.818
X94.129 Y133.169
X93.282 Y133.505
X92.427 Y133.823
X91.566 Y134.124
X90.7 Y134.408
X89.829 Y134.677
X88.953 Y134.931
X88.072 Y135.166
X87.186 Y135.383
X86.297 Y135.583
X85.404 Y135.769
X84.508 Y135.937
X83.608 Y136.086
X82.706 Y136.218
X81.802 Y136.332
X80.895 Y136.432
X79.987 Y136.514
X79.077 Y136.577
X78.167 Y136.622
X77.255 Y136.65
X76.344 Y136.663
X75.432 Y136.658
X74.52 Y136.634
X73.609 Y136.592
X72.7 Y136.533
X71.791 Y136.46
X70.883 Y136.369
X69.978 Y136.258
X69.076 Y136.129
X68.175 Y135.985
X67.278 Y135.824
X66.384 Y135.646
X65.493 Y135.448
X64.607 Y135.234
X63.725 Y135.005
X62.847 Y134.759
X61.974 Y134.496
X61.106 Y134.215
X60.244 Y133.917
X59.388 Y133.605
X58.537 Y133.278
X57.693 Y132.933
X56.856 Y132.57
X56.026 Y132.192
X55.203 Y131.8
X54.387 Y131.393
X53.58 Y130.969
X52.782 Y130.528
X51.992 Y130.073
X51.209 Y129.605
X50.436 Y129.122
X49.673 Y128.622
X48.921 Y128.107
X48.178 Y127.578
X47.444 Y127.037
X46.721 Y126.482
X46.009 Y125.911
X45.309 Y125.327
X44.62 Y124.731
X43.94 Y124.123
X43.273 Y123.501
X42.619 Y122.865
X41.978 Y122.217
X41.348 Y121.558
X40.729 Y120.888
X40.124 Y120.206
X39.534 Y119.511
X38.958 Y118.805
X38.393 Y118.089
X37.842 Y117.362
X37.306 Y116.625
X36.785 Y115.877
X36.278 Y115.119
X35.784 Y114.352
X35.304 Y113.577
X34.84 Y112.792
X34.393 Y111.997
X33.96 Y111.195
X33.542 Y110.384
X33.138 Y109.567
X32.752 Y108.741
X32.383 Y107.907
X32.028 Y107.067
X31.688 Y106.221
X31.364 Y105.369
X31.058 Y104.51
X30.77 Y103.645
X30.497 Y102.775
X30.239 Y101.9
X29.998 Y101.021
X29.777 Y100.136
X29.572 Y99.248
X29.383 Y98.356
X29.21 Y97.46
X29.055 Y96.562
X28.918 Y95.66
X28.799 Y94.756
X28.695 Y93.851
X28.608 Y92.943
X28.539 Y92.034
X28.489 Y91.123
X28.456 Y90.212
X28.439 Y89.3
X28.438 Y88.389
X28.456 Y87.477
X28.494 Y86.566
X28.548 Y85.656
X28.617 Y84.747
X28.704 Y83.839
X28.81 Y82.933
X28.934 Y82.03
X29.074 Y81.129
X29.23 Y80.231
X29.403 Y79.335
X29.595 Y78.444
X29.805 Y77.557
X30.03 Y76.673
X30.271 Y75.794
X30.528 Y74.919
X30.804 Y74.05
X31.097 Y73.186
X31.405 Y72.328
X31.727 Y71.475
X32.067 Y70.629
X32.425 Y69.79
X32.799 Y68.959
X33.187 Y68.134
X33.59 Y67.316
X34.01 Y66.506
X34.447 Y65.706
X34.898 Y64.914
X35.363 Y64.129
X35.842 Y63.353
X36.337 Y62.588
X36.847 Y61.832
X37.372 Y61.086
X37.91 Y60.35
X38.461 Y59.623
X39.027 Y58.908
X39.607 Y58.205
X40.2 Y57.513
X40.804 Y56.83
X41.422 Y56.159
X42.053 Y55.501
X42.698 Y54.857
X43.355 Y54.224
X44.021 Y53.602
X44.701 Y52.993
X45.392 Y52.399
X46.096 Y51.819
X46.809 Y51.251
X47.533 Y50.696
X48.267 Y50.156
X49.012 Y49.631
X49.768 Y49.12
X50.531 Y48.622
X51.304 Y48.138
X52.086 Y47.669
X52.878 Y47.217
X53.679 Y46.781
X54.487 Y46.358
X55.302 Y45.949
X56.125 Y45.558
X56.957 Y45.184
X57.795 Y44.826
X58.64 Y44.481
X59.49 Y44.153
X60.348 Y43.843
X61.211 Y43.55
X62.08 Y43.273
X62.953 Y43.011
X63.831 Y42.765
X64.714 Y42.538
X65.602 Y42.329
X66.493 Y42.135
X67.387 Y41.957
X68.285 Y41.797
X69.186 Y41.655
X70.089 Y41.531
X70.994 Y41.423
X71.901 Y41.329
X72.81 Y41.255
X73.72 Y41.199
X74.631 Y41.162
X75.543 Y41.141
X76.455 Y41.136
X77.366 Y41.149
X78.278 Y41.182
X79.188 Y41.232
X80.097 Y41.297
X81.006 Y41.378
X81.912 Y41.479
X82.816 Y41.598
X83.718 Y41.734
X84.617 Y41.885
X85.513 Y42.053
X86.405 Y42.239
X87.294 Y42.444
X88.179 Y42.665
X89.06 Y42.901
X89.936 Y43.153
X90.806 Y43.424
X91.671 Y43.712
X92.531 Y44.016
X93.386 Y44.334
X94.233 Y44.67
X95.074 Y45.023
X95.908 Y45.392
X96.734 Y45.777
X97.554 Y46.176
X98.366 Y46.591
X99.169 Y47.023
X99.964 Y47.47
X100.751 Y47.931
X101.529 Y48.405
X102.298 Y48.896
X103.056 Y49.402
X103.805 Y49.923
X104.544 Y50.457
X105.274 Y51.003
X105.992 Y51.565
X106.699 Y52.141
X107.394 Y52.731
X108.079 Y53.332
X108.753 Y53.946
X109.414 Y54.575
X110.062 Y55.216
X110.699 Y55.869
X111.324 Y56.533
X111.936 Y57.209
X112.534 Y57.897
X113.118 Y58.597
X113.69 Y59.308
X114.249 Y60.028
X114.794 Y60.759
X115.323 Y61.501
X115.838 Y62.254
X116.339 Y63.015
X116.828 Y63.785
X117.302 Y64.564
X117.758 Y65.354
X118.199 Y66.152
X118.625 Y66.958
X119.038 Y67.771
X119.433 Y68.593
X119.812 Y69.422
X120.174 Y70.259
X120.523 Y71.102
X120.855 Y71.95
X121.171 Y72.806
X121.469 Y73.668
X121.75 Y74.535
X122.017 Y75.407
X122.267 Y76.284
X122.514 Y77.162
X122.79 Y78.03
X123.101 Y78.888
X123.435 Y79.736
X123.78 Y80.58
X124.123 Y81.425
X124.453 Y82.275
X124.764 Y83.132
X125.049 Y83.998
X125.302 Y84.874
X125.523 Y85.759
X125.71 Y86.651
X125.862 Y87.55
X125.979 Y88.455
X126.064 Y89.363
X126.118 Y90.273
X126.143 Y91.184
X126.142 Y92.096
X126.115 Y93.007
X126.063 Y93.918
X125.989 Y94.827
X125.893 Y95.733
X125.777 Y96.638
X125.641 Y97.539
X125.486 Y98.438
X125.313 Y99.333
X125.121 Y100.225
X124.913 Y101.112
X124.687 Y101.996
X124.444 Y102.874
X124.184 Y103.748
X123.907 Y104.617
X123.615 Y105.481
X123.308 Y106.339
X122.984 Y107.192
X122.644 Y108.038
X122.289 Y108.878
X121.919 Y109.711
X121.534 Y110.538
X121.134 Y111.357
X120.719 Y112.169
X120.289 Y112.973
X119.846 Y113.77
X119.388 Y114.558
X118.916 Y115.338
X118.429 Y116.109
X117.928 Y116.871
X117.414 Y117.625
X116.886 Y118.368
X116.345 Y119.101
X115.789 Y119.825
X115.221 Y120.538
X114.64 Y121.241
X114.047 Y121.933
X113.441 Y122.614
X112.822 Y123.284
X112.586 Y123.531
X111.952 Y124.186
X111.306 Y124.83
X110.648 Y125.462
X109.979 Y126.081
X109.298 Y126.688
X108.607 Y127.282
X107.905 Y127.865
X107.193 Y128.434
X106.471 Y128.99
X105.738 Y129.533
X104.995 Y130.062
X104.244 Y130.578
X103.483 Y131.081
X102.713 Y131.569
X101.934 Y132.043
X101.147 Y132.503
X100.351 Y132.949
X99.548 Y133.38
X98.737 Y133.797
X97.918 Y134.198
X97.092 Y134.584
X96.26 Y134.956
X95.42 Y135.313
X94.575 Y135.654
X93.723 Y135.979
X92.866 Y136.289
X92.003 Y136.584
X91.135 Y136.863
X90.262 Y137.127
X89.384 Y137.374
X88.502 Y137.605
X87.616 Y137.82
X86.726 Y138.02
X85.833 Y138.203
X84.936 Y138.369
X84.037 Y138.519
X83.135 Y138.653
X82.231 Y138.772
X81.325 Y138.873
X80.417 Y138.958
X79.508 Y139.026
X78.598 Y139.078
X77.686 Y139.113
X76.775 Y139.132
X75.863 Y139.134
X74.951 Y139.119
X74.04 Y139.088
X73.129 Y139.041
X72.22 Y138.977
X71.312 Y138.897
X70.405 Y138.799
X69.5 Y138.686
X68.598 Y138.556
X67.698 Y138.41
X66.8 Y138.248
X65.906 Y138.069
X65.016 Y137.874
X64.129 Y137.663
X63.245 Y137.436
X62.367 Y137.193
X61.492 Y136.934
X60.623 Y136.659
X59.759 Y136.368
X58.9 Y136.062
X58.047 Y135.74
X57.2 Y135.403
X56.359 Y135.05
X55.524 Y134.682
X54.697 Y134.3
X53.876 Y133.902
X53.063 Y133.489
X52.258 Y133.062
X51.46 Y132.62
X50.67 Y132.164
X49.889 Y131.694
X49.117 Y131.209
X48.354 Y130.711
X47.599 Y130.198
X46.854 Y129.673
X46.119 Y129.134
X45.394 Y128.581
X44.679 Y128.015
X43.974 Y127.436
X43.28 Y126.845
X42.597 Y126.241
X41.925 Y125.625
X41.594 Y125.311
X40.858 Y124.596
X40.215 Y123.95
X39.584 Y123.291
X38.966 Y122.621
X38.36 Y121.94
X37.766 Y121.248
X37.185 Y120.546
X36.617 Y119.833
X36.062 Y119.109
X35.521 Y118.375
X34.993 Y117.632
X34.478 Y116.879
X33.977 Y116.117
X33.49 Y115.346
X33.017 Y114.567
X32.559 Y113.778
X32.115 Y112.982
X31.685 Y112.178
X31.27 Y111.366
X30.87 Y110.547
X30.484 Y109.72
X30.113 Y108.887
X29.758 Y108.048
X29.417 Y107.202
X29.093 Y106.35
X28.784 Y105.492
X28.49 Y104.629
X28.212 Y103.761
X27.95 Y102.887
X27.705 Y102.009
X27.475 Y101.126
X27.262 Y100.24
X27.064 Y99.35
X26.883 Y98.456
X26.718 Y97.559
X26.57 Y96.66
X26.437 Y95.758
X26.32 Y94.853
X26.22 Y93.947
X26.137 Y93.039
X26.07 Y92.13
X26.02 Y91.219
X25.985 Y90.308
X25.967 Y89.396
Y88.485
X25.982 Y87.573
X26.014 Y86.662
X26.062 Y85.751
X26.128 Y84.842
X26.21 Y83.934
X26.309 Y83.027
X26.424 Y82.123
X26.555 Y81.22
X26.703 Y80.321
X26.868 Y79.424
X27.048 Y78.53
X27.245 Y77.64
X27.457 Y76.753
X27.686 Y75.87
X27.93 Y74.992
X28.191 Y74.118
X28.467 Y73.249
X28.758 Y72.385
X29.065 Y71.526
X29.388 Y70.674
X29.726 Y69.827
X30.08 Y68.986
X30.448 Y68.152
X30.832 Y67.325
X31.232 Y66.506
X31.646 Y65.693
X32.075 Y64.889
X32.518 Y64.092
X32.975 Y63.303
X33.447 Y62.523
X33.934 Y61.752
X34.434 Y60.989
X34.947 Y60.236
X35.474 Y59.491
X36.015 Y58.757
X36.569 Y58.033
X37.136 Y57.319
X37.715 Y56.615
X38.307 Y55.921
X38.911 Y55.238
X39.528 Y54.567
X39.765 Y54.32
X40.478 Y53.583
X41.125 Y52.94
X41.783 Y52.309
X42.453 Y51.69
X43.134 Y51.084
X43.825 Y50.49
X44.528 Y49.909
X45.241 Y49.34
X45.964 Y48.785
X46.697 Y48.243
X47.44 Y47.714
X48.192 Y47.198
X48.953 Y46.696
X49.723 Y46.208
X50.503 Y45.735
X51.29 Y45.276
X52.086 Y44.831
X52.89 Y44.4
X53.701 Y43.984
X54.521 Y43.584
X55.347 Y43.198
X56.18 Y42.827
X57.019 Y42.471
X57.865 Y42.131
X58.717 Y41.806
X59.575 Y41.497
X60.438 Y41.203
X61.306 Y40.924
X62.179 Y40.662
X63.057 Y40.415
X63.939 Y40.185
X64.826 Y39.97
X65.715 Y39.771
X66.609 Y39.589
X67.506 Y39.423
X68.405 Y39.274
X69.307 Y39.141
X70.211 Y39.023
X71.118 Y38.922
X72.025 Y38.839
X72.935 Y38.771
X73.845 Y38.72
X74.756 Y38.686
X75.668 Y38.668
X76.58 Y38.667
X77.491 Y38.682
X78.403 Y38.714
X79.313 Y38.762
X80.223 Y38.827
X81.131 Y38.908
X82.038 Y39.006
X82.942 Y39.12
X83.845 Y39.25
X84.745 Y39.397
X85.642 Y39.56
X86.536 Y39.74
X87.426 Y39.936
X88.313 Y40.147
X89.196 Y40.375
X90.074 Y40.619
X90.948 Y40.879
X91.818 Y41.155
X92.682 Y41.446
X93.54 Y41.753
X94.393 Y42.075
X95.24 Y42.414
X96.08 Y42.767
X96.915 Y43.135
X97.742 Y43.519
X98.562 Y43.917
X99.375 Y44.331
X100.18 Y44.759
X100.977 Y45.201
X101.767 Y45.657
X102.547 Y46.128
X103.319 Y46.614
X104.082 Y47.113
X104.836 Y47.626
X105.58 Y48.152
X106.315 Y48.692
X107.04 Y49.246
X107.754 Y49.812
X108.459 Y50.392
X109.152 Y50.983
X109.835 Y51.588
X110.506 Y52.205
X110.754 Y52.441
X111.491 Y53.154
X112.135 Y53.8
X112.766 Y54.457
X113.386 Y55.127
X113.992 Y55.807
X114.587 Y56.499
X115.169 Y57.201
X115.738 Y57.913
X116.294 Y58.636
X116.836 Y59.369
X117.365 Y60.111
X117.882 Y60.863
X118.385 Y61.623
X118.873 Y62.393
X119.347 Y63.172
X119.807 Y63.959
X120.253 Y64.755
X120.685 Y65.558
X121.101 Y66.369
X121.502 Y67.188
X121.888 Y68.014
X122.259 Y68.847
X122.615 Y69.686
X122.956 Y70.532
X123.281 Y71.384
X123.591 Y72.242
X123.886 Y73.104
X124.167 Y73.972
X124.443 Y74.841
X124.726 Y75.708
X125.022 Y76.57
X125.333 Y77.427
X125.653 Y78.281
X125.976 Y79.134
X126.297 Y79.987
X126.61 Y80.843
X126.909 Y81.705
X127.191 Y82.572
X127.451 Y83.446
X127.687 Y84.327
X127.896 Y85.214
X128.078 Y86.108
X128.23 Y87.007
X128.354 Y87.91
X128.45 Y88.817
X128.519 Y89.726
X128.561 Y90.637
X128.578 Y91.549
X128.57 Y92.46
X128.54 Y93.372
X128.487 Y94.282
X128.413 Y95.191
X128.319 Y96.098
X128.205 Y97.002
X128.072 Y97.904
X127.921 Y98.804
X127.752 Y99.7
X127.566 Y100.592
X127.362 Y101.481
X127.142 Y102.366
X126.905 Y103.246
X126.652 Y104.122
X126.384 Y104.994
X126.099 Y105.86
X125.799 Y106.721
X125.484 Y107.577
X125.155 Y108.427
X124.81 Y109.271
X124.451 Y110.109
X124.077 Y110.941
X123.688 Y111.766
X123.286 Y112.584
X122.87 Y113.395
X122.439 Y114.199
X121.995 Y114.996
X121.538 Y115.784
X121.066 Y116.565
X120.581 Y117.337
X120.083 Y118.101
X119.572 Y118.856
X119.048 Y119.601
X118.51 Y120.338
X117.96 Y121.065
X117.397 Y121.782
X116.822 Y122.49
X116.234 Y123.187
X115.934 Y123.53
X115.509 Y124.337
X115.479 Y124.42
X115.452 Y124.492
X114.776 Y125.104
X114.106 Y125.723
X113.437 Y126.342
X112.765 Y126.958
X112.088 Y127.569
X111.405 Y128.173
X110.714 Y128.768
X110.015 Y129.354
X109.307 Y129.928
X108.591 Y130.492
X107.865 Y131.044
X107.13 Y131.584
X106.387 Y132.112
X105.634 Y132.627
X104.873 Y133.129
X104.104 Y133.619
X103.326 Y134.095
X102.54 Y134.557
X101.747 Y135.006
X100.946 Y135.441
X100.137 Y135.862
X99.321 Y136.269
X98.498 Y136.662
X97.668 Y137.04
X96.832 Y137.404
X95.99 Y137.753
X95.142 Y138.088
X94.288 Y138.408
X93.429 Y138.714
X92.565 Y139.004
X91.695 Y139.28
X90.822 Y139.54
X89.943 Y139.785
X89.061 Y140.016
X88.175 Y140.231
X87.285 Y140.43
X86.392 Y140.614
X85.496 Y140.783
X84.597 Y140.936
X83.696 Y141.074
X82.792 Y141.197
X81.887 Y141.303
X80.98 Y141.393
X80.071 Y141.468
X79.161 Y141.527
X78.25 Y141.57
X77.339 Y141.597
X76.427 Y141.609
X75.515 Y141.605
X74.604 Y141.585
X73.692 Y141.549
X72.782 Y141.498
X71.873 Y141.431
X70.965 Y141.348
X70.058 Y141.25
X69.153 Y141.136
X68.251 Y141.006
X67.351 Y140.861
X66.453 Y140.7
X65.559 Y140.524
X64.667 Y140.333
X63.779 Y140.126
X62.895 Y139.904
X62.015 Y139.666
X61.139 Y139.413
X60.267 Y139.144
X59.4 Y138.861
X58.539 Y138.563
X57.682 Y138.249
X56.832 Y137.922
X55.987 Y137.579
X55.148 Y137.222
X54.315 Y136.85
X53.489 Y136.465
X52.669 Y136.065
X51.857 Y135.651
X51.052 Y135.223
X50.254 Y134.781
X49.464 Y134.325
X48.682 Y133.856
X47.909 Y133.374
X47.143 Y132.878
X46.387 Y132.369
X45.639 Y131.847
X44.901 Y131.312
X44.172 Y130.764
X43.453 Y130.204
X42.743 Y129.631
X42.044 Y129.046
X41.355 Y128.448
X40.934 Y128.275
X40.704 Y128.193
X40.634 Y128.167
X40.02 Y127.493
X38.78 Y126.155
X38.162 Y125.484
X37.551 Y124.808
X36.946 Y124.126
X36.35 Y123.436
X35.764 Y122.737
X35.189 Y122.03
X34.625 Y121.313
X34.072 Y120.588
X33.532 Y119.854
X33.003 Y119.11
X32.488 Y118.358
X31.985 Y117.597
X31.496 Y116.828
X31.02 Y116.051
X30.557 Y115.265
X30.108 Y114.471
X29.673 Y113.67
X29.252 Y112.861
X28.845 Y112.045
X28.451 Y111.223
X28.072 Y110.394
X27.708 Y109.558
X27.357 Y108.716
X27.022 Y107.868
X26.701 Y107.015
X26.395 Y106.156
X26.104 Y105.292
X25.828 Y104.423
X25.567 Y103.549
X25.321 Y102.671
X25.09 Y101.789
X24.875 Y100.903
X24.675 Y100.013
X24.491 Y99.12
X24.322 Y98.224
X24.168 Y97.325
X24.03 Y96.424
X23.908 Y95.52
X23.802 Y94.615
X23.711 Y93.707
X23.636 Y92.799
X23.576 Y91.889
X23.532 Y90.978
X23.504 Y90.067
X23.492 Y89.155
X23.495 Y88.243
X23.514 Y87.332
X23.549 Y86.42
X23.599 Y85.51
X23.666 Y84.601
X23.748 Y83.693
X23.846 Y82.786
X23.96 Y81.881
X24.089 Y80.979
X24.234 Y80.079
X24.394 Y79.181
X24.57 Y78.286
X24.762 Y77.395
X24.968 Y76.507
X25.191 Y75.622
X25.428 Y74.742
X25.681 Y73.866
X25.949 Y72.994
X26.231 Y72.127
X26.529 Y71.265
X26.841 Y70.409
X27.168 Y69.558
X27.51 Y68.712
X27.866 Y67.873
X28.237 Y67.04
X28.622 Y66.214
X29.022 Y65.394
X29.436 Y64.582
X29.863 Y63.776
X30.305 Y62.978
X30.76 Y62.188
X31.229 Y61.406
X31.711 Y60.633
X32.207 Y59.867
X32.716 Y59.111
X33.238 Y58.363
X33.773 Y57.625
X34.32 Y56.895
X34.88 Y56.176
X35.452 Y55.466
X36.037 Y54.766
X36.633 Y54.077
X36.813 Y53.657
X36.912 Y53.387
X36.94 Y53.314
X37.615 Y52.702
X38.286 Y52.084
X38.955 Y51.465
X39.627 Y50.848
X40.304 Y50.237
X40.987 Y49.634
X41.678 Y49.039
X42.377 Y48.453
X43.085 Y47.878
X43.801 Y47.314
X44.527 Y46.762
X45.261 Y46.222
X46.005 Y45.694
X46.757 Y45.178
X47.518 Y44.676
X48.287 Y44.186
X49.065 Y43.71
X49.85 Y43.248
X50.644 Y42.799
X51.445 Y42.364
X52.254 Y41.943
X53.07 Y41.536
X53.893 Y41.143
X54.723 Y40.764
X55.559 Y40.4
X56.401 Y40.051
X57.249 Y39.716
X58.103 Y39.396
X58.962 Y39.09
X59.826 Y38.799
X60.695 Y38.524
X61.569 Y38.263
X62.447 Y38.017
X63.329 Y37.787
X64.215 Y37.571
X65.105 Y37.372
X65.998 Y37.187
X66.894 Y37.018
X67.793 Y36.865
X68.694 Y36.727
X69.597 Y36.605
X70.503 Y36.498
X71.41 Y36.408
X72.319 Y36.333
X73.229 Y36.274
X74.14 Y36.231
X75.051 Y36.203
X75.963 Y36.192
X76.875 Y36.196
X77.786 Y36.215
X78.697 Y36.251
X79.608 Y36.302
X80.517 Y36.369
X81.425 Y36.451
X82.332 Y36.549
X83.236 Y36.663
X84.139 Y36.792
X85.039 Y36.937
X85.937 Y37.097
X86.832 Y37.273
X87.723 Y37.465
X88.611 Y37.672
X89.495 Y37.894
X90.376 Y38.132
X91.252 Y38.385
X92.123 Y38.653
X92.99 Y38.936
X93.852 Y39.234
X94.708 Y39.547
X95.559 Y39.875
X96.404 Y40.217
X97.243 Y40.574
X98.076 Y40.945
X98.902 Y41.331
X99.722 Y41.731
X100.534 Y42.145
X101.339 Y42.572
X102.137 Y43.014
X102.927 Y43.469
X103.709 Y43.938
X104.483 Y44.42
X105.248 Y44.916
X106.005 Y45.425
X106.752 Y45.947
X107.491 Y46.482
X108.219 Y47.03
X108.939 Y47.59
X109.648 Y48.163
X110.348 Y48.748
X111.037 Y49.345
X111.458 Y49.519
X111.691 Y49.602
X111.762 Y49.63
X112.377 Y50.304
X113.616 Y51.641
X114.234 Y52.312
X114.845 Y52.988
X115.45 Y53.671
X116.045 Y54.361
X116.631 Y55.06
X117.207 Y55.767
X117.771 Y56.484
X118.323 Y57.209
X118.864 Y57.943
X119.393 Y58.686
X119.909 Y59.438
X120.411 Y60.199
X120.901 Y60.968
X121.378 Y61.745
X121.841 Y62.53
X122.291 Y63.324
X122.726 Y64.125
X123.148 Y64.933
X123.555 Y65.749
X123.948 Y66.572
X124.327 Y67.401
X124.691 Y68.237
X125.04 Y69.079
X125.376 Y69.927
X125.697 Y70.781
X126.005 Y71.639
X126.305 Y72.5
X126.602 Y73.362
X126.902 Y74.223
X127.207 Y75.082
X127.518 Y75.94
X128.145 Y77.652
X128.456 Y78.509
X128.761 Y79.369
X129.055 Y80.232
X129.336 Y81.099
X129.6 Y81.972
X129.846 Y82.85
X130.071 Y83.733
X130.274 Y84.622
X130.454 Y85.516
X130.608 Y86.415
X130.738 Y87.317
X130.842 Y88.223
X130.922 Y89.131
X130.978 Y90.042
X131.011 Y90.953
X131.021 Y91.865
X131.009 Y92.776
X130.976 Y93.687
X130.922 Y94.598
X130.849 Y95.507
X130.756 Y96.414
X130.644 Y97.319
X130.515 Y98.221
X130.368 Y99.121
X130.203 Y100.018
X130.022 Y100.911
X129.824 Y101.802
X129.61 Y102.688
X129.38 Y103.57
X129.134 Y104.448
X128.873 Y105.322
X128.597 Y106.191
X128.306 Y107.055
X128 Y107.914
X127.68 Y108.768
X127.345 Y109.616
X126.996 Y110.458
X126.634 Y111.295
X126.257 Y112.125
X125.867 Y112.95
X125.463 Y113.767
X125.046 Y114.578
X124.616 Y115.382
X124.172 Y116.178
X123.716 Y116.968
X123.246 Y117.749
X122.764 Y118.523
X122.268 Y119.289
X121.761 Y120.046
X121.24 Y120.794
X120.707 Y121.534
X120.161 Y122.265
X119.604 Y122.986
X119.072 Y123.727
X118.546 Y124.472
X117.974 Y125.182
X117.37 Y125.865
X116.747 Y126.53
X116.108 Y127.181
X115.459 Y127.821
X114.799 Y128.451
X114.131 Y129.071
X113.454 Y129.682
X112.768 Y130.283
X112.074 Y130.875
X111.372 Y131.456
X110.661 Y132.026
X109.941 Y132.586
X109.213 Y133.135
X108.476 Y133.673
X107.731 Y134.198
X106.978 Y134.712
X106.216 Y135.213
X105.447 Y135.703
X104.669 Y136.179
X103.884 Y136.643
X103.092 Y137.094
X102.292 Y137.532
X101.485 Y137.956
X100.671 Y138.367
X99.85 Y138.764
X99.023 Y139.148
X98.19 Y139.518
X97.35 Y139.874
X96.505 Y140.216
X95.654 Y140.544
X94.798 Y140.858
X93.937 Y141.158
X93.071 Y141.444
X92.201 Y141.715
X91.326 Y141.972
X90.447 Y142.215
X89.564 Y142.443
X88.678 Y142.657
X87.788 Y142.856
X86.895 Y143.04
X85.999 Y143.21
X85.101 Y143.365
X84.2 Y143.505
X83.296 Y143.63
X82.391 Y143.74
X81.484 Y143.835
X80.576 Y143.915
X79.667 Y143.979
X78.756 Y144.029
X77.845 Y144.063
X76.933 Y144.082
X76.022 Y144.087
X75.11 Y144.076
X74.198 Y144.05
X73.287 Y144.009
X72.377 Y143.953
X71.468 Y143.883
X70.56 Y143.797
X69.654 Y143.696
X68.75 Y143.581
X67.847 Y143.45
X66.947 Y143.305
X66.049 Y143.145
X65.155 Y142.971
X64.263 Y142.781
X63.374 Y142.577
X62.489 Y142.358
X61.608 Y142.124
X60.73 Y141.876
X59.857 Y141.613
X58.989 Y141.335
X58.125 Y141.044
X57.266 Y140.737
X56.412 Y140.417
X55.564 Y140.083
X54.721 Y139.735
X53.884 Y139.373
X53.053 Y138.997
X52.229 Y138.608
X51.411 Y138.205
X50.6 Y137.789
X49.795 Y137.359
X48.998 Y136.916
X48.208 Y136.461
X47.426 Y135.992
X46.652 Y135.511
X45.886 Y135.016
X45.128 Y134.509
X44.378 Y133.99
X43.637 Y133.458
X42.906 Y132.914
X42.183 Y132.358
X41.445 Y131.823
X40.7 Y131.297
X39.988 Y130.728
X39.302 Y130.127
X38.636 Y129.505
X37.983 Y128.868
X37.342 Y128.219
X36.711 Y127.561
X36.089 Y126.894
X35.477 Y126.218
X34.875 Y125.534
X34.282 Y124.841
X33.7 Y124.139
X33.128 Y123.429
X32.567 Y122.711
X32.017 Y121.983
X31.478 Y121.248
X30.951 Y120.503
X30.436 Y119.751
X29.934 Y118.99
X29.444 Y118.221
X28.966 Y117.444
X28.501 Y116.66
X28.049 Y115.868
X27.61 Y115.069
X27.185 Y114.262
X26.773 Y113.449
X26.374 Y112.629
X25.989 Y111.802
X25.618 Y110.97
X25.26 Y110.131
X24.916 Y109.286
X24.587 Y108.436
X24.271 Y107.581
X23.97 Y106.72
X23.682 Y105.855
X23.409 Y104.985
X23.151 Y104.11
X22.907 Y103.232
X22.677 Y102.349
X22.463 Y101.463
X22.262 Y100.574
X22.077 Y99.681
X21.906 Y98.785
X21.75 Y97.887
X21.608 Y96.986
X21.482 Y96.083
X21.371 Y95.178
X21.275 Y94.271
X21.194 Y93.363
X21.127 Y92.454
X21.076 Y91.543
X21.04 Y90.632
X21.019 Y89.721
X21.013 Y88.809
X21.022 Y87.897
X21.046 Y86.986
X21.086 Y86.075
X21.14 Y85.165
X21.209 Y84.255
X21.293 Y83.347
X21.393 Y82.441
X21.507 Y81.536
X21.636 Y80.634
X21.78 Y79.733
X21.939 Y78.836
X22.112 Y77.94
X22.301 Y77.048
X22.504 Y76.159
X22.721 Y75.274
X22.954 Y74.392
X23.201 Y73.515
X23.462 Y72.641
X23.738 Y71.772
X24.029 Y70.908
X24.333 Y70.048
X24.652 Y69.194
X24.984 Y68.345
X25.331 Y67.501
X25.691 Y66.664
X26.066 Y65.832
X26.454 Y65.007
X26.855 Y64.189
X27.27 Y63.377
X27.699 Y62.572
X28.14 Y61.774
X28.595 Y60.984
X29.062 Y60.201
X29.543 Y59.426
X30.036 Y58.659
X30.542 Y57.9
X31.06 Y57.15
X31.591 Y56.409
X32.134 Y55.676
X32.689 Y54.953
X33.229 Y54.218
X33.749 Y53.469
X34.313 Y52.753
X34.911 Y52.064
X35.531 Y51.396
X36.167 Y50.743
X36.815 Y50.101
X37.473 Y49.47
X38.14 Y48.848
X38.815 Y48.235
X39.499 Y47.632
X40.192 Y47.039
X40.892 Y46.456
X41.602 Y45.883
X42.32 Y45.321
X43.046 Y44.77
X43.781 Y44.23
X44.524 Y43.702
X45.276 Y43.186
X46.036 Y42.682
X46.804 Y42.19
X47.58 Y41.711
X48.363 Y41.245
X49.154 Y40.791
X49.953 Y40.352
X50.759 Y39.925
X51.572 Y39.512
X52.391 Y39.112
X53.217 Y38.726
X54.05 Y38.353
X54.888 Y37.995
X55.732 Y37.65
X56.582 Y37.319
X57.437 Y37.002
X58.297 Y36.699
X59.162 Y36.411
X60.031 Y36.136
X60.905 Y35.876
X61.783 Y35.63
X62.665 Y35.399
X63.551 Y35.183
X64.44 Y34.981
X65.332 Y34.793
X66.228 Y34.621
X67.126 Y34.463
X68.026 Y34.32
X68.929 Y34.193
X69.834 Y34.08
X70.741 Y33.983
X71.649 Y33.9
X72.558 Y33.833
X73.468 Y33.781
X74.379 Y33.743
X75.291 Y33.721
X76.203 Y33.714
X77.115 Y33.722
X78.026 Y33.744
X78.937 Y33.782
X79.847 Y33.835
X80.757 Y33.903
X81.665 Y33.985
X82.571 Y34.083
X83.476 Y34.195
X84.379 Y34.323
X85.28 Y34.465
X86.178 Y34.622
X87.073 Y34.794
X87.966 Y34.981
X88.855 Y35.182
X89.741 Y35.399
X90.623 Y35.63
X91.501 Y35.876
X92.375 Y36.136
X93.244 Y36.411
X94.109 Y36.7
X94.969 Y37.003
X95.824 Y37.321
X96.673 Y37.652
X97.517 Y37.998
X98.355 Y38.357
X99.187 Y38.73
X100.013 Y39.116
X100.832 Y39.516
X101.645 Y39.93
X102.451 Y40.357
X103.249 Y40.797
X104.04 Y41.25
X104.824 Y41.716
X105.6 Y42.195
X106.368 Y42.687
X107.127 Y43.191
X107.878 Y43.709
X108.62 Y44.238
X109.353 Y44.78
X110.078 Y45.334
X110.809 Y45.88
X111.557 Y46.4
X112.276 Y46.961
X112.966 Y47.557
X113.636 Y48.175
X114.292 Y48.809
X114.935 Y49.456
X115.568 Y50.112
X116.191 Y50.778
X116.805 Y51.452
X117.409 Y52.135
X118.003 Y52.826
X118.588 Y53.526
X119.162 Y54.234
X119.725 Y54.951
X120.278 Y55.677
X120.819 Y56.411
X121.348 Y57.153
X121.865 Y57.904
X122.371 Y58.663
X122.864 Y59.43
X123.344 Y60.205
X123.812 Y60.988
X124.266 Y61.778
X124.707 Y62.576
X125.135 Y63.381
X125.55 Y64.194
X125.951 Y65.013
X126.338 Y65.838
X126.712 Y66.67
X127.072 Y67.507
X127.418 Y68.351
X127.752 Y69.199
X128.076 Y70.052
X128.392 Y70.907
X128.705 Y71.763
X129.327 Y73.478
X129.951 Y75.191
X130.195 Y75.865
X130.218 Y75.933
X130.238 Y76.003
X130.254 Y76.073
X131.013 Y79.791
X131.044 Y79.998
X131.102 Y80.412
X131.129 Y80.619
X131.531 Y83.931
X131.552 Y84.138
X131.589 Y84.552
X131.605 Y84.759
X131.772 Y88.9
X131.605 Y93.04
X131.589 Y93.247
X131.552 Y93.661
X131.531 Y93.868
X131.129 Y97.181
X131.097 Y97.426
X131.044 Y97.802
X131.013 Y98.009
X130.168 Y102.149
X130.061 Y102.529
X129.932 Y102.977
X128.973 Y106.29
X128.903 Y106.497
X128.753 Y106.911
X128.678 Y107.118
X127.421 Y110.43
X127.368 Y110.566
X127.245 Y110.844
X127.151 Y111.051
X125.48 Y114.571
X125.377 Y114.778
X123.432 Y118.147
X123.341 Y118.297
X123.017 Y118.818
X122.951 Y118.918
X120.946 Y121.823
X120.739 Y122.113
X120.532 Y122.4
X120.502 Y122.438
X118.135 Y125.336
X117.782 Y125.75
X117.631 Y125.923
X115.014 Y128.648
X114.81 Y128.855
X114.603 Y129.063
X111.564 Y131.754
X111.417 Y131.879
X111.21 Y132.045
X111.052 Y132.168
X108.297 Y134.238
X107.895 Y134.531
X107.688 Y134.681
X107.481 Y134.817
X104.14 Y136.929
X103.959 Y137.038
X103.752 Y137.15
X100.622 Y138.793
X100.023 Y139.101
X99.816 Y139.196
X96.501 Y140.607
X95.874 Y140.863
X95.673 Y140.939
X92.358 Y142.045
X91.944 Y142.18
X91.737 Y142.246
X91.523 Y142.312
X87.324 Y143.347
X86.972 Y143.405
X83.036 Y144.045
X82.622 Y144.087
X82.415 Y144.107
X78.989 Y144.382
X78.479 Y144.415
X78.272 Y144.427
X74.128
X73.921 Y144.415
X73.411 Y144.382
X69.985 Y144.107
X69.778 Y144.087
X69.364 Y144.045
X65.221 Y143.372
X65.076 Y143.347
X60.87 Y142.31
X60.663 Y142.246
X60.225 Y142.105
X60.042 Y142.045
X56.727 Y140.939
X56.52 Y140.861
X55.899 Y140.607
X52.584 Y139.196
X52.377 Y139.101
X51.755 Y138.781
X48.622 Y137.136
X48.441 Y137.038
X48.234 Y136.913
X44.919 Y134.817
X44.712 Y134.681
X44.298 Y134.38
X44.091 Y134.229
X41.348 Y132.168
X41.19 Y132.045
X40.983 Y131.879
X40.836 Y131.754
X37.798 Y129.063
X37.59 Y128.855
X37.386 Y128.648
X34.769 Y125.923
X34.561 Y125.684
X34.265 Y125.336
X31.898 Y122.438
X31.868 Y122.401
X31.597 Y122.024
X31.45 Y121.817
X29.449 Y118.918
X29.383 Y118.818
X29.059 Y118.297
X28.968 Y118.147
X27.023 Y114.778
X26.92 Y114.571
X25.239 Y111.03
X25.156 Y110.844
X25.032 Y110.566
X24.979 Y110.43
X23.723 Y107.118
X23.572 Y106.704
X23.498 Y106.497
X23.427 Y106.29
X22.408 Y102.77
X22.29 Y102.356
X22.232 Y102.149
X21.387 Y98.009
X21.356 Y97.802
X21.298 Y97.388
X21.27 Y97.181
X20.868 Y93.868
X20.847 Y93.661
X20.811 Y93.247
X20.794 Y93.04
X20.628 Y88.9
X20.794 Y84.759
X20.811 Y84.552
X20.847 Y84.138
X20.868 Y83.931
X21.27 Y80.619
X21.303 Y80.372
X21.356 Y79.998
X21.387 Y79.791
X22.232 Y75.65
X22.339 Y75.271
X22.468 Y74.822
X23.427 Y71.51
X23.498 Y71.303
X23.647 Y70.889
X23.723 Y70.682
X24.979 Y67.369
X25.032 Y67.234
X25.156 Y66.955
X25.25 Y66.748
X26.92 Y63.229
X27.023 Y63.022
X28.968 Y59.653
X29.059 Y59.502
X29.383 Y58.982
X29.45 Y58.881
X31.454 Y55.977
X31.661 Y55.688
X31.868 Y55.4
X31.898 Y55.362
X34.265 Y52.464
X34.618 Y52.049
X34.769 Y51.877
X37.387 Y49.151
X37.591 Y48.944
X37.798 Y48.737
X40.836 Y46.046
X40.983 Y45.921
X41.19 Y45.755
X41.348 Y45.632
X44.103 Y43.561
X44.505 Y43.269
X44.712 Y43.119
X44.919 Y42.983
X48.261 Y40.87
X48.441 Y40.763
X48.648 Y40.65
X51.779 Y39.007
X52.377 Y38.7
X52.584 Y38.605
X55.899 Y37.192
X56.526 Y36.937
X56.727 Y36.861
X60.042 Y35.754
X60.456 Y35.62
X60.663 Y35.553
X60.877 Y35.488
X65.078 Y34.452
X65.428 Y34.395
X69.364 Y33.755
X69.778 Y33.713
X69.985 Y33.694
X73.413 Y33.417
X73.921 Y33.385
X74.128 Y33.373
X78.272
X78.479 Y33.385
X78.987 Y33.417
X82.415 Y33.694
X82.622 Y33.713
X83.036 Y33.755
X87.179 Y34.429
X87.322 Y34.452
X91.53 Y35.489
X91.737 Y35.553
X92.175 Y35.695
X92.358 Y35.754
X95.673 Y36.861
X95.88 Y36.939
X96.501 Y37.192
X99.816 Y38.605
X100.023 Y38.699
X100.645 Y39.019
X103.777 Y40.663
X103.959 Y40.763
X104.166 Y40.887
X107.481 Y42.983
X107.688 Y43.119
X108.102 Y43.419
X108.309 Y43.571
X111.051 Y45.632
X111.21 Y45.755
X111.417 Y45.921
X111.564 Y46.046
X114.602 Y48.737
X114.809 Y48.944
X115.014 Y49.151
X117.631 Y51.877
X117.839 Y52.116
X118.135 Y52.464
X120.501 Y55.362
X120.532 Y55.4
X120.802 Y55.776
X120.95 Y55.983
X122.95 Y58.881
X123.017 Y58.982
X123.341 Y59.502
X123.432 Y59.653
X125.377 Y63.022
X125.481 Y63.229
X127.161 Y66.77
X127.244 Y66.955
X127.368 Y67.234
X127.421 Y67.369
X128.678 Y70.682
X128.828 Y71.096
X128.903 Y71.303
X128.973 Y71.51
X129.992 Y75.029
X130.11 Y75.443
X130.168 Y75.65
X130.254 Y76.073
G3 X129.933 Y76.736 I-0.626 J0.105 F1524
G1 X129.845 Y76.783 Z-4.755
X129.76 Y76.83 Z-4.731
X129.68 Y76.874 Z-4.693
X129.605 Y76.915 Z-4.641
X129.539 Y76.951 Z-4.577
X129.482 Y76.982 Z-4.501
X129.436 Y77.007 Z-4.416
X129.403 Y77.026 Z-4.324
X129.382 Y77.037 Z-4.227
X129.375 Y77.04 Z-4.128
Z16 F2032
G28 G91 Z0
G90
G28 G91 X0 Y0
G90
M5
M30
