(Rear Screws)
(Machine)
(  model: Shapeoko 3)
(  description: Shapeoko 3)
(T1  D=3.175 CR=0 - ZMIN=-12.7 - flat end mill)
G90 G94
G17
G21
G28 G91 Z0
G90

(Rear Screws)
T1
S19700 M3
G54
G0 X63.5 Y152.4
Z16
Z6
Z5
G1 Z-12.7 F762
G0 Z6
X85.465 Y81.062
Z1.031
G1 Z-12.7 F762
G0 Z6
X40.574 Y80.102
Z1.031
G1 Z-12.7 F762
G0 Z6
X63.5 Y58.137
Z5
G1 Z-12.7 F762
G0 Z6
X86.426 Y36.171
Z1.031
G1 Z-12.7 F762
G0 Z6
X41.535 Y35.211
Z1.031
G1 Z-12.7 F762
G0 Z6
Z16
G28 G91 Z0
G90
G28 G91 X0 Y0
G90
M5
M30
