(Rear Inserts)
(Machine)
(  model: Shapeoko 3)
(  description: Shapeoko 3)
(T1  D=6.35 CR=0 - ZMIN=-12.7 - flat end mill)
G90 G94
G17
G21
(When using Fusion 360 for Personal Use, the feedrate of)
(rapid moves is reduced to match the feedrate of cutting)
(moves, which can increase machining time. Unrestricted rapid)
(moves are available with a Fusion 360 Subscription.)
G28 G91 Z0
G90

(2D Contour12)
T1
(Whiteside Spiral Up Cut)
S17000 M3
G54
G0 X80.645 Y151.765
Z16
G1 Z6 F2032
Z-2.365 F762
G18 G2 X81.28 Z-3 I0.635 K0 F1524
G1 X81.915
G17 G3 X82.55 Y152.4 I0 J0.635
X44.45 Y152.4 I-19.05 J0 F2032
X82.55 Y152.4 I19.05 J0
X81.915 Y153.035 I-0.635 J0 F1524
G1 X81.28
G18 G3 X80.645 Z-2.365 I0 K0.635
G1 Z6 F2032
Y151.765
Z2 F762
Z-6.365
G2 X81.28 Z-7 I0.635 K0 F1524
G1 X81.915
G17 G3 X82.55 Y152.4 I0 J0.635
X44.45 Y152.4 I-19.05 J0 F2032
X82.55 Y152.4 I19.05 J0
X81.915 Y153.035 I-0.635 J0 F1524
G1 X81.28
G18 G3 X80.645 Z-6.365 I0 K0.635
G1 Z6 F2032
Y151.765
Z-2 F762
Z-10.365
G2 X81.28 Z-11 I0.635 K0 F1524
G1 X81.915
G17 G3 X82.55 Y152.4 I0 J0.635
X44.45 Y152.4 I-19.05 J0 F2032
X82.55 Y152.4 I19.05 J0
X81.915 Y153.035 I-0.635 J0 F1524
G1 X81.28
G18 G3 X80.645 Z-10.365 I0 K0.635
G1 Z6 F2032
Y151.765
Z-6 F762
Z-12.065
G2 X81.28 Z-12.7 I0.635 K0 F1524
G1 X81.915
G17 G3 X82.55 Y152.4 I0 J0.635
X44.45 Y152.4 I-19.05 J0 F2032
X82.55 Y152.4 I19.05 J0
X81.915 Y153.035 I-0.635 J0 F1524
G1 X81.28
G18 G3 X80.645 Z-12.065 I0 K0.635
G1 Z16 F2032
G17
(When using Fusion 360 for Personal Use, the feedrate of)
(rapid moves is reduced to match the feedrate of cutting)
(moves, which can increase machining time. Unrestricted rapid)
(moves are available with a Fusion 360 Subscription.)

(2D Adaptive13)
G0 X51.322 Y160.997
G1 Z16 F2032
Z-1.73
Z-2.365 F1524
X51.317 Y161.004 Z-2.464
X51.303 Y161.022 Z-2.561
X51.279 Y161.052 Z-2.653
X51.248 Y161.093 Z-2.738
X51.208 Y161.144 Z-2.814
X51.161 Y161.204 Z-2.879
X51.109 Y161.271 Z-2.931
X51.053 Y161.344 Z-2.969
X50.993 Y161.42 Z-2.992
X50.932 Y161.499 Z-3
G3 X48.503 Y164.008 I-12.793 J-9.957
G1 X48.384 Y164.099 F2032
G3 X47.293 Y163.959 I-0.311 J-1.892
X46.132 Y163.276 I1.409 J-3.724
G1 X45.709 Y162.91
X45.318 Y162.511
X44.925 Y162.04
G3 X43.259 Y158.979 I9.473 J-7.14
X42.113 Y152.732 I17.361 J-6.415
X46.677 Y139.175 I21.228 J-0.399
X66.018 Y131.143 I16.825 J13.212
X76.969 Y169.037 I-2.522 J21.258
X49.297 Y168.418 I-13.47 J-16.656
G1 X48.576 Y167.861
X47.811 Y167.364
X47.038 Y166.881
G3 X44.168 Y164.643 I8.056 J-13.297
X41.574 Y160.918 I9.913 J-9.667
X39.864 Y154.799 I17.154 J-8.093
G1 X39.773 Y153.892
X39.725 Y152.982
X39.716 Y152.07
G3 X75.946 Y132.115 I23.779 J0.308
X74.577 Y173.466 I-12.441 J20.286
X49.535 Y171.678 I-11.08 J-21.08
G2 X45.777 Y169.096 I-87.487 J123.29
G3 X42.32 Y166.136 I12.597 J-18.217
X38.611 Y159.913 I13.122 J-12.038
X37.327 Y152.766 I21.053 J-7.471
X48.479 Y130.931 I26.008 J-0.482
X71.963 Y127.593 I15.022 J21.404
X84.025 Y168.706 I-8.467 J24.81
X49.537 Y174.588 I-20.53 J-16.325
X44.231 Y171.043 I50.178 J-80.852
X40.202 Y167.357 I14.967 J-20.407
X35.687 Y158.501 I16.38 J-13.928
X35.449 Y146.75 I25.617 J-6.399
X52.757 Y125.865 I27.986 J5.579
X91.535 Y146.603 I10.751 J26.521
X64.162 Y181.021 I-28.023 J5.807
X49.315 Y177.276 I-0.682 J-28.607
X42.453 Y172.788 I28.651 J-51.295
X37.893 Y168.341 I17.01 J-22.003
X32.866 Y156.759 I19.508 J-15.348
X32.601 Y149.49 I27.846 J-4.658
X67.766 Y121.636 I30.876 J2.857
X94.051 Y158.008 I-4.258 J30.761
X56.561 Y182.676 I-30.55 J-5.606
X48.088 Y179.393 I7.18 J-31.1
X40.492 Y174.371 I24.186 J-44.843
X35.449 Y169.125 I19.035 J-23.346
X30.906 Y159.3 I22.088 J-16.175
X30.351 Y155.817 I59.238 J-11.226
G1 X30.308 Y155.196
X30.172 Y152.504
Y152.296
X30.308 Y149.604
X30.352 Y148.983
X30.376 Y148.776
X30.757 Y146.291
X30.789 Y146.083
X30.913 Y145.462
X30.962 Y145.255
X31.641 Y142.63
G3 X32.971 Y139.042 I54.059 J17.999
G1 X34.331 Y136.273
G3 X36.193 Y133.298 I124.736 J75.97
X38.26 Y130.63 I167.303 J127.538
G1 X40.33 Y128.456
G3 X43.163 Y125.996 I46.132 J50.265
G1 X45.544 Y124.338
X45.916 Y124.09
X46.122 Y123.971
X48.605 Y122.593
X48.812 Y122.484
X49.432 Y122.21
X51.501 Y121.322
X51.736 Y121.232
X52.122 Y121.088
X52.295 Y121.024
X55.018 Y120.17
G3 X58.535 Y119.447 I21.298 J94.603
G1 X58.742 Y119.422
X61.306 Y119.161
X61.431 Y119.15
X62.052 Y119.112
X62.259 Y119.109
X64.741
X64.948 Y119.112
X65.568 Y119.15
X65.694 Y119.161
X68.258 Y119.422
X68.465 Y119.447
X69.148 Y119.575
X71.568 Y120.072
X71.775 Y120.115
X71.982 Y120.17
X74.705 Y121.024
X74.878 Y121.088
X75.291 Y121.242
X75.498 Y121.322
X77.567 Y122.21
X78.188 Y122.484
X78.395 Y122.592
X80.877 Y123.97
X81.084 Y124.089
X81.498 Y124.366
X83.837 Y125.995
G3 X86.671 Y128.454 I-42.039 J51.307
G1 X88.738 Y130.631
G3 X90.918 Y133.449 I-105.797 J84.101
G1 X92.255 Y135.597
X92.59 Y136.143
X92.669 Y136.273
X94.028 Y139.042
G3 X95.359 Y142.628 I-53.082 J21.748
G1 X96.038 Y145.255
X96.087 Y145.462
G3 X96.649 Y148.983 I-59.443 J11.292
G1 X96.691 Y149.604
X96.828 Y152.296
Y152.504
X96.691 Y155.196
X96.648 Y155.817
X96.624 Y156.024
X96.243 Y158.509
X96.211 Y158.717
X96.087 Y159.338
X96.039 Y159.545
X95.358 Y162.173
G3 X94.029 Y165.758 I-54.214 J-18.065
G1 X92.669 Y168.527
G3 X90.807 Y171.503 I-125.504 J-76.454
X88.74 Y174.17 I-167.538 J-127.733
G1 X86.669 Y176.345
G3 X83.837 Y178.804 I-46.167 J-50.309
G1 X81.456 Y180.462
X81.084 Y180.711
X80.877 Y180.83
X78.395 Y182.208
X78.188 Y182.316
X77.567 Y182.59
X75.498 Y183.478
X75.264 Y183.568
X74.878 Y183.712
X74.705 Y183.776
X71.982 Y184.63
G3 X68.465 Y185.353 I-21.301 J-94.626
G1 X68.258 Y185.378
X65.694 Y185.639
X65.568 Y185.65
X64.948 Y185.688
X64.741 Y185.691
X62.259
X62.052 Y185.688
X61.431 Y185.65
X61.306 Y185.639
X58.742 Y185.378
X58.535 Y185.352
X57.852 Y185.225
X55.432 Y184.728
X55.225 Y184.685
X55.018 Y184.63
X52.295 Y183.776
X52.122 Y183.712
X51.708 Y183.558
X51.501 Y183.478
X49.432 Y182.59
X48.812 Y182.316
X48.605 Y182.207
X46.122 Y180.829
X45.916 Y180.71
X45.502 Y180.433
X43.163 Y178.805
G3 X40.329 Y176.346 I41.975 J-51.231
G1 X38.261 Y174.168
G3 X36.082 Y171.351 I106.256 J-84.452
G1 X34.744 Y169.202
X34.41 Y168.657
X34.331 Y168.527
X32.972 Y165.758
G3 X31.641 Y162.171 I52.852 J-21.665
G1 X30.961 Y159.545
X30.913 Y159.338
X30.905 Y159.301
X30.898 Y159.226 F1524
X30.899 Y159.151
X30.918 Y159.077 Z-2.995
X30.937 Y159.005 Z-2.982
X30.955 Y158.934 Z-2.959
X31.001 Y158.868 Z-2.921
X31.043 Y158.806 Z-2.873
X31.082 Y158.751 Z-2.814
X31.134 Y158.712 Z-2.738
X31.175 Y158.681 Z-2.653
X31.205 Y158.658 Z-2.561
X31.224 Y158.644 Z-2.465
X31.23 Y158.64 Z-2.365
Z6 F2032
X51.322 Y160.997
Z-2.699
Z-3.334 F1524
X51.317 Y161.004 Z-3.433
X51.303 Y161.022 Z-3.53
X51.28 Y161.052 Z-3.622
X51.248 Y161.093 Z-3.707
X51.208 Y161.144 Z-3.783
X51.161 Y161.204 Z-3.847
X51.109 Y161.271 Z-3.9
X51.053 Y161.344 Z-3.938
X50.993 Y161.42 Z-3.961
X50.932 Y161.499 Z-3.969
G3 X48.503 Y164.008 I-12.793 J-9.957
G1 X48.384 Y164.099 F2032
G3 X47.293 Y163.959 I-0.311 J-1.892
X46.132 Y163.276 I1.409 J-3.723
G1 X45.709 Y162.91
X45.318 Y162.511
X44.925 Y162.04
G3 X43.259 Y158.979 I9.472 J-7.139
X42.113 Y152.732 I17.361 J-6.416
X46.677 Y139.176 I21.228 J-0.4
X66.018 Y131.143 I16.825 J13.211
X76.969 Y169.037 I-2.522 J21.258
X49.298 Y168.419 I-13.47 J-16.656
G1 X48.576 Y167.862
X47.812 Y167.364
X47.039 Y166.881
G3 X44.168 Y164.644 I8.057 J-13.299
X41.574 Y160.918 I9.913 J-9.667
X39.864 Y154.8 I17.154 J-8.093
G1 X39.773 Y153.893
X39.725 Y152.982
X39.716 Y152.07
G3 X75.945 Y132.115 I23.779 J0.307
X74.578 Y173.465 I-12.44 J20.286
X49.535 Y171.678 I-11.081 J-21.08
G2 X45.778 Y169.096 I-87.459 J123.25
G3 X42.32 Y166.137 I12.598 J-18.219
X38.611 Y159.914 I13.122 J-12.038
X37.327 Y152.766 I21.053 J-7.471
X48.479 Y130.931 I26.008 J-0.482
X71.963 Y127.592 I15.022 J21.404
X84.025 Y168.706 I-8.467 J24.81
X49.538 Y174.588 I-20.53 J-16.325
X44.231 Y171.043 I50.19 J-80.87
X40.202 Y167.357 I14.967 J-20.408
X35.687 Y158.502 I16.379 J-13.929
X35.449 Y146.75 I25.617 J-6.399
X52.757 Y125.865 I27.986 J5.579
X91.535 Y146.602 I10.752 J26.521
X64.163 Y181.021 I-28.023 J5.807
X49.315 Y177.277 I-0.682 J-28.606
X42.453 Y172.788 I28.653 J-51.298
X37.893 Y168.342 I17.011 J-22.004
X32.867 Y156.759 I19.508 J-15.348
X32.601 Y149.49 I27.846 J-4.658
X67.765 Y121.636 I30.876 J2.857
X94.051 Y158.008 I-4.258 J30.761
X56.562 Y182.677 I-30.55 J-5.606
X48.089 Y179.393 I7.18 J-31.1
X40.492 Y174.371 I24.187 J-44.845
X35.449 Y169.125 I19.034 J-23.346
X30.906 Y159.3 I22.088 J-16.176
X30.351 Y155.817 I59.232 J-11.225
G1 X30.308 Y155.196
X30.172 Y152.504
Y152.296
X30.308 Y149.604
X30.352 Y148.983
X30.376 Y148.776
X30.757 Y146.291
X30.789 Y146.083
X30.913 Y145.462
X30.962 Y145.255
X31.641 Y142.63
G3 X32.971 Y139.042 I54.059 J17.999
G1 X34.331 Y136.273
G3 X36.193 Y133.298 I124.736 J75.97
X38.26 Y130.63 I167.303 J127.538
G1 X40.33 Y128.456
G3 X43.163 Y125.996 I46.132 J50.265
G1 X45.544 Y124.338
X45.916 Y124.09
X46.122 Y123.971
X48.605 Y122.593
X48.812 Y122.484
X49.432 Y122.21
X51.501 Y121.322
X51.736 Y121.232
X52.122 Y121.088
X52.295 Y121.024
X55.018 Y120.17
G3 X58.535 Y119.447 I21.298 J94.603
G1 X58.742 Y119.422
X61.306 Y119.161
X61.431 Y119.15
X62.052 Y119.112
X62.259 Y119.109
X64.741
X64.948 Y119.112
X65.568 Y119.15
X65.694 Y119.161
X68.258 Y119.422
X68.465 Y119.447
X69.148 Y119.575
X71.568 Y120.072
X71.775 Y120.115
X71.982 Y120.17
X74.705 Y121.024
X74.878 Y121.088
X75.291 Y121.242
X75.498 Y121.322
X77.567 Y122.21
X78.188 Y122.484
X78.395 Y122.592
X80.877 Y123.97
X81.084 Y124.089
X81.498 Y124.366
X83.837 Y125.995
G3 X86.671 Y128.454 I-42.039 J51.307
G1 X88.738 Y130.631
G3 X90.918 Y133.449 I-105.797 J84.101
G1 X92.255 Y135.597
X92.59 Y136.143
X92.669 Y136.273
X94.028 Y139.042
G3 X95.359 Y142.628 I-53.082 J21.748
G1 X96.038 Y145.255
X96.087 Y145.462
G3 X96.649 Y148.983 I-59.443 J11.292
G1 X96.691 Y149.604
X96.828 Y152.296
Y152.504
X96.691 Y155.196
X96.648 Y155.817
X96.624 Y156.024
X96.243 Y158.509
X96.211 Y158.717
X96.087 Y159.338
X96.039 Y159.545
X95.358 Y162.173
G3 X94.029 Y165.758 I-54.214 J-18.065
G1 X92.669 Y168.527
G3 X90.807 Y171.503 I-125.504 J-76.454
X88.74 Y174.17 I-167.538 J-127.733
G1 X86.669 Y176.345
G3 X83.837 Y178.804 I-46.167 J-50.309
G1 X81.456 Y180.462
X81.084 Y180.711
X80.877 Y180.83
X78.395 Y182.208
X78.188 Y182.316
X77.567 Y182.59
X75.498 Y183.478
X75.264 Y183.568
X74.878 Y183.712
X74.705 Y183.776
X71.982 Y184.63
G3 X68.465 Y185.353 I-21.301 J-94.626
G1 X68.258 Y185.378
X65.694 Y185.639
X65.568 Y185.65
X64.948 Y185.688
X64.741 Y185.691
X62.259
X62.052 Y185.688
X61.431 Y185.65
X61.306 Y185.639
X58.742 Y185.378
X58.535 Y185.352
X57.852 Y185.225
X55.432 Y184.728
X55.225 Y184.685
X55.018 Y184.63
X52.295 Y183.776
X52.122 Y183.712
X51.708 Y183.558
X51.501 Y183.478
X49.432 Y182.59
X48.812 Y182.316
X48.605 Y182.207
X46.122 Y180.829
X45.916 Y180.71
X45.502 Y180.433
X43.163 Y178.805
G3 X40.329 Y176.346 I41.975 J-51.231
G1 X38.261 Y174.168
G3 X36.082 Y171.351 I106.256 J-84.452
G1 X34.744 Y169.202
X34.41 Y168.657
X34.331 Y168.527
X32.972 Y165.758
G3 X31.641 Y162.171 I52.852 J-21.665
G1 X30.961 Y159.545
X30.913 Y159.338
X30.906 Y159.301
G3 X31.23 Y158.64 I0.627 J-0.102 F1524
G1 X31.318 Y158.593 Z-3.961
X31.403 Y158.546 Z-3.938
X31.484 Y158.503 Z-3.9
X31.559 Y158.462 Z-3.847
X31.625 Y158.426 Z-3.783
X31.682 Y158.396 Z-3.707
X31.728 Y158.371 Z-3.622
X31.762 Y158.353 Z-3.53
X31.782 Y158.342 Z-3.433
X31.789 Y158.338 Z-3.334
Z16 F2032
(When using Fusion 360 for Personal Use, the feedrate of)
(rapid moves is reduced to match the feedrate of cutting)
(moves, which can increase machining time. Unrestricted rapid)
(moves are available with a Fusion 360 Subscription.)

(2D Contour13)
G0 X83.82 Y57.501
G1 Z16 F2032
Z6
Z-2.365 F762
G18 G2 X84.455 Z-3 I0.635 K0 F1524
G1 X85.09
G17 G3 X85.725 Y58.137 I0 J0.635
X41.275 Y58.137 I-22.225 J0 F2032
X85.725 Y58.137 I22.225 J0
X85.09 Y58.771 I-0.635 J0 F1524
G1 X84.455
G18 G3 X83.82 Z-2.365 I0 K0.635
G1 Z6 F2032
Y57.501
Z2 F762
Z-6.365
G2 X84.455 Z-7 I0.635 K0 F1524
G1 X85.09
G17 G3 X85.725 Y58.137 I0 J0.635
X41.275 Y58.137 I-22.225 J0 F2032
X85.725 Y58.137 I22.225 J0
X85.09 Y58.771 I-0.635 J0 F1524
G1 X84.455
G18 G3 X83.82 Z-6.365 I0 K0.635
G1 Z6 F2032
Y57.501
Z-2 F762
Z-10.365
G2 X84.455 Z-11 I0.635 K0 F1524
G1 X85.09
G17 G3 X85.725 Y58.137 I0 J0.635
X41.275 Y58.137 I-22.225 J0 F2032
X85.725 Y58.137 I22.225 J0
X85.09 Y58.771 I-0.635 J0 F1524
G1 X84.455
G18 G3 X83.82 Z-10.365 I0 K0.635
G1 Z6 F2032
Y57.501
Z-6 F762
Z-12.065
G2 X84.455 Z-12.7 I0.635 K0 F1524
G1 X85.09
G17 G3 X85.725 Y58.137 I0 J0.635
X41.275 Y58.137 I-22.225 J0 F2032
X85.725 Y58.137 I22.225 J0
X85.09 Y58.771 I-0.635 J0 F1524
G1 X84.455
G18 G3 X83.82 Z-12.065 I0 K0.635
G1 Z16 F2032
G17
(When using Fusion 360 for Personal Use, the feedrate of)
(rapid moves is reduced to match the feedrate of cutting)
(moves, which can increase machining time. Unrestricted rapid)
(moves are available with a Fusion 360 Subscription.)

(2D Adaptive14)
G0 X74.397 Y43.627
G1 Z16 F2032
Z-1.73
Z-2.365 F1524
X74.4 Y43.619 Z-2.464
X74.408 Y43.598 Z-2.561
X74.421 Y43.562 Z-2.653
X74.439 Y43.513 Z-2.738
X74.462 Y43.452 Z-2.814
X74.488 Y43.381 Z-2.879
X74.518 Y43.302 Z-2.931
X74.55 Y43.216 Z-2.969
X74.584 Y43.125 Z-2.992
X74.619 Y43.032 Z-3
G3 X76.186 Y39.91 I15.188 J5.67
G1 X76.271 Y39.787 F2032
G3 X77.702 Y39.664 I0.917 J2.284
G1 X78.036 Y39.727
G3 X80.017 Y40.599 I-1.795 J6.765
G1 X80.647 Y41.031
G3 X83.226 Y43.596 I-8.469 J11.094
X86.697 Y49.975 I-17.371 J13.588
X75.303 Y79.716 I-23.175 J8.175
X38.915 Y58.936 I-11.806 J-21.577
X73.877 Y35.833 I24.585 J-0.801
G1 X74.719 Y36.184
X75.591 Y36.449
G3 X79.075 Y37.521 I-6.537 J27.444
X83.603 Y40.535 I-5.607 J13.335
X87.395 Y45.638 I-14.586 J14.798
X90.394 Y60.62 I-23.308 J12.457
X83.566 Y76.219 I-26.826 J-2.449
X40.493 Y72.291 I-20.066 J-18.079
X56.406 Y32.072 I23.005 J-14.155
X73.411 Y33.004 I7.099 J26.098
G2 X77.749 Y34.404 I81.041 J-243.555
G3 X81.898 Y36.276 I-7.159 J21.404
X87.781 Y41.756 I-10.587 J17.261
X92.393 Y52.573 I-21.962 J15.756
X92.87 Y56.186 I-26.54 J5.342
X61.654 Y87.515 I-29.368 J1.954
X34.765 Y51.744 I1.847 J-29.381
X72.458 Y30.094 I28.738 J6.396
G1 X73.331 Y30.357
X74.202 Y30.627
G3 X79.387 Y32.367 I-21.914 J73.907
X83.449 Y34.425 I-9.242 J23.286
G1 X84.24 Y34.878
G3 X89.577 Y40.137 I-14.251 J19.801
X95.016 Y53.514 I-23.764 J17.456
X92.875 Y70.487 I-31.208 J4.684
X51.065 Y87.479 I-29.374 J-12.341
X34.192 Y45.617 I12.436 J-29.344
X71.801 Y27.365 I29.312 J12.525
X76.183 Y28.62 I-19.821 J77.465
X82.134 Y30.911 I-12.081 J40.261
X85.303 Y32.713 I-12.288 J25.29
X93.28 Y41.35 I-15.207 J22.049
X97.664 Y55.135 I-27.813 J16.434
X96.159 Y68.635 I-33.611 J3.088
X56.618 Y91.748 I-32.655 J-10.485
X29.338 Y54.955 I6.881 J-33.612
X62.944 Y23.831 I34.163 J3.183
X72.861 Y25.094 I0.453 J35.995
X79.493 Y27.12 I-14.431 J59.103
G1 X79.557 Y27.161
X81.23 Y28.089
X81.407 Y28.188
X82.028 Y28.542
X82.273 Y28.711
X84.719 Y30.413
X84.934 Y30.576
X85.133 Y30.743
X87.41 Y32.698
X87.585 Y32.855
G3 X89.752 Y35.135 I-171.028 J164.842
G1 X90.112 Y35.549
X90.28 Y35.757
X91.757 Y37.664
X91.88 Y37.829
X92.326 Y38.45
X93.876 Y40.937
X94 Y41.144
X94.034 Y41.203
X94.113 Y41.352
X95.434 Y44.045
X95.522 Y44.253
X95.697 Y44.667
X95.779 Y44.874
X96.777 Y47.568
G3 X97.701 Y51.091 I-113.352 J31.632
G1 X97.735 Y51.298
X98.148 Y53.992
X98.242 Y54.614
X98.253 Y54.821
X98.41 Y57.929
X98.42 Y58.137
X98.4 Y58.551
X98.253 Y61.452
X98.242 Y61.659
X98.117 Y62.488
X97.735 Y64.975
X97.701 Y65.182
G3 X96.777 Y68.705 I-119.465 J-29.457
G1 X95.779 Y71.399
X95.69 Y71.622
X95.483 Y72.113
X95.434 Y72.228
X94.113 Y74.921
X94.034 Y75.07
X94 Y75.129
X93.876 Y75.336
X92.326 Y77.823
X91.88 Y78.444
X91.757 Y78.609
X90.28 Y80.516
X90.112 Y80.724
G3 X87.585 Y83.418 I-58.699 J-52.535
G1 X87.41 Y83.575
X85.133 Y85.53
X84.926 Y85.704
X84.719 Y85.86
X82.235 Y87.589
X82.028 Y87.731
G3 X78.542 Y89.64 I-35.772 J-61.162
G1 X75.817 Y90.803
X75.61 Y90.878
G3 X72.298 Y91.928 I-33.427 J-99.733
X68.779 Y92.652 I-26.092 J-117.824
G1 X68.572 Y92.677
X65.881 Y92.95
X65.26 Y93.011
X65.053 Y93.013
X61.947
X61.74 Y93.011
X60.912 Y92.929
X58.428 Y92.677
X58.221 Y92.653
G3 X54.702 Y91.928 I60.131 J-300.946
X51.182 Y90.805 I30.579 J-101.971
G1 X48.461 Y89.634
X47.871 Y89.342
G3 X44.973 Y87.731 I54.791 J-101.921
G1 X44.726 Y87.562
X42.281 Y85.86
X42.074 Y85.704
X41.867 Y85.53
X39.59 Y83.575
X39.415 Y83.418
G3 X37.248 Y81.138 I171.081 J-164.892
G1 X36.888 Y80.724
X36.72 Y80.516
X35.243 Y78.609
X35.12 Y78.444
X34.674 Y77.823
X33.124 Y75.336
X33 Y75.129
X32.966 Y75.07
X32.887 Y74.921
X31.566 Y72.228
X31.478 Y72.02
X31.303 Y71.606
X31.221 Y71.399
X30.223 Y68.705
G3 X29.298 Y65.182 I113.418 J-31.651
G1 X29.265 Y64.975
X28.852 Y62.281
X28.759 Y61.659
X28.747 Y61.452
X28.59 Y58.344
X28.58 Y58.137
X28.6 Y57.722
X28.747 Y54.821
X28.759 Y54.614
X28.884 Y53.785
X29.265 Y51.298
X29.298 Y51.091
G3 X30.223 Y47.568 I119.314 J29.422
G1 X31.221 Y44.874
X31.31 Y44.651
X31.517 Y44.16
X31.566 Y44.045
X32.887 Y41.352
X32.966 Y41.203
X33 Y41.144
X33.124 Y40.937
X34.674 Y38.45
X35.12 Y37.829
X35.243 Y37.664
X36.72 Y35.757
X36.888 Y35.549
X37.248 Y35.135
G3 X39.415 Y32.855 I145.708 J136.371
G1 X39.59 Y32.698
X41.867 Y30.743
X42.074 Y30.569
X42.281 Y30.413
X44.765 Y28.684
X44.972 Y28.542
G3 X48.458 Y26.633 I35.766 J61.152
G1 X51.183 Y25.47
X51.39 Y25.395
G3 X54.702 Y24.345 I33.435 J99.758
X58.221 Y23.621 I26.117 J117.943
G1 X58.428 Y23.596
X61.119 Y23.323
X61.74 Y23.262
X61.947 Y23.26
X65.053
X65.26 Y23.262
X66.088 Y23.344
X68.572 Y23.596
X68.779 Y23.62
G3 X72.298 Y24.345 I-60.158 J301.077
X75.818 Y25.467 I-31.622 J105.263
G1 X78.539 Y26.639
X79.129 Y26.931
X79.336 Y27.038
X79.557 Y27.161
X79.619 Y27.203 F1524
X79.676 Y27.253
X79.72 Y27.315 Z-2.995
X79.763 Y27.376 Z-2.982
X79.805 Y27.435 Z-2.959
X79.826 Y27.514 Z-2.921
X79.845 Y27.586 Z-2.873
X79.863 Y27.651 Z-2.814
X79.865 Y27.705 Z-2.752
X79.86 Y27.751 Z-2.683
X79.856 Y27.788 Z-2.609
X79.854 Y27.814 Z-2.53
X79.852 Y27.831 Z-2.448
X79.851 Y27.836 Z-2.365
Z6 F2032
X74.397 Y43.627
Z-2.699
Z-3.334 F1524
X74.4 Y43.619 Z-3.433
X74.408 Y43.598 Z-3.53
X74.421 Y43.562 Z-3.622
X74.439 Y43.513 Z-3.707
X74.462 Y43.452 Z-3.783
X74.488 Y43.381 Z-3.847
X74.518 Y43.302 Z-3.9
X74.55 Y43.216 Z-3.938
X74.584 Y43.125 Z-3.961
X74.619 Y43.032 Z-3.969
G3 X76.186 Y39.91 I15.188 J5.67
G1 X76.271 Y39.787 F2032
G3 X77.702 Y39.664 I0.917 J2.284
G1 X78.036 Y39.727
G3 X80.017 Y40.599 I-1.795 J6.765
G1 X80.647 Y41.031
G3 X83.226 Y43.596 I-8.469 J11.094
X86.697 Y49.975 I-17.371 J13.588
X75.303 Y79.716 I-23.175 J8.175
X38.915 Y58.936 I-11.806 J-21.577
X73.877 Y35.833 I24.585 J-0.801
G1 X74.719 Y36.184
X75.591 Y36.449
G3 X79.075 Y37.521 I-6.537 J27.444
X83.603 Y40.535 I-5.607 J13.335
X87.395 Y45.638 I-14.586 J14.798
X90.394 Y60.62 I-23.308 J12.457
X83.566 Y76.219 I-26.826 J-2.449
X40.493 Y72.291 I-20.066 J-18.079
X56.406 Y32.072 I23.005 J-14.155
X73.411 Y33.004 I7.099 J26.098
G2 X77.749 Y34.404 I81.041 J-243.555
G3 X81.898 Y36.276 I-7.159 J21.404
X87.781 Y41.756 I-10.587 J17.261
X92.393 Y52.573 I-21.962 J15.756
X92.87 Y56.186 I-26.54 J5.342
X61.654 Y87.515 I-29.368 J1.954
X34.765 Y51.744 I1.847 J-29.381
X72.458 Y30.094 I28.738 J6.396
G1 X73.331 Y30.357
X74.202 Y30.627
G3 X79.387 Y32.367 I-21.914 J73.907
X83.449 Y34.425 I-9.242 J23.286
G1 X84.24 Y34.878
G3 X89.577 Y40.137 I-14.251 J19.801
X95.016 Y53.514 I-23.764 J17.456
X92.875 Y70.487 I-31.208 J4.684
X51.065 Y87.479 I-29.374 J-12.341
X34.192 Y45.617 I12.436 J-29.344
X71.801 Y27.365 I29.312 J12.525
X76.183 Y28.62 I-19.821 J77.465
X82.134 Y30.911 I-12.081 J40.261
X85.303 Y32.713 I-12.288 J25.29
X93.28 Y41.35 I-15.207 J22.049
X97.664 Y55.135 I-27.813 J16.434
X96.159 Y68.635 I-33.611 J3.088
X56.618 Y91.748 I-32.655 J-10.485
X29.338 Y54.955 I6.881 J-33.612
X62.944 Y23.831 I34.163 J3.183
X72.861 Y25.094 I0.453 J35.995
X79.493 Y27.12 I-14.431 J59.103
G1 X79.557 Y27.161
X81.23 Y28.089
X81.407 Y28.188
X82.028 Y28.542
X82.273 Y28.711
X84.719 Y30.413
X84.934 Y30.576
X85.133 Y30.743
X87.41 Y32.698
X87.585 Y32.855
G3 X89.752 Y35.135 I-171.028 J164.842
G1 X90.112 Y35.549
X90.28 Y35.757
X91.757 Y37.664
X91.88 Y37.829
X92.326 Y38.45
X93.876 Y40.937
X94 Y41.144
X94.034 Y41.203
X94.113 Y41.352
X95.434 Y44.045
X95.522 Y44.253
X95.697 Y44.667
X95.779 Y44.874
X96.777 Y47.568
G3 X97.701 Y51.091 I-113.352 J31.632
G1 X97.735 Y51.298
X98.148 Y53.992
X98.242 Y54.614
X98.253 Y54.821
X98.41 Y57.929
X98.42 Y58.137
X98.4 Y58.551
X98.253 Y61.452
X98.242 Y61.659
X98.117 Y62.488
X97.735 Y64.975
X97.701 Y65.182
G3 X96.777 Y68.705 I-119.465 J-29.457
G1 X95.779 Y71.399
X95.69 Y71.622
X95.483 Y72.113
X95.434 Y72.228
X94.113 Y74.921
X94.034 Y75.07
X94 Y75.129
X93.876 Y75.336
X92.326 Y77.823
X91.88 Y78.444
X91.757 Y78.609
X90.28 Y80.516
X90.112 Y80.724
G3 X87.585 Y83.418 I-58.699 J-52.535
G1 X87.41 Y83.575
X85.133 Y85.53
X84.926 Y85.704
X84.719 Y85.86
X82.235 Y87.589
X82.028 Y87.731
G3 X78.542 Y89.64 I-35.772 J-61.162
G1 X75.817 Y90.803
X75.61 Y90.878
G3 X72.298 Y91.928 I-33.427 J-99.733
X68.779 Y92.652 I-26.092 J-117.824
G1 X68.572 Y92.677
X65.881 Y92.95
X65.26 Y93.011
X65.053 Y93.013
X61.947
X61.74 Y93.011
X60.912 Y92.929
X58.428 Y92.677
X58.221 Y92.653
G3 X54.702 Y91.928 I60.131 J-300.946
X51.182 Y90.805 I30.579 J-101.971
G1 X48.461 Y89.634
X47.871 Y89.342
G3 X44.973 Y87.731 I54.791 J-101.921
G1 X44.726 Y87.562
X42.281 Y85.86
X42.074 Y85.704
X41.867 Y85.53
X39.59 Y83.575
X39.415 Y83.418
G3 X37.248 Y81.138 I171.081 J-164.892
G1 X36.888 Y80.724
X36.72 Y80.516
X35.243 Y78.609
X35.12 Y78.444
X34.674 Y77.823
X33.124 Y75.336
X33 Y75.129
X32.966 Y75.07
X32.887 Y74.921
X31.566 Y72.228
X31.478 Y72.02
X31.303 Y71.606
X31.221 Y71.399
X30.223 Y68.705
G3 X29.298 Y65.182 I113.418 J-31.651
G1 X29.265 Y64.975
X28.852 Y62.281
X28.759 Y61.659
X28.747 Y61.452
X28.59 Y58.344
X28.58 Y58.137
X28.6 Y57.722
X28.747 Y54.821
X28.759 Y54.614
X28.884 Y53.785
X29.265 Y51.298
X29.298 Y51.091
G3 X30.223 Y47.568 I119.314 J29.422
G1 X31.221 Y44.874
X31.31 Y44.651
X31.517 Y44.16
X31.566 Y44.045
X32.887 Y41.352
X32.966 Y41.203
X33 Y41.144
X33.124 Y40.937
X34.674 Y38.45
X35.12 Y37.829
X35.243 Y37.664
X36.72 Y35.757
X36.888 Y35.549
X37.248 Y35.135
G3 X39.415 Y32.855 I145.708 J136.371
G1 X39.59 Y32.698
X41.867 Y30.743
X42.074 Y30.569
X42.281 Y30.413
X44.765 Y28.684
X44.972 Y28.542
G3 X48.458 Y26.633 I35.766 J61.152
G1 X51.183 Y25.47
X51.39 Y25.395
G3 X54.702 Y24.345 I33.435 J99.758
X58.221 Y23.621 I26.117 J117.943
G1 X58.428 Y23.596
X61.119 Y23.323
X61.74 Y23.262
X61.947 Y23.26
X65.053
X65.26 Y23.262
X66.088 Y23.344
X68.572 Y23.596
X68.779 Y23.62
G3 X72.298 Y24.345 I-60.158 J301.077
X75.818 Y25.467 I-31.622 J105.263
G1 X78.539 Y26.639
X79.129 Y26.931
X79.336 Y27.038
X79.557 Y27.161
G3 X79.851 Y27.836 I-0.327 J0.544 F1524
G1 X79.831 Y27.933 Z-3.961
X79.811 Y28.028 Z-3.938
X79.792 Y28.118 Z-3.9
X79.774 Y28.201 Z-3.847
X79.759 Y28.275 Z-3.783
X79.745 Y28.339 Z-3.707
X79.735 Y28.39 Z-3.622
X79.727 Y28.427 Z-3.53
X79.722 Y28.45 Z-3.433
X79.72 Y28.457 Z-3.334
Z16 F2032
G28 G91 Z0
G90
G28 G91 X0 Y0
G90
M5
M30
