(Rear Cutout)
(Machine)
(  model: Shapeoko 3)
(  description: Shapeoko 3)
(T1  D=6.35 CR=0 - ZMIN=-12.7 - flat end mill)
G90 G94
G17
G21
(When using Fusion 360 for Personal Use, the feedrate of)
(rapid moves is reduced to match the feedrate of cutting)
(moves, which can increase machining time. Unrestricted rapid)
(moves are available with a Fusion 360 Subscription.)
G28 G91 Z0
G90

(2D Contour14)
T1
(Whiteside Spiral Up Cut)
S17000 M3
G54
G0 X-5.08 Y-0.635
Z16
G1 Z6 F2032
Z-2.365 F762
G18 G2 X-4.445 Z-3 I0.635 K0 F1524
G1 X-3.81
G17 G3 X-3.175 Y0 I0 J0.635
G1 Y203.2 F2032
G2 X0 Y206.375 I3.175 J0
G1 X127
G2 X130.175 Y203.2 I0 J-3.175
G1 Y0
G2 X127 Y-3.175 I-3.175 J0
G1 X0
G2 X-3.175 Y0 I0 J3.175
G3 X-3.81 Y0.635 I-0.635 J0 F1524
G1 X-4.445
G18 G3 X-5.08 Z-2.365 I0 K0.635
G1 Z6 F2032
Y-0.635
Z2 F762
Z-6.365
G2 X-4.445 Z-7 I0.635 K0 F1524
G1 X-3.81
G17 G3 X-3.175 Y0 I0 J0.635
G1 Y203.2 F2032
G2 X0 Y206.375 I3.175 J0
G1 X127
G2 X130.175 Y203.2 I0 J-3.175
G1 Y0
G2 X127 Y-3.175 I-3.175 J0
G1 X0
G2 X-3.175 Y0 I0 J3.175
G3 X-3.81 Y0.635 I-0.635 J0 F1524
G1 X-4.445
G18 G3 X-5.08 Z-6.365 I0 K0.635
G1 Z6 F2032
Y-0.635
Z-2 F762
Z-10.365
G2 X-4.445 Z-11 I0.635 K0 F1524
G1 X-3.81
G17 G3 X-3.175 Y0 I0 J0.635
G1 Y203.2 F2032
G2 X0 Y206.375 I3.175 J0
G1 X127
G2 X130.175 Y203.2 I0 J-3.175
G1 Y0
G2 X127 Y-3.175 I-3.175 J0
G1 X0
G2 X-3.175 Y0 I0 J3.175
G3 X-3.81 Y0.635 I-0.635 J0 F1524
G1 X-4.445
G18 G3 X-5.08 Z-10.365 I0 K0.635
G1 Z6 F2032
Y-0.635
Z-6 F762
Z-12.065
G2 X-4.445 Z-12.7 I0.635 K0 F1524
G1 X-3.81
G17 G3 X-3.175 Y0 I0 J0.635
G1 Y203.2 F2032
G2 X0 Y206.375 I3.175 J0
G1 X127
G2 X130.175 Y203.2 I0 J-3.175
G1 Y0
G2 X127 Y-3.175 I-3.175 J0
G1 X0
G2 X-3.175 Y0 I0 J3.175
G3 X-3.81 Y0.635 I-0.635 J0 F1524
G1 X-4.445
G18 G3 X-5.08 Z-12.065 I0 K0.635
G1 Z16 F2032
G17
G28 G91 Z0
G90
G28 G91 X0 Y0
G90
M5
M30
