(Right Baffle Screws)
(Machine)
(  model: Shapeoko 3)
(  description: Shapeoko 3)
(T1  D=3.175 CR=0 - ZMIN=-12.7 - flat end mill)
G90 G94
G17
G21
G28 G91 Z0
G90

(Right Alignment)
T1
S19700 M3
G54
G0 X76.2 Y88.9
Z16
Z6
Z5
G1 Z-12.7 F762
G0 Z6
X57.15 Y184.15
Z5
G1 Z-12.7 F762
G0 Z6
Z16

(Right Screw Holes)
X72.865 Y199.865
Z16
Z6
Z1.031
G1 Z-12.7 F762
G0 Z6
X41.435
Z1.031
G1 Z-12.7 F762
G0 Z6
Y168.435
Z1.031
G1 Z-12.7 F762
G0 Z6
X72.865
Z1.031
G1 Z-12.7 F762
G0 Z6
X38.001 Y127.033
Z0.237
G1 Z-12.7 F762
G0 Z6
X114.333 Y127.099
Z0.237
G1 Z-12.7 F762
G0 Z6
X114.399 Y50.767
Z0.237
G1 Z-12.7 F762
G0 Z6
X38.067 Y50.701
Z0.237
G1 Z-12.7 F762
G0 Z6
Z16
G28 G91 Z0
G90
G28 G91 X0 Y0
G90
M5
M30
