(Right Baffle Drivers)
(Machine)
(  model: Shapeoko 3)
(  description: Shapeoko 3)
(T1  D=6.35 CR=0 - ZMIN=-12.7 - flat end mill)
G90 G94
G17
G21
(When using Fusion 360 for Personal Use, the feedrate of)
(rapid moves is reduced to match the feedrate of cutting)
(moves, which can increase machining time. Unrestricted rapid)
(moves are available with a Fusion 360 Subscription.)
G28 G91 Z0
G90

(2D Tweeter Cutout)
T1
(Whiteside Spiral Up Cut)
S17000 M3
G54
G0 X56.515 Y170.974
Z16
G1 Z6 F2032
Z-2.365 F762
G19 G2 Y170.339 Z-3 J-0.635 K0 F1524
G1 Y169.704
G17 G3 X57.15 Y169.069 I0.635 J0
X72.231 Y184.15 I0 J15.081 F2032
X42.069 Y184.15 I-15.081 J0
X57.15 Y169.069 I15.081 J0
X57.785 Y169.704 I0 J0.635 F1524
G1 Y170.339
G19 G3 Y170.974 Z-2.365 J0 K0.635
G1 Z6 F2032
X56.515
Z2 F762
Z-6.365
G2 Y170.339 Z-7 J-0.635 K0 F1524
G1 Y169.704
G17 G3 X57.15 Y169.069 I0.635 J0
X72.231 Y184.15 I0 J15.081 F2032
X42.069 Y184.15 I-15.081 J0
X57.15 Y169.069 I15.081 J0
X57.785 Y169.704 I0 J0.635 F1524
G1 Y170.339
G19 G3 Y170.974 Z-6.365 J0 K0.635
G1 Z6 F2032
X56.515
Z-2 F762
Z-10.365
G2 Y170.339 Z-11 J-0.635 K0 F1524
G1 Y169.704
G17 G3 X57.15 Y169.069 I0.635 J0
X72.231 Y184.15 I0 J15.081 F2032
X42.069 Y184.15 I-15.081 J0
X57.15 Y169.069 I15.081 J0
X57.785 Y169.704 I0 J0.635 F1524
G1 Y170.339
G19 G3 Y170.974 Z-10.365 J0 K0.635
G1 Z6 F2032
X56.515
Z-6 F762
Z-12.065
G2 Y170.339 Z-12.7 J-0.635 K0 F1524
G1 Y169.704
G17 G3 X57.15 Y169.069 I0.635 J0
X72.231 Y184.15 I0 J15.081 F2032
X42.069 Y184.15 I-15.081 J0
X57.15 Y169.069 I15.081 J0
X57.785 Y169.704 I0 J0.635 F1524
G1 Y170.339
G19 G3 Y170.974 Z-12.065 J0 K0.635
G1 Z16 F2032
G17
(When using Fusion 360 for Personal Use, the feedrate of)
(rapid moves is reduced to match the feedrate of cutting)
(moves, which can increase machining time. Unrestricted rapid)
(moves are available with a Fusion 360 Subscription.)

(2D Tweeter Recess)
G0 X64.397 Y175.962
G1 Z16 F2032
Z-1.73
Z-2.365 F1524
X64.4 Y175.955 Z-2.464
X64.409 Y175.933 Z-2.561
X64.425 Y175.898 Z-2.653
X64.446 Y175.851 Z-2.738
X64.472 Y175.792 Z-2.814
X64.502 Y175.722 Z-2.879
X64.536 Y175.644 Z-2.931
X64.573 Y175.56 Z-2.969
X64.612 Y175.471 Z-2.992
X64.652 Y175.38 Z-3
G3 X66.393 Y172.353 I14.843 J6.519
G1 X66.485 Y172.235 F2032
G3 X67.291 Y172.082 I0.674 J1.358
X69.168 Y172.685 I-0.244 J3.987
G1 X69.665 Y172.991
X70.071 Y173.293
X70.557 Y173.72
X71.161 Y174.341
X71.67 Y174.959
G3 X73.733 Y179.002 I-10.912 J8.113
X74.296 Y187.109 I-16.115 J5.194
X50.667 Y200.298 I-17.145 J-2.955
X59.274 Y166.879 I6.482 J-16.148
X64.512 Y168.383 I-2.109 J17.219
G1 X65.362 Y168.714
X66.231 Y168.989
X67.102 Y169.257
G3 X70.879 Y171.076 I-3.846 J12.815
X74.032 Y174.337 I-7.402 J10.311
X76.481 Y180.189 I-13.911 J9.262
X73.659 Y195.02 I-19.084 J4.053
X65.275 Y202.176 I-16.51 J-10.856
X45.388 Y200.037 I-8.122 J-18.013
X40.219 Y173.942 I11.753 J-15.887
X63.277 Y165.352 I16.932 J10.207
X67.607 Y166.778 I-103.887 J322.681
G1 X68.456 Y167.11
X69.294 Y167.47
X70.163 Y167.745
X70.385 Y167.797
X70.529 Y167.841
G3 X74.074 Y170.693 I-11.237 J17.6
X77.941 Y176.819 I-12.815 J12.371
X79.078 Y181.224 I-18.32 J7.078
X74.793 Y197.548 I-21.698 J3.029
X71.687 Y200.872 I-16.041 J-11.87
X45.378 Y202.921 I-14.536 J-16.716
X50.221 Y163.104 I11.77 J-18.772
X62.806 Y162.722 I6.937 J21.081
X68.898 Y164.617 I-14.599 J57.686
G1 X69.759 Y164.916
G3 X74.355 Y167.746 I-6.577 J15.827
X75.144 Y168.586 I-5.306 J5.773
G1 X76.318 Y170.085
X76.637 Y170.499
X76.791 Y170.705
X78.041 Y172.774
X78.149 Y172.981
X78.361 Y173.394
X78.454 Y173.584
X79.299 Y175.463
X79.388 Y175.669
G3 X80.289 Y178.564 I-89.987 J29.607
G1 X80.664 Y180.633
X80.775 Y181.254
X80.794 Y181.461
X80.944 Y183.943
X80.956 Y184.15
X80.936 Y184.499
X80.794 Y186.838
X80.775 Y187.045
X80.664 Y187.666
X80.286 Y189.734
G3 X79.306 Y192.839 I-48.721 J-13.664
G1 X78.454 Y194.716
X78.361 Y194.905
X78.149 Y195.318
X78.04 Y195.528
X76.791 Y197.594
G3 X74.835 Y200.079 I-42.405 J-31.35
G1 X73.076 Y201.83
X72.959 Y201.937
G3 X70.594 Y203.79 I-38.034 J-46.113
G1 X68.526 Y205.041
X68.319 Y205.148
X67.905 Y205.361
X67.717 Y205.453
X65.837 Y206.3
X65.63 Y206.388
G3 X62.736 Y207.289 I-29.686 J-90.298
G1 X60.666 Y207.664
X60.046 Y207.775
X59.839 Y207.794
X57.357 Y207.944
X57.15 Y207.955
X56.799 Y207.935
X54.461 Y207.794
X54.254 Y207.775
X53.634 Y207.664
X51.566 Y207.285
G3 X48.461 Y206.306 I13.667 J-48.745
G1 X46.583 Y205.453
X46.395 Y205.361
X45.981 Y205.148
X45.772 Y205.039
X43.706 Y203.79
G3 X41.22 Y201.835 I31.452 J-42.535
G1 X39.469 Y200.076
X39.363 Y199.959
G3 X37.509 Y197.593 I45.795 J-37.786
G1 X36.258 Y195.525
X36.151 Y195.318
X35.939 Y194.905
X35.846 Y194.716
X35 Y192.836
X34.912 Y192.63
G3 X34.011 Y189.735 I90.24 J-29.679
G1 X33.636 Y187.666
X33.525 Y187.045
X33.506 Y186.838
X33.356 Y184.356
X33.344 Y184.15
X33.364 Y183.801
X33.506 Y181.461
X33.525 Y181.254
X33.636 Y180.633
X34.014 Y178.565
G3 X34.994 Y175.46 I48.694 J13.66
G1 X35.846 Y173.584
X35.939 Y173.394
X36.151 Y172.981
X36.26 Y172.772
X37.509 Y170.705
G3 X39.466 Y168.22 I42.366 J31.325
G1 X41.224 Y166.47
X41.342 Y166.362
G3 X43.706 Y164.51 I38.267 J46.416
G1 X45.774 Y163.259
X45.981 Y163.152
X46.395 Y162.939
X46.585 Y162.846
X48.463 Y162
X48.67 Y161.912
G3 X51.564 Y161.011 I29.687 J90.302
G1 X53.634 Y160.636
X54.254 Y160.525
X54.461 Y160.506
X56.943 Y160.355
X57.15 Y160.344
X57.499 Y160.364
X59.839 Y160.506
X60.046 Y160.525
X60.666 Y160.636
X62.734 Y161.015
G3 X65.839 Y161.994 I-13.667 J48.744
G1 X67.715 Y162.846
X67.905 Y162.939
X68.319 Y163.152
X68.526 Y163.26
X70.594 Y164.51
G3 X73.08 Y166.465 I-31.48 J42.572
G1 X74.353 Y167.747
X74.401 Y167.805 F1524
X74.442 Y167.868
X74.467 Y167.94 Z-2.995
X74.492 Y168.011 Z-2.982
X74.516 Y168.079 Z-2.959
X74.52 Y168.131 Z-2.937
X74.524 Y168.18 Z-2.91
X74.512 Y168.246 Z-2.864
X74.502 Y168.305 Z-2.81
X74.493 Y168.357 Z-2.749
X74.485 Y168.4 Z-2.681
X74.47 Y168.433 Z-2.607
X74.459 Y168.458 Z-2.529
X74.453 Y168.472 Z-2.448
X74.45 Y168.477 Z-2.365
Z6 F2032
X64.397 Y175.962
Z-2.699
Z-3.334 F1524
X64.4 Y175.955 Z-3.433
X64.409 Y175.933 Z-3.53
X64.425 Y175.898 Z-3.622
X64.446 Y175.851 Z-3.707
X64.472 Y175.792 Z-3.783
X64.502 Y175.722 Z-3.847
X64.536 Y175.644 Z-3.9
X64.573 Y175.56 Z-3.938
X64.612 Y175.471 Z-3.961
X64.652 Y175.38 Z-3.969
G3 X66.393 Y172.353 I14.843 J6.519
G1 X66.485 Y172.235 F2032
G3 X67.291 Y172.082 I0.674 J1.358
X69.168 Y172.685 I-0.244 J3.987
G1 X69.665 Y172.991
X70.071 Y173.293
X70.557 Y173.72
X71.161 Y174.341
X71.67 Y174.959
G3 X73.733 Y179.002 I-10.912 J8.113
X74.296 Y187.109 I-16.115 J5.194
X50.667 Y200.298 I-17.145 J-2.955
X59.274 Y166.879 I6.482 J-16.148
X64.512 Y168.383 I-2.109 J17.219
G1 X65.362 Y168.714
X66.231 Y168.989
X67.102 Y169.257
G3 X70.879 Y171.076 I-3.846 J12.815
X74.032 Y174.337 I-7.402 J10.311
X76.481 Y180.189 I-13.911 J9.262
X73.659 Y195.02 I-19.084 J4.053
X65.275 Y202.176 I-16.51 J-10.856
X45.388 Y200.037 I-8.122 J-18.013
X40.219 Y173.942 I11.753 J-15.887
X63.277 Y165.352 I16.932 J10.207
X67.607 Y166.778 I-103.887 J322.681
G1 X68.456 Y167.11
X69.294 Y167.47
X70.163 Y167.745
X70.385 Y167.797
X70.529 Y167.841
G3 X74.074 Y170.693 I-11.237 J17.6
X77.941 Y176.819 I-12.815 J12.371
X79.078 Y181.224 I-18.32 J7.078
X74.793 Y197.548 I-21.698 J3.029
X71.687 Y200.872 I-16.041 J-11.87
X45.378 Y202.921 I-14.536 J-16.716
X50.221 Y163.104 I11.77 J-18.772
X62.806 Y162.722 I6.937 J21.081
X68.898 Y164.617 I-14.599 J57.686
G1 X69.759 Y164.916
G3 X74.355 Y167.746 I-6.577 J15.827
X75.144 Y168.586 I-5.306 J5.773
G1 X76.318 Y170.085
X76.637 Y170.499
X76.791 Y170.705
X78.041 Y172.774
X78.149 Y172.981
X78.361 Y173.394
X78.454 Y173.584
X79.299 Y175.463
X79.388 Y175.669
G3 X80.289 Y178.564 I-89.987 J29.607
G1 X80.664 Y180.633
X80.775 Y181.254
X80.794 Y181.461
X80.944 Y183.943
X80.956 Y184.15
X80.936 Y184.499
X80.794 Y186.838
X80.775 Y187.045
X80.664 Y187.666
X80.286 Y189.734
G3 X79.306 Y192.839 I-48.721 J-13.664
G1 X78.454 Y194.716
X78.361 Y194.905
X78.149 Y195.318
X78.04 Y195.528
X76.791 Y197.594
G3 X74.835 Y200.079 I-42.405 J-31.35
G1 X73.076 Y201.83
X72.959 Y201.937
G3 X70.594 Y203.79 I-38.034 J-46.113
G1 X68.526 Y205.041
X68.319 Y205.148
X67.905 Y205.361
X67.717 Y205.453
X65.837 Y206.3
X65.63 Y206.388
G3 X62.736 Y207.289 I-29.686 J-90.298
G1 X60.666 Y207.664
X60.046 Y207.775
X59.839 Y207.794
X57.357 Y207.944
X57.15 Y207.955
X56.799 Y207.935
X54.461 Y207.794
X54.254 Y207.775
X53.634 Y207.664
X51.566 Y207.285
G3 X48.461 Y206.306 I13.667 J-48.745
G1 X46.583 Y205.453
X46.395 Y205.361
X45.981 Y205.148
X45.772 Y205.039
X43.706 Y203.79
G3 X41.22 Y201.835 I31.452 J-42.535
G1 X39.469 Y200.076
X39.363 Y199.959
G3 X37.509 Y197.593 I45.795 J-37.786
G1 X36.258 Y195.525
X36.151 Y195.318
X35.939 Y194.905
X35.846 Y194.716
X35 Y192.836
X34.912 Y192.63
G3 X34.011 Y189.735 I90.24 J-29.679
G1 X33.636 Y187.666
X33.525 Y187.045
X33.506 Y186.838
X33.356 Y184.356
X33.344 Y184.15
X33.364 Y183.801
X33.506 Y181.461
X33.525 Y181.254
X33.636 Y180.633
X34.014 Y178.565
G3 X34.994 Y175.46 I48.694 J13.66
G1 X35.846 Y173.584
X35.939 Y173.394
X36.151 Y172.981
X36.26 Y172.772
X37.509 Y170.705
G3 X39.466 Y168.22 I42.366 J31.325
G1 X41.224 Y166.47
X41.342 Y166.362
G3 X43.706 Y164.51 I38.267 J46.416
G1 X45.774 Y163.259
X45.981 Y163.152
X46.395 Y162.939
X46.585 Y162.846
X48.463 Y162
X48.67 Y161.912
G3 X51.564 Y161.011 I29.687 J90.302
G1 X53.634 Y160.636
X54.254 Y160.525
X54.461 Y160.506
X56.943 Y160.355
X57.15 Y160.344
X57.499 Y160.364
X59.839 Y160.506
X60.046 Y160.525
X60.666 Y160.636
X62.734 Y161.015
G3 X65.839 Y161.994 I-13.667 J48.744
G1 X67.715 Y162.846
X67.905 Y162.939
X68.319 Y163.152
X68.526 Y163.26
X70.594 Y164.51
G3 X73.08 Y166.465 I-31.48 J42.572
G1 X74.353 Y167.747
G3 X74.45 Y168.477 I-0.464 J0.433 F1524
G1 X74.404 Y168.565 Z-3.961
X74.359 Y168.651 Z-3.938
X74.316 Y168.732 Z-3.9
X74.276 Y168.807 Z-3.847
X74.241 Y168.874 Z-3.783
X74.21 Y168.931 Z-3.707
X74.186 Y168.977 Z-3.622
X74.168 Y169.011 Z-3.53
X74.157 Y169.032 Z-3.433
X74.154 Y169.039 Z-3.334
Z16 F2032
(When using Fusion 360 for Personal Use, the feedrate of)
(rapid moves is reduced to match the feedrate of cutting)
(moves, which can increase machining time. Unrestricted rapid)
(moves are available with a Fusion 360 Subscription.)

(2D Midrange Cutout)
G0 X76.835 Y129.857
G1 Z16 F2032
Z6
Z-2.365 F762
G19 G3 Y130.492 Z-3 J0.635 K0 F1524
G1 Y131.127
G17 G3 X76.2 Y131.762 I-0.635 J0
X33.338 Y88.9 I0 J-42.862 F2032
X119.062 Y88.9 I42.862 J0
X76.2 Y131.762 I-42.862 J0
X75.565 Y131.127 I0 J-0.635 F1524
G1 Y130.492
G19 G2 Y129.857 Z-2.365 J0 K0.635
G1 Z6 F2032
X76.835
Z2 F762
Z-6.365
G3 Y130.492 Z-7 J0.635 K0 F1524
G1 Y131.127
G17 G3 X76.2 Y131.762 I-0.635 J0
X33.338 Y88.9 I0 J-42.862 F2032
X119.062 Y88.9 I42.862 J0
X76.2 Y131.762 I-42.862 J0
X75.565 Y131.127 I0 J-0.635 F1524
G1 Y130.492
G19 G2 Y129.857 Z-6.365 J0 K0.635
G1 Z6 F2032
X76.835
Z-2 F762
Z-10.365
G3 Y130.492 Z-11 J0.635 K0 F1524
G1 Y131.127
G17 G3 X76.2 Y131.762 I-0.635 J0
X33.338 Y88.9 I0 J-42.862 F2032
X119.062 Y88.9 I42.862 J0
X76.2 Y131.762 I-42.862 J0
X75.565 Y131.127 I0 J-0.635 F1524
G1 Y130.492
G19 G2 Y129.857 Z-10.365 J0 K0.635
G1 Z6 F2032
X76.835
Z-6 F762
Z-12.065
G3 Y130.492 Z-12.7 J0.635 K0 F1524
G1 Y131.127
G17 G3 X76.2 Y131.762 I-0.635 J0
X33.338 Y88.9 I0 J-42.862 F2032
X119.062 Y88.9 I42.862 J0
X76.2 Y131.762 I-42.862 J0
X75.565 Y131.127 I0 J-0.635 F1524
G1 Y130.492
G19 G2 Y129.857 Z-12.065 J0 K0.635
G1 Z16 F2032
G17
(When using Fusion 360 for Personal Use, the feedrate of)
(rapid moves is reduced to match the feedrate of cutting)
(moves, which can increase machining time. Unrestricted rapid)
(moves are available with a Fusion 360 Subscription.)

(2D Midrange Recess)
G0 X114.659 Y84.892
G1 Z16 F2032
Z-1.73
Z-2.365 F1524
X114.666 Y84.889 Z-2.464
X114.688 Y84.881 Z-2.561
X114.724 Y84.867 Z-2.653
X114.772 Y84.848 Z-2.738
X114.832 Y84.824 Z-2.814
X114.903 Y84.797 Z-2.879
X114.982 Y84.766 Z-2.931
X115.068 Y84.733 Z-2.969
X115.158 Y84.697 Z-2.992
X115.251 Y84.661 Z-3
G3 X118.623 Y83.751 I5.885 J15.105
G1 X118.772 Y83.733 F2032
G3 X119.626 Y84.308 I-0.438 J1.574
X120.474 Y85.663 I-3.551 J3.164
G1 X120.714 Y86.265
X120.908 Y86.901
X121.1 Y87.777
G3 X121.233 Y93.233 I-21.767 J3.258
X120.226 Y99.528 I-38.77 J-2.974
X101.366 Y126.56 I-43.986 J-10.593
X53.769 Y128.252 I-25.167 J-37.657
X30.971 Y86.435 I22.432 J-39.352
X58.179 Y47.343 I45.233 J2.468
X105.311 Y54.197 I18.02 J41.563
X120.516 Y79.524 I-29.128 J34.714
G1 X120.799 Y80.391
X121.162 Y81.228
G3 X122.653 Y84.555 I-34.973 J17.669
X123.688 Y89.907 I-17.314 J6.126
X123.047 Y98.068 I-33.825 J1.448
G1 X122.877 Y98.964
G3 X90.699 Y134.405 I-46.625 J-10.003
X43.941 Y124.122 I-14.507 J-45.481
X29.596 Y78.444 I32.251 J-35.22
X62.08 Y43.271 I46.604 J10.455
X108.753 Y53.947 I14.12 J45.631
X122.267 Y76.284 I-32.552 J34.951
G2 X123.784 Y80.578 I28.885 J-7.792
G3 X125.306 Y84.873 I-34.713 J14.718
X126.137 Y92.096 I-24.822 J6.512
X125.309 Y99.333 I-38.48 J-0.736
X112.584 Y123.529 I-48.66 J-10.146
X93.616 Y136.018 I-36.307 J-34.494
X46.028 Y129.064 I-17.417 J-47.113
X26.129 Y84.842 I30.172 J-40.165
X52.992 Y44.348 I50.075 J4.061
X101.076 Y45.258 I23.208 J44.551
X124.2 Y74.081 I-24.885 J43.651
G2 X126.344 Y80.091 I81.791 J-25.791
G3 X127.924 Y85.325 I-37.643 J14.217
G1 X128.097 Y86.22
G3 X128.395 Y95.304 I-31.97 J5.594
X125.438 Y107.681 I-46.763 J-4.631
X115.86 Y123.617 I-48.864 J-18.522
G1 X115.438 Y124.425
X115.41 Y124.503
X115.357 Y124.639
X113.323 Y126.468
X111.285 Y128.293
G3 X108.458 Y130.597 I-46.244 J-53.841
X60.976 Y139.366 I-32.263 J-41.763
X41.228 Y128.338 I15.278 J-50.557
G1 X40.805 Y128.17
X40.703 Y128.133
X40.621 Y128.103
G3 X36.312 Y123.396 I108.982 J-104.103
X26.677 Y106.964 I40.851 J-34.993
G1 X26.376 Y106.103
X26.086 Y105.239
G3 X33.805 Y57.579 I50.118 J-16.338
X36.67 Y54.034 I42.645 J31.532
G1 X36.855 Y53.618
X36.99 Y53.255
G3 X41.042 Y49.578 I309.692 J337.206
X53.137 Y41.495 I36.502 J41.531
X76.952 Y36.193 I23.107 J47.648
X111.097 Y49.395 I-0.769 J52.744
G1 X111.516 Y49.573
X111.753 Y49.658
X111.826 Y49.686
G3 X115.509 Y53.731 I-218.077 J202.254
X119.442 Y58.754 I-45.471 J39.652
X126.325 Y72.582 I-43.558 J30.311
G2 X128.794 Y79.446 I472.975 J-166.258
G3 X130.474 Y85.598 I-41.139 J14.534
X130.739 Y96.496 I-36.116 J6.331
X128.567 Y106.269 I-47.721 J-5.477
X119.551 Y123.052 I-52.017 J-17.132
G1 X119.019 Y123.792
G3 X116.701 Y126.6 I-14.982 J-10.007
X103.026 Y137.141 I-43.523 J-42.326
X94.723 Y140.887 I-27.562 J-50.01
X46.584 Y135.467 I-18.52 J-51.998
X42.12 Y132.308 I29.317 J-46.16
G1 X41.388 Y131.765
G3 X38.59 Y129.431 I12.282 J-17.569
X26.726 Y113.377 I40.412 J-42.276
X21.264 Y94.187 I50.006 J-24.607
X32.74 Y54.885 I54.975 J-5.273
G1 X33.281 Y54.151
G3 X35.59 Y51.335 I15.689 J10.508
X38.201 Y48.79 I38.424 J36.809
X52.464 Y39.068 I39.495 J42.618
X84.463 Y34.333 I23.748 J50.002
X110.145 Y45.385 I-8.294 J54.638
G1 X110.875 Y45.933
G3 X113.698 Y48.234 I-10.71 J16.023
X124.315 Y61.848 I-41.582 J43.374
X128.416 Y70.988 I-51.774 J28.726
X130.241 Y76.002 I-412.538 J152.977
G1 X130.254 Y76.074
X131.013 Y79.791
X131.044 Y79.998
X131.102 Y80.412
X131.129 Y80.619
X131.531 Y83.931
X131.552 Y84.138
X131.589 Y84.552
X131.605 Y84.759
X131.772 Y88.9
X131.605 Y93.04
X131.589 Y93.247
X131.552 Y93.661
X131.531 Y93.868
X131.129 Y97.181
X131.097 Y97.426
X131.044 Y97.802
X131.013 Y98.009
X130.168 Y102.149
G3 X128.903 Y106.497 I-283.381 J-80.113
G1 X128.753 Y106.911
X128.678 Y107.118
X127.421 Y110.43
X127.368 Y110.566
X127.245 Y110.844
X127.151 Y111.051
X125.48 Y114.571
X125.377 Y114.778
X123.432 Y118.147
X123.341 Y118.297
X123.017 Y118.818
X122.951 Y118.918
X120.946 Y121.823
X120.739 Y122.113
X120.532 Y122.4
X120.502 Y122.438
X118.135 Y125.336
X117.782 Y125.75
X117.631 Y125.923
X115.014 Y128.648
X114.81 Y128.855
X114.603 Y129.063
X111.564 Y131.754
X111.417 Y131.879
X111.21 Y132.045
X111.052 Y132.168
X108.297 Y134.238
X107.895 Y134.531
X107.688 Y134.681
X107.481 Y134.817
X104.14 Y136.929
X103.959 Y137.038
X103.752 Y137.15
X100.622 Y138.793
X100.023 Y139.101
X99.816 Y139.196
X96.501 Y140.607
X95.874 Y140.863
G3 X91.737 Y142.245 I-47.291 J-134.648
G1 X91.523 Y142.312
X87.324 Y143.347
X86.972 Y143.405
X83.036 Y144.045
X82.622 Y144.087
X82.415 Y144.107
X78.989 Y144.382
X78.479 Y144.415
X78.272 Y144.427
X74.128
X73.921 Y144.415
X73.411 Y144.382
X69.985 Y144.107
X69.778 Y144.087
X69.364 Y144.045
X65.221 Y143.372
X65.076 Y143.347
X60.87 Y142.31
G3 X56.519 Y140.863 I43.695 J-138.63
G1 X55.899 Y140.607
X52.584 Y139.196
X52.377 Y139.101
X51.755 Y138.781
X48.622 Y137.136
X48.441 Y137.038
X48.234 Y136.913
X44.919 Y134.817
X44.712 Y134.681
X44.298 Y134.38
X44.091 Y134.229
X41.348 Y132.168
X41.19 Y132.045
X40.983 Y131.879
X40.836 Y131.754
X37.798 Y129.063
X37.59 Y128.855
X37.386 Y128.648
X34.769 Y125.923
X34.561 Y125.684
X34.265 Y125.336
X31.898 Y122.438
X31.868 Y122.401
X31.597 Y122.024
X31.45 Y121.817
X29.449 Y118.918
X29.383 Y118.818
X29.059 Y118.297
X28.968 Y118.147
X27.023 Y114.778
X26.92 Y114.571
X25.239 Y111.03
X25.156 Y110.844
X25.032 Y110.566
X24.979 Y110.43
X23.723 Y107.118
X23.572 Y106.704
X23.498 Y106.497
G3 X22.233 Y102.149 I181.229 J-55.092
G1 X21.387 Y98.009
X21.356 Y97.802
X21.298 Y97.388
X21.27 Y97.181
X20.868 Y93.868
X20.847 Y93.661
X20.811 Y93.247
X20.794 Y93.04
X20.628 Y88.9
X20.794 Y84.759
X20.811 Y84.552
X20.847 Y84.138
X20.868 Y83.931
X21.27 Y80.619
X21.303 Y80.372
X21.356 Y79.998
X21.387 Y79.791
X22.232 Y75.65
G3 X23.498 Y71.303 I286.501 J81.037
G1 X23.647 Y70.889
X23.723 Y70.682
X24.979 Y67.369
X25.032 Y67.234
X25.156 Y66.955
X25.25 Y66.748
X26.92 Y63.229
X27.023 Y63.022
X28.968 Y59.653
X29.059 Y59.502
X29.383 Y58.982
X29.45 Y58.881
X31.454 Y55.977
X31.661 Y55.688
X31.868 Y55.4
X31.898 Y55.362
X34.265 Y52.464
X34.618 Y52.049
X34.769 Y51.877
X37.387 Y49.151
X37.591 Y48.944
X37.798 Y48.737
X40.836 Y46.046
X40.983 Y45.921
X41.19 Y45.755
X41.348 Y45.632
X44.103 Y43.561
X44.505 Y43.269
X44.712 Y43.119
X44.919 Y42.983
X48.261 Y40.87
X48.441 Y40.763
X48.648 Y40.65
X51.779 Y39.007
X52.377 Y38.7
X52.584 Y38.605
X55.899 Y37.192
X56.526 Y36.937
G3 X60.663 Y35.554 I47.027 J133.848
G1 X60.877 Y35.488
X65.078 Y34.452
X65.428 Y34.395
X69.364 Y33.755
X69.778 Y33.713
X69.985 Y33.694
X73.413 Y33.417
X73.921 Y33.385
X74.128 Y33.373
X78.272
X78.479 Y33.385
X78.987 Y33.417
X82.415 Y33.694
X82.622 Y33.713
X83.036 Y33.755
X87.179 Y34.429
X87.322 Y34.452
X91.53 Y35.489
G3 X95.881 Y36.937 I-43.578 J138.264
G1 X96.501 Y37.192
X99.816 Y38.605
X100.023 Y38.699
X100.645 Y39.019
X103.777 Y40.663
X103.959 Y40.763
X104.166 Y40.887
X107.481 Y42.983
X107.688 Y43.119
X108.102 Y43.419
X108.309 Y43.571
X111.051 Y45.632
X111.21 Y45.755
X111.417 Y45.921
X111.564 Y46.046
X114.602 Y48.737
X114.809 Y48.944
X115.014 Y49.151
X117.631 Y51.877
X117.839 Y52.116
X118.135 Y52.464
X120.501 Y55.362
X120.532 Y55.4
X120.802 Y55.776
X120.95 Y55.983
X122.95 Y58.881
X123.017 Y58.982
X123.341 Y59.502
X123.432 Y59.653
X125.377 Y63.022
X125.481 Y63.229
X127.161 Y66.77
X127.244 Y66.955
X127.368 Y67.234
X127.421 Y67.369
X128.678 Y70.682
X128.828 Y71.096
X128.903 Y71.303
G3 X130.167 Y75.65 I-179.753 J54.646
G1 X130.254 Y76.074
X130.262 Y76.148 F1524
X130.261 Y76.223
X130.243 Y76.297 Z-2.995
X130.225 Y76.37 Z-2.982
X130.207 Y76.44 Z-2.959
X130.161 Y76.507 Z-2.921
X130.119 Y76.569 Z-2.873
X130.081 Y76.624 Z-2.814
X130.029 Y76.663 Z-2.738
X129.988 Y76.694 Z-2.653
X129.957 Y76.717 Z-2.561
X129.939 Y76.731 Z-2.465
X129.933 Y76.736 Z-2.365
Z6 F2032
X114.659 Y84.892
Z-3.493
Z-4.128 F1524
X114.666 Y84.889 Z-4.227
X114.688 Y84.881 Z-4.324
X114.724 Y84.867 Z-4.416
X114.772 Y84.848 Z-4.501
X114.832 Y84.824 Z-4.577
X114.903 Y84.797 Z-4.641
X114.982 Y84.766 Z-4.693
X115.068 Y84.733 Z-4.731
X115.158 Y84.697 Z-4.755
X115.251 Y84.661 Z-4.762
G3 X118.623 Y83.751 I5.885 J15.105
G1 X118.772 Y83.733 F2032
G3 X119.626 Y84.308 I-0.438 J1.574
X120.474 Y85.663 I-3.551 J3.164
G1 X120.714 Y86.265
X120.908 Y86.901
X121.1 Y87.777
G3 X121.233 Y93.233 I-21.767 J3.258
X120.226 Y99.528 I-38.77 J-2.974
X101.366 Y126.56 I-43.986 J-10.593
X53.769 Y128.252 I-25.167 J-37.657
X30.971 Y86.435 I22.432 J-39.352
X58.179 Y47.343 I45.233 J2.468
X105.311 Y54.197 I18.02 J41.563
X120.516 Y79.524 I-29.128 J34.714
G1 X120.799 Y80.391
X121.162 Y81.228
G3 X122.653 Y84.555 I-34.973 J17.669
X123.688 Y89.907 I-17.314 J6.126
X123.047 Y98.068 I-33.825 J1.448
G1 X122.877 Y98.964
G3 X90.699 Y134.405 I-46.625 J-10.003
X43.941 Y124.122 I-14.507 J-45.481
X29.596 Y78.444 I32.251 J-35.22
X62.08 Y43.271 I46.604 J10.455
X108.753 Y53.947 I14.12 J45.631
X122.267 Y76.284 I-32.552 J34.951
G2 X123.784 Y80.578 I28.885 J-7.792
G3 X125.306 Y84.873 I-34.713 J14.718
X126.137 Y92.096 I-24.822 J6.512
X125.309 Y99.333 I-38.48 J-0.736
X112.584 Y123.529 I-48.66 J-10.146
X93.616 Y136.018 I-36.307 J-34.494
X46.028 Y129.064 I-17.417 J-47.113
X26.129 Y84.842 I30.172 J-40.165
X52.992 Y44.348 I50.075 J4.061
X101.076 Y45.258 I23.208 J44.551
X124.2 Y74.081 I-24.885 J43.651
G2 X126.344 Y80.091 I81.791 J-25.791
G3 X127.924 Y85.325 I-37.643 J14.217
G1 X128.097 Y86.22
G3 X128.395 Y95.304 I-31.97 J5.594
X125.438 Y107.681 I-46.763 J-4.631
X115.86 Y123.617 I-48.864 J-18.522
G1 X115.438 Y124.425
X115.41 Y124.503
X115.357 Y124.639
X113.323 Y126.468
X111.285 Y128.293
G3 X108.458 Y130.597 I-46.244 J-53.841
X60.976 Y139.366 I-32.263 J-41.763
X41.228 Y128.338 I15.278 J-50.557
G1 X40.805 Y128.17
X40.703 Y128.133
X40.621 Y128.103
G3 X36.312 Y123.396 I108.982 J-104.103
X26.677 Y106.964 I40.851 J-34.993
G1 X26.376 Y106.103
X26.086 Y105.239
G3 X33.805 Y57.579 I50.118 J-16.338
X36.67 Y54.034 I42.645 J31.532
G1 X36.855 Y53.618
X36.99 Y53.255
G3 X41.042 Y49.578 I309.692 J337.206
X53.137 Y41.495 I36.502 J41.531
X76.952 Y36.193 I23.107 J47.648
X111.097 Y49.395 I-0.769 J52.744
G1 X111.516 Y49.573
X111.753 Y49.658
X111.826 Y49.686
G3 X115.509 Y53.731 I-218.077 J202.254
X119.442 Y58.754 I-45.471 J39.652
X126.325 Y72.582 I-43.558 J30.311
G2 X128.794 Y79.446 I472.975 J-166.258
G3 X130.474 Y85.598 I-41.139 J14.534
X130.739 Y96.496 I-36.116 J6.331
X128.567 Y106.269 I-47.721 J-5.477
X119.551 Y123.052 I-52.017 J-17.132
G1 X119.019 Y123.792
G3 X116.701 Y126.6 I-14.982 J-10.007
X103.026 Y137.141 I-43.523 J-42.326
X94.723 Y140.887 I-27.562 J-50.01
X46.584 Y135.467 I-18.52 J-51.998
X42.12 Y132.308 I29.317 J-46.16
G1 X41.388 Y131.765
G3 X38.59 Y129.431 I12.282 J-17.569
X26.726 Y113.377 I40.412 J-42.276
X21.264 Y94.187 I50.006 J-24.607
X32.74 Y54.885 I54.975 J-5.273
G1 X33.281 Y54.151
G3 X35.59 Y51.335 I15.689 J10.508
X38.201 Y48.79 I38.424 J36.809
X52.464 Y39.068 I39.495 J42.618
X84.463 Y34.333 I23.748 J50.002
X110.145 Y45.385 I-8.294 J54.638
G1 X110.875 Y45.933
G3 X113.698 Y48.234 I-10.71 J16.023
X124.315 Y61.848 I-41.582 J43.374
X128.416 Y70.988 I-51.774 J28.726
X130.241 Y76.002 I-412.538 J152.977
G1 X130.254 Y76.074
X131.013 Y79.791
X131.044 Y79.998
X131.102 Y80.412
X131.129 Y80.619
X131.531 Y83.931
X131.552 Y84.138
X131.589 Y84.552
X131.605 Y84.759
X131.772 Y88.9
X131.605 Y93.04
X131.589 Y93.247
X131.552 Y93.661
X131.531 Y93.868
X131.129 Y97.181
X131.097 Y97.426
X131.044 Y97.802
X131.013 Y98.009
X130.168 Y102.149
G3 X128.903 Y106.497 I-283.381 J-80.113
G1 X128.753 Y106.911
X128.678 Y107.118
X127.421 Y110.43
X127.368 Y110.566
X127.245 Y110.844
X127.151 Y111.051
X125.48 Y114.571
X125.377 Y114.778
X123.432 Y118.147
X123.341 Y118.297
X123.017 Y118.818
X122.951 Y118.918
X120.946 Y121.823
X120.739 Y122.113
X120.532 Y122.4
X120.502 Y122.438
X118.135 Y125.336
X117.782 Y125.75
X117.631 Y125.923
X115.014 Y128.648
X114.81 Y128.855
X114.603 Y129.063
X111.564 Y131.754
X111.417 Y131.879
X111.21 Y132.045
X111.052 Y132.168
X108.297 Y134.238
X107.895 Y134.531
X107.688 Y134.681
X107.481 Y134.817
X104.14 Y136.929
X103.959 Y137.038
X103.752 Y137.15
X100.622 Y138.793
X100.023 Y139.101
X99.816 Y139.196
X96.501 Y140.607
X95.874 Y140.863
G3 X91.737 Y142.245 I-47.291 J-134.648
G1 X91.523 Y142.312
X87.324 Y143.347
X86.972 Y143.405
X83.036 Y144.045
X82.622 Y144.087
X82.415 Y144.107
X78.989 Y144.382
X78.479 Y144.415
X78.272 Y144.427
X74.128
X73.921 Y144.415
X73.411 Y144.382
X69.985 Y144.107
X69.778 Y144.087
X69.364 Y144.045
X65.221 Y143.372
X65.076 Y143.347
X60.87 Y142.31
G3 X56.519 Y140.863 I43.695 J-138.63
G1 X55.899 Y140.607
X52.584 Y139.196
X52.377 Y139.101
X51.755 Y138.781
X48.622 Y137.136
X48.441 Y137.038
X48.234 Y136.913
X44.919 Y134.817
X44.712 Y134.681
X44.298 Y134.38
X44.091 Y134.229
X41.348 Y132.168
X41.19 Y132.045
X40.983 Y131.879
X40.836 Y131.754
X37.798 Y129.063
X37.59 Y128.855
X37.386 Y128.648
X34.769 Y125.923
X34.561 Y125.684
X34.265 Y125.336
X31.898 Y122.438
X31.868 Y122.401
X31.597 Y122.024
X31.45 Y121.817
X29.449 Y118.918
X29.383 Y118.818
X29.059 Y118.297
X28.968 Y118.147
X27.023 Y114.778
X26.92 Y114.571
X25.239 Y111.03
X25.156 Y110.844
X25.032 Y110.566
X24.979 Y110.43
X23.723 Y107.118
X23.572 Y106.704
X23.498 Y106.497
G3 X22.233 Y102.149 I181.229 J-55.092
G1 X21.387 Y98.009
X21.356 Y97.802
X21.298 Y97.388
X21.27 Y97.181
X20.868 Y93.868
X20.847 Y93.661
X20.811 Y93.247
X20.794 Y93.04
X20.628 Y88.9
X20.794 Y84.759
X20.811 Y84.552
X20.847 Y84.138
X20.868 Y83.931
X21.27 Y80.619
X21.303 Y80.372
X21.356 Y79.998
X21.387 Y79.791
X22.232 Y75.65
G3 X23.498 Y71.303 I286.501 J81.037
G1 X23.647 Y70.889
X23.723 Y70.682
X24.979 Y67.369
X25.032 Y67.234
X25.156 Y66.955
X25.25 Y66.748
X26.92 Y63.229
X27.023 Y63.022
X28.968 Y59.653
X29.059 Y59.502
X29.383 Y58.982
X29.45 Y58.881
X31.454 Y55.977
X31.661 Y55.688
X31.868 Y55.4
X31.898 Y55.362
X34.265 Y52.464
X34.618 Y52.049
X34.769 Y51.877
X37.387 Y49.151
X37.591 Y48.944
X37.798 Y48.737
X40.836 Y46.046
X40.983 Y45.921
X41.19 Y45.755
X41.348 Y45.632
X44.103 Y43.561
X44.505 Y43.269
X44.712 Y43.119
X44.919 Y42.983
X48.261 Y40.87
X48.441 Y40.763
X48.648 Y40.65
X51.779 Y39.007
X52.377 Y38.7
X52.584 Y38.605
X55.899 Y37.192
X56.526 Y36.937
G3 X60.663 Y35.554 I47.027 J133.848
G1 X60.877 Y35.488
X65.078 Y34.452
X65.428 Y34.395
X69.364 Y33.755
X69.778 Y33.713
X69.985 Y33.694
X73.413 Y33.417
X73.921 Y33.385
X74.128 Y33.373
X78.272
X78.479 Y33.385
X78.987 Y33.417
X82.415 Y33.694
X82.622 Y33.713
X83.036 Y33.755
X87.179 Y34.429
X87.322 Y34.452
X91.53 Y35.489
G3 X95.881 Y36.937 I-43.578 J138.264
G1 X96.501 Y37.192
X99.816 Y38.605
X100.023 Y38.699
X100.645 Y39.019
X103.777 Y40.663
X103.959 Y40.763
X104.166 Y40.887
X107.481 Y42.983
X107.688 Y43.119
X108.102 Y43.419
X108.309 Y43.571
X111.051 Y45.632
X111.21 Y45.755
X111.417 Y45.921
X111.564 Y46.046
X114.602 Y48.737
X114.809 Y48.944
X115.014 Y49.151
X117.631 Y51.877
X117.839 Y52.116
X118.135 Y52.464
X120.501 Y55.362
X120.532 Y55.4
X120.802 Y55.776
X120.95 Y55.983
X122.95 Y58.881
X123.017 Y58.982
X123.341 Y59.502
X123.432 Y59.653
X125.377 Y63.022
X125.481 Y63.229
X127.161 Y66.77
X127.244 Y66.955
X127.368 Y67.234
X127.421 Y67.369
X128.678 Y70.682
X128.828 Y71.096
X128.903 Y71.303
G3 X130.167 Y75.65 I-179.753 J54.646
G1 X130.254 Y76.074
G3 X129.933 Y76.736 I-0.626 J0.105 F1524
G1 X129.846 Y76.784 Z-4.755
X129.761 Y76.83 Z-4.731
X129.68 Y76.874 Z-4.693
X129.605 Y76.915 Z-4.641
X129.539 Y76.951 Z-4.577
X129.482 Y76.982 Z-4.501
X129.436 Y77.007 Z-4.416
X129.403 Y77.026 Z-4.324
X129.382 Y77.037 Z-4.227
X129.376 Y77.041 Z-4.128
Z16 F2032
G28 G91 Z0
G90
G28 G91 X0 Y0
G90
M5
M30
